/* XPM */
static char *_ea9030459df468dd93d41108bd88333ajWZDDJWXeP5bnMM[] = {
/* columns rows colors chars-per-pixel */
"85 64 250 2 ",
"   c #020C04",
".  c #041405",
"X  c #051C05",
"o  c #091D09",
"O  c #071B08",
"+  c #042405",
"@  c #082507",
"#  c #042C05",
"$  c #092D07",
"%  c #062508",
"&  c #09240A",
"*  c #062A09",
"=  c #092C0B",
"-  c #043405",
";  c #043C05",
":  c #093B07",
">  c #063309",
",  c #0A340A",
"<  c #063B09",
"1  c #0A3C0A",
"2  c #083307",
"3  c #0F3B0F",
"4  c #044405",
"5  c #094407",
"6  c #044B05",
"7  c #064309",
"8  c #0A440B",
"9  c #064C09",
"0  c #0B4C0B",
"q  c #094A06",
"w  c #10470E",
"e  c #045305",
"r  c #095407",
"t  c #045B05",
"y  c #095C06",
"u  c #065409",
"i  c #0B540B",
"p  c #065C09",
"a  c #0B5B0B",
"s  c #11540D",
"d  c #115B0D",
"f  c #0E5010",
"g  c #0E5D11",
"h  c #125C11",
"j  c #145510",
"k  c #114E12",
"l  c #036305",
"z  c #096406",
"x  c #036B05",
"c  c #096C07",
"v  c #056309",
"b  c #0C630B",
"n  c #056C09",
"m  c #0B6B0B",
"M  c #12640D",
"N  c #126C0D",
"B  c #186E0D",
"V  c #037405",
"C  c #097406",
"Z  c #027B04",
"A  c #097C07",
"S  c #057309",
"D  c #0B740B",
"F  c #067C09",
"G  c #0B7B0B",
"H  c #13740D",
"J  c #137C0D",
"K  c #197B0E",
"L  c #1B710F",
"P  c #0E6310",
"I  c #0E6F10",
"U  c #156511",
"Y  c #146B12",
"T  c #196912",
"R  c #0D7510",
"E  c #147211",
"W  c #157B11",
"Q  c #1A7C12",
"!  c #1B7410",
"~  c #038305",
"^  c #0A8307",
"/  c #038B04",
"(  c #0B8B06",
")  c #068309",
"_  c #0C830B",
"`  c #058B09",
"'  c #0C8C0B",
"]  c #13840D",
"[  c #1A840E",
"{  c #138B0C",
"}  c #1B8C0E",
"|  c #128907",
" . c #029304",
".. c #0A9406",
"X. c #029C04",
"o. c #0A9C06",
"O. c #059509",
"+. c #0C930A",
"@. c #059A09",
"#. c #0B9B0A",
"$. c #14930D",
"%. c #1B930E",
"&. c #139B0C",
"*. c #1B9B0E",
"=. c #129907",
"-. c #0E8710",
";. c #158211",
":. c #1B8311",
">. c #1C8C11",
",. c #148B11",
"<. c #159310",
"1. c #1B9311",
"2. c #1C9B11",
"3. c #0E9811",
"4. c #229B0E",
"5. c #22970F",
"6. c #218C12",
"7. c #239512",
"8. c #229C13",
"9. c #299D15",
"0. c #02A304",
"q. c #0CA406",
"w. c #03AB04",
"e. c #0AAA06",
"r. c #06A409",
"t. c #0BA30A",
"y. c #0CAD0A",
"u. c #05AF09",
"i. c #13A40C",
"p. c #1BA40E",
"a. c #14AB0C",
"s. c #1BAB0E",
"d. c #10A807",
"f. c #03B403",
"g. c #0AB406",
"h. c #03BB03",
"j. c #0ABD05",
"k. c #0CB40A",
"l. c #0CBC0A",
"z. c #07B80A",
"x. c #14B40C",
"c. c #1BB40D",
"v. c #13BB0B",
"b. c #1BBA0D",
"n. c #10BA07",
"m. c #1DA311",
"M. c #1DAB11",
"N. c #14A311",
"B. c #1CB311",
"V. c #1EBC11",
"C. c #17B512",
"Z. c #21AC0E",
"A. c #23A40D",
"S. c #23B30E",
"D. c #23BB0F",
"F. c #2BBB0E",
"G. c #2CB30F",
"H. c #24A512",
"J. c #23AC12",
"K. c #2CAD14",
"L. c #2BA515",
"P. c #24B412",
"I. c #2AB413",
"U. c #24BB12",
"Y. c #2BBC13",
"T. c #33BD16",
"R. c #35B819",
"E. c #08C707",
"W. c #14C30B",
"Q. c #1BC30D",
"!. c #14CC0B",
"~. c #1BCC0D",
"^. c #14C507",
"/. c #09D607",
"(. c #14D50B",
"). c #1AD40C",
"_. c #1ADD0B",
"`. c #1CC311",
"'. c #1DC910",
"]. c #1FD611",
"[. c #23C40E",
"{. c #23CB0E",
"}. c #29C70E",
"|. c #24DC0E",
" X c #25D50D",
".X c #24C312",
"XX c #2CC313",
"oX c #24CB12",
"OX c #2CCB13",
"+X c #32C415",
"@X c #33CC15",
"#X c #34CC19",
"$X c #3CCD1A",
"%X c #38C817",
"&X c #24D211",
"*X c #2CD213",
"=X c #29DC12",
"-X c #34D316",
";X c #3AD415",
":X c #33DB14",
">X c #3CDC15",
",X c #35D319",
"<X c #3BD41A",
"1X c #36D91A",
"2X c #3DDB1B",
"3X c #0AE308",
"4X c #18E609",
"5X c #19F10A",
"6X c #25E80D",
"7X c #2EE311",
"8X c #34E315",
"9X c #38E418",
"0X c #34EE0E",
"qX c #42D51A",
"wX c #44DB1B",
"eX c #4CDD1C",
"rX c #42DC16",
"tX c #42CC1B",
"yX c #44E31C",
"uX c #4BE31C",
"iX c #45E618",
"pX c #51E31E",
"aX c #56EB1D",
"sX c #4CDC23",
"dX c #47D921",
"fX c #4CD623",
"gX c #4CE421",
"hX c #43E420",
"jX c #54E523",
"kX c #5CEB24",
"lX c #5CEB2A",
"zX c #57E825",
"xX c #5EF123",
"cX c #64EC2C",
"vX c #6CED2C",
"bX c #62EA25",
"nX c #74EF2F",
"mX c #6CF32B",
"MX c #67F128",
"NX c #73F62E",
"BX c #6BEB31",
"VX c #74F234",
"CX c #7BF334",
"ZX c #7BF239",
"AX c #6EEE32",
"SX c #85F737",
"DX c #8AF443",
"FX c #92F844",
"GX c #AEFC50",
"HX c #ACFB52",
/* pixels */
"l ' Y.T.A i 9 - N K.K 0 8 M a H L.N < # , U * , & . & = d J K.K.>.5.; + + # z ' 0.8XGXhXw.~ { N 1 @ . . i D ( bXc.V x s.>XkX-Xs.H.[ a h # 8 9.4 p &.T.*.l e ] G 9 e ; * 4 ",
"T.wXm.v i 6 9 6.7.b a U b :.J.K 6 ; 1 , 8 j * % . & = & j T H W N M - + + # z _ 0.8XGXhXf.' F } U w & @ < i Z pX-Xc.G V e.pXaXa.,.b 8 8 + , M : a I.$.Y.@X&.o.qX^ e i i ; ",
"wXp.v 9 6 K R.} p i i s >.J.b 4 [ 8.4 7 T Y s + . @ @ O w 8 $ < 8 * , # $ ; b A 0.:XGXhXf.a.Y.J.a * & 3 T N V wX.Xc.$.2.a.>XiXb.D i : - < Y b * 7 L.2.~ ( S.,XaXa.x m 5.7.",
"+.t p D I.T.D 7 a i 8 H J 2.] L.5.J [ K.N # # 8 o = & . + , , = & O , q 8 ; r C 0.8XGX9Xh.b.&.n i 1 + * d W Z eXD.Z c $.oXuX>Xi.n r i 8 M : $ @ 1 9 r K L.=.q.eXuXD.^ t ] ",
"t p J %X%.e i f 0 u b ] 1.L.*.H 6 } R.J 9 8 * + % * , @ + @ , $ & O & + ; i v x X.9XGXDX=Xh.X.Z t a : $ i m x tXwXa.C $.*XkX>XD.&.J i , * @ ; & X 1 8 e ' Y..X1XXXS.J.m i ",
"H H >.y - 8 0 9 b ' S.U.p.G G >.W b i 0 8 1 a 6.i > X 1 U , * $ = o , , # - e ^ -XoX&XAXHXDXhXh.X.Z t 6 b H l $X<X~ D K c.wXwX`.J.8.B 7 - + * * X ; c J.&.F F J.@X$.n 4 - ",
"Y.S ] M i 0 9 b m.uX;X@Xp.F n b Y 9 1 0 0 Q 7.N 7 E s T M 1 w 0 , , 0 0 6 t %.*.=.c.g.f.~.zXFXFXlXW.0.~ V c t $.p.] a 4 V @X@X) t M 9.7.- X # , + 9 A $X<Xp.V x ' *.K.m 7 ",
"{ >.>.>.p u H %.P.rX` _ $.m.Y.*.n v r 4 E Q 9 8 d 7.M 7 0 8 1 f 0 i m x Z P.m.e l ' { +.~ X.j.2XVXFXBXoXf.0.F %.%.D t 7 n Y.$XV a - - 0 , 1 0 8 o 8 4 t $.+X<XJ.Z e J :.7 ",
"a a 8 i ] J.P.` A ` +.' u b %.@XXX&._ V x p 6 : - : # , 1 > - ; 4 n r.@XkXyX( t $.K.x { r t ~  .w.oXcXSXZX2Xl.X.~ _ D q F s.<Xx 9 0 1 * , q 1 1 o + - 8 4 t | %XqXJ.~ _ e ",
"i d i E ;.p.OX>X.Xa.#.v D m e S ' D.@XXXc.O.Z c : 7 + < 1 - # - e ~ eXSXqXk.` x .X<XZ ] 4 ; 6 t v Z X.n.wXVXZXsX~.0.V t n s.qXV 8 # , : d k , 1 O + > 7 8 q u x i.Y.;X%X&.",
"E M p L.&.XXqXe.#.p.U.U.b.p.Y.&.a.t.~ &.XXrX@Xo.x _ e b E Y 7 ; t  .lX1Xw. .C D oX<X) P.b + 8 1 7 8 e l  .h.&XlXZXlX[.Z V c.eX) b 0 , * Q T > 8 @ X + + p D >.6.] l ^ F.tX",
"9 i p P.@XXXx..X$.V ) a.1XxXmXu...m.` ` ` ..b.~.uXwX^ ) $.M.K t D X.bX-X0.&.J b M.@Xb.XXt - E 1 * + > 7 b S Z 0.v.fXsX~ ) q.uX~ p i i q i i + + % X # a Q 8 H p a p 4 6 e ",
"b b 8.U.p.@.P.<Xa.@.b.;XwXk.}.Q.U.;.D G @.e.oX1XP.}.qXb.' a.y._ G X.mX-X .c N m _ b.I.%XC 7 i - 0 1 7 8 i i a b _ ~ l 4 l ..uX' 6 - g a M 7 7 b 0 1 } 7.H ; 6 t m ;.m i 1 ",
"L.J.J.+.J <.B.e.y.*XMXmXz...U.&.D H ) @.oXyXY.#.` Z ~ a.&XwXY.' V @.eXs.Z V Z { a.<Xp.] b - 0 8 a K J.9.Q - 1 i y i 9 # e ~ pX&.S m a a M 8 r 7.N :.G.6 e 4 *.A.~ J.I.>.i ",
"I.] S >.H.O.t.[.uXNXlX*Xb.s.' c { e.x.<X%X..~ c m m D &.*X:XOXD.S.Z o.` a.<X.XX.b.kXP.D 0 1 0 d <.%XP.b H H.t 4 ; # : + a ) @Xp.n r 8 0 8 i ] L.b r I.c b 6 ^ ,X&.S ] P.L.",
"D b ] &.t.c.rXmXcX:XW.v.+.C C r.v.1X%X_ x u 9 t b b D F #.*X@.n _ q.bX[.z.W.wX.Xb.s.e J K d E b D 7.M - y } c ] 4.v 6 # 8 V .XH.e : ; p i 2 6 &.D # [ y e e c rXD.' G [ H ",
">.' @.e.-XMXmXwXW.v.&.S n ` k.@XR.M.S.p.} m e 4 6 r D D p.4.t v P.7XSX=X:X}.e./ +.<.v D >.N $.R.&.9 = , q # - c OX@X] b t u m.A.S b q m a 8 9 *.M $ H m u y l ;X.X$.m _ >.",
"#.q.oXzXNXgX~.W.x._ n ` e..X%XJ.&.n n D { %.%.] c b u 4 e ] P.#.&XE.CX!.h.'.*Xp...U.XXq.F.V H.L.b D q , 3.G 7 u v z _ +XwXs.+.<.p a b c m 9 6 *.H * d J R D t ;XA.n b ) oX",
"w.pXNXkX&XW.s.' D G ` U.$XJ.s.+.m 4 q i p D _ 2.2.A A %.I.OXs./ l.!.SX^.X./  .~ i.j.-Xv.uX.X' - 6 n 4 @ m p , P ` t u S x.*X8X+XS p e v J %.t $.] 9 d ;.b F 6 I.Z.n m l D.",
"qXcXuX].Q.i.S D D t t J.Y.n D b 9 7 ; ; 6 p b l C S.rXaX;Xk.) F u./.CX!.W.q./ a.n.cX2X*XuX' x z m m : O 9 8 % , G _ D c O.V t.OXi.$X4.b n 5.n M.b.n y <.m c 4 ] c.A $.p.v.",
"zX~.Q.c.) m | b p J &.c.}.) T d a I b r 6 ; 6 _ ;X>X{.o.' a.#.' E.!.SXE.u.v.~.*X XjXkX~.OX) u.k.O.D i 7 9 6 i E a 7 1 a y.O...@X~ +.P.%XL.l v J.fXm.7.&.` F e { yX}.a.D @.",
"Q.i.' A.*.v 9 N B.Q.k.Q.XXU.{ p < 9 b y r c U.wXF...V _ O.@._ c u.(.nXe.` ' t.[.>XQ.x.u.<Xx.X.#.O...r.F b b 0 H a.$.H - y i.k.OXA V { m.I.8.N b F +..XXXc.i.x A rX&.+.m #.",
"K e } *.D J %.P.J.m.$.&.i.x.b.P.<.E a 6 { @XB.#.Z n F G S c C D ) _ s.#.XX_ ' OX.XY.P..X2X#.V C ) O.t.+.G D b m a.i.$.D c.*.' M.F y.G 9 r M 9 l #.U..XV.*XD.A e XX_ G +.i.",
"] t 6 q E _ M.&.G p a ] p.[.#.' s.$.H.%XA b F v c c c t v C y 1 9 F p.&.B.O.r.OXt.F C s.<X.X&.m p n ' ` D _ -._  .+.] c .XOX}.,XI.] a m ` t 6 D .XXX+X&.O.F m ; S.] p A #.",
"b , 1 b b ] $.] <.p.c.7.J p.{ _ G V s.gX~ b b c F v v V v 1 $ < b i.<Xb.W.~.v.{.B.a.F ( U.i.s.U.s.J v p b D ,.&.r.` D p G 2.&.I.{ ' c v +.H.K p _ S { $.O._ p + W $._ c t ",
"a h a a [ H 9 9 D 2.} N [ 4.c v D S b.<X/ _ b 8 q m ] 7 $ , 7 6 ` &XnX=X~.Q.v.oX&.m.o.e.<Xi.F D { M.S.%.p e J _ o.&.b 1 b O._ x v G $.2.M.G 4 4 G p.Y.$.S F m * q i - : i ",
"6 m m m } p z K B 1 < 7 D m.M b J.~ oX2Xe.~ x D 1 & @ * M H H ` E.9XCX|.yXuXuXC.' P.' @.sXQ.x.i.{ v m } J.W a 7.I.K.<.D #.Q.@.F t <.B.n F G y 7 1.J t M v ' b * > 0 ; i i ",
"# 8 :.*.M.XXL.1.a ; b - * + ; c J.q.dXwXXX+XG 7 , * # 8 m i.U.oX|.8XzXaXiX|.yXoXt.U.+.@.#Xi.i.`.{.X.+.| $.;.b H G D m F ) Q.a._ a { +.D $.&.N 1 t i a J D O.8 X , E D i a ",
"E u m H.] b ] Y.$.a 1 @ + ; 4 6 C / sX-X/ c : + $ 8 H 2.b.@Xc.b.iXiXyXaX_./.E.b.i.W.v.k.,Xx.t.s.U.x.XXc.&.] m a m G G b a %.' D y D ' D.@Xi.z 7 6 m G i 8 +.b q * G _ n v ",
"H *.4.] [ 1.:.r 9 1 1 7 y t 6 4 4 e K.] ; + * 1 1 p M.+.` `.:XyXkXiX7X_.|._.|.U.M.E./.4XbX~.z.b.+Xp.+.{ 2.a.@.G m U i 9 m G a < < i _ +.V i.P.b J ` l y r ' _ ` - n _ %.*.",
"H [ G S.H.2.b , : i q 1 9 r 8 1 $ + 9 < $ 0 Q t t v s.x.[.2XwX.XQ.b.a.b. X|.|.i.r._.6X6XkX=Xj.a.~.&XoXa.{ F _ { #.&.m 9 1 7 b H 1 1 8 E _ #.S 6 } Y.Z.$.v o.' 0.L.T.x.k.V.",
"H 2.M.<.y 2.K i : - - , 1 = @ o X - H 0 < i m _ 2.c s.2XyXoXO.Z #.r.F G &.b._.Q.).4XQ.x.Q.W.).0X0X_.E.E.W.oXx.' _ ] G F m M M N 1 0 a s 1 9 i 8 i V $.I.V  .t.Q.xX*Xk.#.C ",
"a [ H.>.N %.Y i 8 - $ X . & X X - D T._ D ) Z &.P.F b..Xa./ c c O.k.&.a.&.i.a.m.O.r.y./.5X5X6X0X6X4X_.~.Q.lXuX^.r.` F c J { F p 8 8 s 0 8 0 > % # t S &.( b.&X).0.Z y D G ",
"Q U i i 0 N a 1 # X O X # M i ; p $.#X#.F #.h.).B.C i.J.i.' y t ..v.' #.i.!.(.k.j.3X/.3X4X3X/./.E.(._.!.Q.=XeXx.V.V.W.o.S n b J [ 9 0 1 , 0 < 7 H M G %XqX~.h.W.%XV C #.a.",
"W I 6 p 1 Q 0 : # s 7 # v J.p 5 0 e B.B.D _ ` M.M.G s.J.&.m q i S r.#.B.$.t.].8X4X/.t.E.3X3XE.z.u.h.l.k.O.@.k.u.e.e.c.U.M.x...' J i i 6 4 b m H.I.{ c V p.+X@X*XiX .( V.m.",
"M ;.J b i >.m : ; L.Y.2.{ H.4 9 6 e I.] 9 m m J.m._ b.P.k.o.b a ] W.' J a _ 1X7XcX,XX.+.G t.l.E.l.o.F m b #.u.r. .k.E.k...M.B.U.S.) F b D m.J.G e M $.K.( ~ v.S.qX;X.Xl.` ",
"Q b i i 1 ; b i - t { P.XXm.S i 1 : K 0 - 9 e Z.*._ v.*Xl.t.b ] J -.b m v @.:XDXlX/.t.u._ b b m D b _ ' G ' G ~ / ` t.e.Z ~  .a.<XU.V.k.x._ t v Z A _ { n C E.u.:XD.D.<XOX",
"7 1 H U , 8 ] K.7 4 4 4 %.%.9 0 , 8 m 9 1 y t J.$.A b.,Xu...< B N _ D m H #.tX1XE.E.@.E.e.i 7 1 8 i b b m ' +.F F m F O.F k.o.y.).E.:XBX#X0.#.+X<XU.~ F $.] N.O.2Xc.V a.Y.",
"8 M ;.7 * c P.} < b b 7 L b # : * + , 0 0 $.s.P.] D p.Y.c s s b 0 d K Q ] t.h.f.f.e.i.h.h.O._ G b 9 8 1 , a m 9 i e y D A t.a.x.~.oX'.9XVXf.O.Z c.<X,XOXp.x 0.0.oXI.x _ / ",
"T U a 1 # ; H.} - b i 8 1 i i b : 6 r % * m .X9Xs.u D J.b q i 0 j ! ,.F ] a.7X6X/.O.N.e.X.w.g.a.&.{ m 1 , j 0 1 8 9 i b y b t Z @X*XE.&XBXf.k.&.$.` ` &.XX$X.Xo.a.x.p.+XqX",
"a P a $ > i J.N $ 1 y Q 0 8 m F 0 b 0 , 5 t t 7.N m H.2.t M H U i J a.F C ~ i.}.>X[.`.v.X./ / X.o.' c a 9 8 f 1 7 i r b 9 b 9 x ,XyX~.=XVXv.t.m t m D G &.i.P.P.OXpX;XXX[.",
"7 f 7 & - 9 :.7 < m ,.i 2 1 # @ + 7 a i 8 @ 3 M 1 : a b &.a.i.~ S ] { D ' A X.X.X.( p.:X7X).y.) n v S Z Z A ' 4 M E p y q ' z V b.-XX.u.BXe.` b i P m E :.] G ..Q.aX ./ U.",
"9 i 1 # # y K.0 : p m , @ , - - M y > < 1 0 i 1 + O - F @XnXvXOXx.y.t.S v e m #.r.F Z y.J.p.c..XoXk.` ~ O.' ` $.M.{ J :.J _ v V c.OXt.X.gXi.n p 7 a D q r b v m / iX=._ M.",
"m D C G l _ +X6 4 7 < O + 5 H.y K K E [ d b 9     O a N.k. XCXzXyXgX<XoXc.+.V x x y F o.&.` / q.b.).E.u.( Z / 2Xb.&.D _ N.B.2.$.U.*Xx.e.2Xp.t - , 8 Y i N W i D F :X*.t *.",
"G D e.mXo.' %.; , # 1 , + 0 Q 7 - - q H K 7.6.M : , < i ^ v.:X(.j.`.,XwXjXuX-X.Xq.Z c J _ &...z.h.r.t. .e.oXwXtX..&.' R F ' _ a.1XAX1XQ.,Xb.~ y 7 7 i K H.8.b N v D.4.6 [ ",
"G ) v.vXX.S.A.6 d 7 p = + , 7 1 , * # - 7 y N K i N [ D A i.b.#.) / 0.f.l.-XjXgXzXqXa./ Z A F V V O.b.<X<XY.y. ...s.A v v C ~  .l.uXgXzXgX*XV.i.' } ' r ; q :.7.1.$.] c ] ",
"G ~ [.lXg..X.Xm < - 1 $ % + + . # * 1 a s 7 # + # i >.N.c.2XwXi.v 9 8 b Z @.e.g.yXgXgX2XXX#./ ..p.P.J.*. .~ F F ..XX~ ' #.b.b.XX1XjXgX!.v..X#X<X2XuXt.u - r a a >.H.{ 2.2.",
"G  .;XbXb.' G e i 8 > + @ % 8 = 1 + # w 1 a h Y 8 p $.i.x.9XmXW. .C 6 ; , : i ) .XQ.!.).qXlXzXgX.XO.Z V ' J p y Z b.f.Q.<XkXMXgXOXx.x.B.B.i.a.a.p.` O.D 5 q 0 1 # c Y.J.%.",
"XXu.eXOX~ m ] N D H 7.N i 8 4 - 9 < 0 Y 9 7 - 7 d 1.M.$.#.&XjXg.#.&.D c p i 7 e } ' b.~.OXoXv..X<XwX$Xs.M...l S #.oXlXAXlXwX*Xr./ Z $._ x p.OXi.B.M.M.A 6 u c 0 - e A.+Xs.",
"Y.e.eXc.x N N m R.p.e b H :.7.K L.{ v t a i 7 i m :.v ~ s.{.yXk.+.p.t e t m y C U.' &.] t n _ ` @.+..X,XjXsXP.s.k.&XlX'.w.e.c._ ^ p.J.m.F #.P.s.P.R.T.P.H.] F e 4 t l 6 b ",
"c q.pX&.t a 0 q ! ] 6 7 7 8 W { R.@XXXI.$.D n c p _ &.oX-XE.cXg.X.Y.' x x t t Z ,X_ r.f.t p i a M y F #.i.U.@X2XcX&X:Xg.@.a.U.p.$.| _ 2.M.J.%X_ l x n m H %.J.H.$.D G G p ",
"c i.qXx : - 1 8 q M L i ; + - 7 _ p.*.J.XXXXXXY.M.&.o.`.rX).vX^.Q.uXwX.XB.i.~ ~ @XZ X.E.p G W 8 , @ q } F ` x. .XXv.:XXX.X*XOXa.$.*.%.J.] ) U.n P g i q r u n $.P.XX<X@XC ",
"b { *.e 7 q 8 1 , - + 3 X @ > ; H.c i m D ] s.oXoXP.D.9XgX).mXj.c.b.OX-XwXwX<X.X,X_ ` ) - > * 8 P i +.Y.$.G *.x D.b.D.e.@.D.:X&XoXs.A $.#.) J.] y 7 9 9 c } *.p.&.{ _ 2.J.",
"v I.+Xn 9 6 1 $ = .   , * 8 - 4 0 , $ : i J p.U.&.#.X.OXwX}.$X .) V Z ` a.[.OXOXY._ y 8 : 0 i m D M B.;XJ.v y V ,X[.a.o.v.AXZXgX~.j.f.e.#._ G G b i b 1.L.p.$.%.4.} G { ~ ",
"' %X%X%.:.i * . O $ + ; # 5 # T w * - - - z U.J.a.U..X.X,X/ V x n v p t t n V *.D E n { L M i b W i d q 8 b J.Z @X{.>X.Xu.W.&XdXcXcXsX<X.X0.~ l n J G { v G $.$.' ~ ~  .0.",
"+.%X{ 9 : + o + * 0 + - * , + w * # < - - n @XY.V.OXU.i.Y.@XXXA.| n e e 6 6 4 U 1 5 m ' : 4 7 0 1 * , > 8 b &.a.@Xs.Y.i.' &.x.X.0.x.,XcXCXcX<Xv.X.~ ~ Z ) B.b.c.w.w.`.dXcX",
"G *.t - + - + * @ 1 o X $ 1 1 E q 6 4 4 b K ] J C } 2.$.i.a.U.@X.Xb.Y.( t e 4 Y 5 - v _ 1 , % $ , p } D K D J.F ] ) F _ C ' F.&.$.~ / u.{.*XsXcXcXsXoXn.l.^.=XzXvXVXVXzX*X",
"C L.e 6 # ; + X O , % * 7 9 - b J H.L.7.:.a ; # # 9 Q H } { S +.s.Q.aXOX~ v t 4.p * - 0 * 1 5 9 a D H.D H ^ oX~ { &...` Z _ s.V.P.p.' $.P.o.X.0.Q.dXcXVXcXcXVXzXOXv.e. .#.",
"b.eX&.;.0 > O . k h - - a m m } J.2.K i # + + + # - 9 9 9 H M.OXiX7XbX1Xe.' F K q + * 1 0 :.8.8.;.' H b i C -XX.P.D.wXwXXXV.x.a.i.+X%X&.p.A.2.G ~ / z.&XqX$Xx.0.Z x V J %.",
"F.qXF N d 1 X @ d g 1 7 :.G p.J.H u < , 1 , , > # + # ; ; 7 b $.C.E.aX8X|.'.i.D 9 N 2.{ H u m >.1.p.$.] 9 C >Xt.C V a.#XwXgXjXgXOXx.q.&.' P.H.D D D M.H.Z V _ 1.$.*.p.] H ",
"$X%Xt - # s , @ h 1 , 6 *.XXXXn i # + ; ; < 1 1 1 # - # # # 4 J A X.uXQ.c.&.] ;.b i _ &.H.P.{ u 8 i 8 i 7 S ;X#.v u D x  .x.y.D.%XwXwX@Xb.U.b.&.] 1.m.v i H 2.H.$.y : # > ",
"I.] 4 - Q H 8 U T 9 9 l ;XS.} G D *.} z - # + + # , 8 h 1 # i Y c O.2Xt.~ { n b 8 q D ` m H b 7 $ 0 1 1 : l OX$.u : t e S S.../ ..#.s.D.@X<X<XU.+.J.+Xb q 0 < a f $ $ - # ",
":.N 7 - L.Q < 7.i i M G qX_ S J p 8.%.I.H q 7 2 * + * - j 8 N W m @.wXr.D.XXP.m.b 7 9 9 = , , w 7 b b 0 * e Z.G q ; [ *.&.D.o.U...V V / e.oXwXvXoX$.D q 1 3 w 8 0 i M - + ",
"# + + # s 8 + K 9 7 1 c K.' m.G c [ ; 4.H - 1 1 , 1 1 j U > M 1.m t.uXx.p.x G 1.M # $ a K M 1 0 1 m 0 , = p } b < 8 6 b *.XXoXuXQ.c.Y.U.J.( / D.P.D 8 $ * 8 :.d 1 s Q 8.[ "
};
