/* XPM */
static char *ae962d213d574250b7731b55ea84bb89A7YMZCNrorom2gK0[] = {
/* columns rows colors chars-per-pixel */
"480 360 256 2 ",
"   c #010403",
".  c #0A0302",
"X  c #010C05",
"o  c #0A0C03",
"O  c #01030B",
"+  c #0B040B",
"@  c #010D0A",
"#  c #0B0C0B",
"$  c #120102",
"%  c #130C01",
"&  c #13010B",
"*  c #160B08",
"=  c #011203",
"-  c #0A1402",
";  c #031B03",
":  c #0B1A03",
">  c #01130A",
",  c #0A140C",
"<  c #031A0C",
"1  c #0B1B0C",
"2  c #131403",
"3  c #131D03",
"4  c #131C0C",
"5  c #181809",
"6  c #020312",
"7  c #020C13",
"8  c #0B0C12",
"9  c #020C1A",
"0  c #080519",
"q  c #140B14",
"w  c #021313",
"e  c #0A1413",
"r  c #031B13",
"t  c #0B1C13",
"y  c #02141A",
"u  c #0B141B",
"i  c #041B1B",
"p  c #0B1D1B",
"a  c #131413",
"s  c #131C13",
"d  c #1A1D13",
"f  c #131D1B",
"g  c #17181A",
"h  c #2C1C02",
"j  c #261804",
"k  c #321C01",
"l  c #361B05",
"z  c #251B16",
"x  c #280D06",
"c  c #0C230C",
"v  c #092709",
"b  c #142204",
"n  c #13240C",
"m  c #1B230C",
"M  c #132B0D",
"N  c #192607",
"B  c #042314",
"V  c #0D2314",
"C  c #0C2B14",
"Z  c #04241C",
"A  c #0D231B",
"S  c #0C2A1C",
"D  c #052A18",
"F  c #132414",
"G  c #1B2414",
"H  c #142B15",
"J  c #1B2B15",
"K  c #13251B",
"L  c #1B241B",
"P  c #14281D",
"I  c #1A2B1C",
"U  c #0B3217",
"Y  c #14321C",
"T  c #1B321C",
"R  c #183315",
"E  c #12330A",
"W  c #2C240B",
"Q  c #282508",
"!  c #332202",
"~  c #36280A",
"^  c #38350A",
"/  c #23241B",
"(  c #222C1C",
")  c #272816",
"_  c #362917",
"`  c #27331A",
"'  c #393617",
"]  c #28330C",
"[  c #060A23",
"{  c #0C1C22",
"}  c #071826",
"|  c #131D22",
" . c #161B26",
".. c #12112C",
"X. c #022424",
"o. c #0D2422",
"O. c #0D2A23",
"+. c #0C2B2B",
"@. c #062729",
"#. c #132523",
"$. c #1A2423",
"%. c #152A23",
"&. c #1A2C23",
"*. c #13252B",
"=. c #1A242B",
"-. c #152B2A",
";. c #1B2D2B",
":. c #1C3224",
">. c #14332B",
",. c #1C322B",
"<. c #153325",
"1. c #0B2933",
"2. c #152B32",
"3. c #1B2B34",
"4. c #182835",
"5. c #0B3337",
"6. c #193435",
"7. c #0C3227",
"8. c #222C23",
"9. c #252827",
"0. c #372B24",
"q. c #223324",
"w. c #22332B",
"e. c #283727",
"r. c #393626",
"t. c #212C38",
"y. c #233535",
"u. c #3A3B34",
"i. c #231D25",
"p. c #442C08",
"a. c #48380A",
"s. c #573B09",
"d. c #443C1B",
"f. c #4A3C1C",
"g. c #463815",
"h. c #533C17",
"j. c #4A2D11",
"k. c #633D06",
"l. c #643F13",
"z. c #453A28",
"x. c #463C32",
"c. c #4E382A",
"v. c #502D17",
"b. c #39421A",
"n. c #3B4428",
"m. c #364734",
"M. c #55440D",
"N. c #49431A",
"B. c #574617",
"V. c #58551C",
"C. c #4C4811",
"Z. c #68450B",
"A. c #684916",
"S. c #744C16",
"D. c #68541B",
"F. c #75551A",
"G. c #714A0A",
"H. c #4C4323",
"J. c #484727",
"K. c #554927",
"L. c #585727",
"P. c #494735",
"I. c #554A36",
"U. c #595836",
"Y. c #4C542E",
"T. c #654C25",
"R. c #675727",
"E. c #765926",
"W. c #665A37",
"Q. c #705535",
"!. c #5A6428",
"~. c #5C6538",
"^. c #67652B",
"/. c #77662A",
"(. c #686638",
"). c #776838",
"_. c #6A7638",
"`. c #77763A",
"'. c #75722D",
"]. c #78621D",
"[. c #1D3342",
"{. c #535947",
"}. c #675B44",
"|. c #59664C",
" X c #696945",
".X c #746A45",
"XX c #787748",
"oX c #797956",
"OX c #6D704F",
"+X c #757363",
"@X c #304844",
"#X c #877637",
"$X c #8D6F32",
"%X c #896125",
"&X c #877946",
"*X c #867B58",
"=X c #93784C",
"-X c #8C7C60",
";X c #74843B",
":X c #7A8747",
">X c #7C8457",
",X c #7A8B61",
"<X c #93863B",
"1X c #A7893B",
"2X c #868649",
"3X c #978748",
"4X c #888759",
"5X c #958A56",
"6X c #899555",
"7X c #979758",
"8X c #8D944B",
"9X c #A89857",
"0X c #A8904C",
"qX c #95A25A",
"wX c #AFA75B",
"eX c #898865",
"rX c #968B65",
"tX c #989769",
"yX c #91956D",
"uX c #A69A6C",
"iX c #9AA36B",
"pX c #A9A568",
"aX c #B8AA66",
"sX c #B9B776",
"dX c #B2AE71",
"fX c #C7BA76",
"gX c #C6B36C",
"hX c #C3AC5A",
"jX c #BCC278",
"kX c #C9C57A",
"lX c #D5C97B",
"zX c #E4DF7B",
"xX c #B6B288",
"cX c #A6A78B",
"vX c #C4BA8C",
"bX c #CAC886",
"nX c #D7CB87",
"mX c #D9D689",
"MX c #D9D796",
"NX c #CECB93",
"BX c #E6DB97",
"VX c #E7D58C",
"CX c #DCE493",
"ZX c #E8E89A",
"AX c #F6EA9A",
"SX c #EFEF93",
"DX c #D7D5A8",
"FX c #E5DBAC",
"GX c #E9E9A5",
"HX c #F6ECA6",
"JX c #ECF4A6",
"KX c #F6F5A9",
"LX c #F6F6B3",
"PX c #E9E6B6",
"IX c #DEE4B0",
"UX c #DBDFAC",
/* pixels */
"w.:.&.:.:.:.:.:.,.K R &.[.L C.h.o o # # # # @ # # # # # # # # # # # # # # # # # # # # # # # # # [ * o @ > # # r @ j T.h.h.T.j # w 8 # @ w - % [ , , , , , , , , , , , e , , , , , , , , , , , , , , , , , , , , @ l.H.I ,.6.&.8.:.:.:.:.:.:.:.:.:.:.:.:.:.:.:.:.q.P <.>.,.( ' R.j O i : , , 1 e , , , , , , , , , , , , , , , , , , , , , , , e } 5 2 u r , , Z w h R.f.d.R.h r K e , t r - 5 } 1 1 1 e e e e e < e e t t t e e e e t t t t e e t t 1 < t t , , B.h.$.5.q.) y.Y :.:.:.:.:.:.:.:.:.:.:.:.:.:.:.:.>.&.] :.5.&.s.N., 1 1 1 1 1 t t t t t t e e t t t t e e e e e e e e e e e 1 1 1 } 3 : w s , w Z y ! D.z.z.S.! i A # - r w - 5 .., , , , , , , , t e e , , , , e , , , , , , , , e , , , , e , , @ B.K.J >.6.J w.:.:.:.:.:.:.:.:.:.:.:.:.:.:.:.:.( ,.6.&.&.w.' S.j O Z : o > , 8 , , , , , , , , , , , , , , , , , , , , , , , , u 2 2 w > o 8 y @ h S.z.z.S.h @ i # o > 7 * * [ # # # # # # # # # # # # # # # # # # # # # # # # # # # # # # # # l.g.-.6.` ) ;.<.&.:.&.&.:.:.:.w.",
"&.P P P P P P P %.F J A 2.f ' B..                                                           X X . O X X O # -   % A.p.o.o.p.D.%   o # O   > 7   X X X X X X X X X X X X X X X X X X X X X X X X X X X X X X X X 5 A.` K K +.P I K K K K K K K K K K K K K K K K P K P #.#.L W N.~ X w = o @ = X @ @ @ @ > > @ @ X X X X > > @ @ @ @ @ @ @ @ > > X 7 < - O y :   5 S.a.@.@.a.S.5   5 e X - < 7 % > > > > > > > > @ > > > > > > > > > > > > > > > > > > > > > > > B.g.A @.I d &.S K K K K K K K K K K K K K K K K O.K ) P 1.A g.B.= > = > > > > > > > > > > > > > > > > @ @ @ > > > > > > > > > > o > > - X e 5   2 A.g.X.X.g.A.2   : e O = > 7 o @ @ @ @ @ @ @ @ > @ @ X X X X @ X X X X X X @ @ @ X X X X @ X X 5 K._ F S *.H %.K K K K K K K K K K K K K K K K G O.%.K P %.) B.! O w X   X X O X X X X X X X X X X X X X X X X X X X X X X X X . 9 @     o o   2 A.j.X.X.j.A.2   - o   X @ O .                 X                                             # Z.' o.X.J L $.S P P P P P P P &.",
"%.P K K P K K K A I I A S P ) M.#                                                               .     o . O   j A.H.V +.+.V N.A.k   O o     @                         X X X X   X X X X X X X X X       X X     ~ B.Z &.m O.%.F P P P P P P P P P P P P P P P P P F P K P K G ' s.# @   # @ X   X X X X X X X X X X X X X X X X X X X X X X X X   X @ o X 7 @ h A.H.G +.-.G H.A.j w 7 # - X X o > > > @ @ @ @ @ X @ @ > > @ @ @ @ @ @ @ > > > @ > > > > > > > , Z.` Z H K K L S P P P P P P P P P P P P P P P P %.F P A %.Z ` Z., > > > > > > X X X X @ @ @ @ @ > > > @ > X @ @ @ @ @ @ @ > > > X = > = o 7 # k Z.N. .P P  .N.Z.j # 7 o o X = o X X X X X X X X X X X X X X X X X X X X X X X X X X X X X X X X p.K.s L F *.H K P P P P P P P P P P P P P P P P F Z %.G G %.L g.a.o @   O X X   X X     X X X X   X X X X X X                     @ O   o     k A.N.L O.7.P N.A.x   O   .     o                                                               # M.0.o.D K ;.P A K P K K P K K &.",
"&.P K P P P P P P I #.A Y %./ M.# o                                         # # o X X X X X X X @ X . + X O 5 Z.f.A +.m m +.A f.Z.z     #     w X X   X X X X X X X X X X X X X X X X X X X X X X X X X X X X X s.N.X.;.W #.%.H P P P P P P P P P P P P P P P P %.P I K P P F ( A.* @   8 @ = = > @ @ @ > > > > @ @ > > > > > > > > > > > > > > w = o @ < 7 d Z.f.K -.Q Q *.F f.Z.V 7 , > o - w > > > > > > > > > > > > > > > > > > > > > > > > > > > > > > < 1 Z.&.S Q &.-.L P P P P P P P P P P P P P P P P P &.G %.%.( O.q.Z.1 , > > > > > > > > > > > > > > > > > > > > > > > > > > > > > > > - X > , @ s G.a.#.%.Q Q %.#.a.Z.d @ , # o = w > > > > > > > > @ > > X @ X X X > > > > @ > > > > X X X X @ X X s.J.} &.) -.Y K P P P P P P P P P P P P P P P P P O.%.J I #.P ` Z.o X   # @ X X X X X X X X X X X X X X X X X X X X X X X X X X w     +     z Z.N.o.S m m Y o.N.Z.5   X + . X @ o o o o o o o o o X X X   X X o                             # # M.9.#.U P $.K %.P P P P P P P &.",
"&.P K P P P P P P I #.P R P / B.#                                     X X       X X X X X     X X 6 o     W M.N.P A %.G F P A A d.B.W     o   > X X X X X X X X     X X X X X X X X X X X X X X X X X X X X X X s.^ 1.*.W %.%.K P P P P P P P P P P P P P P P P %.P I K P %.A I Z.* @   8 @ X = X X X X @ @ X X @ @ @ @ X X > @ > > > > > > > > > 7 > = O W M.f.A A %.G G %.Z A N.s.W X o , w > > > > > > > > > > > > > > > > > > > > > > > > > > > > > > > > , A.q.F m %.-.F P P P P P P P P P P P P P P P P P &.F -.%.) K q.k.< > > > > > > > > > > > > > , > > > > > > > > > > > > > > > > > > > , X @ Q s.N.A o.H L L M o.P N.M.W O X , 7 > > > > @ @ @ > > > > X @ X X X X @ @ @ @ X X @ @ X X X X @ @ X X k.' 1.#.( $.H P P P P P P P P P P P P P P P P P P O.%.J I O.A ) Z.% X   # @ X X X X X X X X X X X X X X X X     X X X X X X X X >   o     W B.d.V o.H G G H o.V f.M.Q     # 6   X X X X o X   X X X X                                         # M.9.K H %.#.F %.P P P P P K K &.",
"&.P K P P P P P A P P P C F r.B.                                                                  O 6 O j k.M.S I *.*.:.:.*.*.I O.a.Z.W   O ,           X X   X       X X X X   X X X X X X X X X X X X X X X   s.p.+.X.) P K P P P P P P P P P P P P P P P P P %.P I K %.%.K I Z.* > X @ @ X X X X X X X X X X X X X X X X X X @ @ @ @ @ @ @ @ o @ 7 w Q k.a.S I +.+.&.&.+.+.I P s.k.Q w w > = X X > X X @ X @ > > > > > > > > > > > > > > > > > > = > > > > > h.' m n #.%.F &.P P P P P %.%.P P P P P P P P P K P %.%.G n r.h.> > > > > > > > > > > > > > > > > > > > > > > > @ X @ @ X > > > o @ 7 w Q s.a.S $.C O.&.&.O.C $.S a.s.Q 7 7 # X > > @ @ @ @ @ @ X @ @ X X X X X X X X X X X X X X X X X X @ X X s.^ *.A I L F %.P P P P P P P P P P P P P P P P P O.%.G I O.A ) Z.% @ X @ X   X X X X X X X X X X X X X X                         #     W Z.g.O.L S 1.&.&.1.S L o.M.k.j O 6 O                                                                   B.' b A -.K F #.K P K K P P K &.",
"&.P K P P P P P S P I P #.m K.j.              O                         X       X X X X   X X X O     z M.a./ o.m *.2.c c 2.*.m O.d a.B.d   -   X X X X X X X X X X X X X X X X X X X X X X X X X X X X X X X X g.s.P O.G P L %.K K K K K K K K K K K K K K K K &.K P %.%.%.G ` B.* > X # @ > @ X X X X @ X X X X X X X X X X X > > > > > > > > # = @ d M.a.L X.m +.5.4 1 5.@.m #.F a.M.L > o > > > > > > > > > > > > > > > > > > > > > > > > > > > > = = > > > _ N.] o.*.F P &.K K K K K K P P K K K K K K K K A %.P %.o.Q K.~ > > > = = > > > > > > > > > > , > > > > > > > > > > @ @ > > > > > o @ L M.a.F #.m S 5.4 4 5.O.m O.G a.M./ # - @ > > > > > > > > > > @ @ X X X X X @ X X X X @ @ X X X X X @ X X g.g.L S S #.m -.K K K K K K K K K K K K K K K K I o.#.K P O.P ' s.o @ X @ X   @ X X X X X X X X X X X X X X X X X X X X X X X X O -   d B.h.d S Q S 5.4 4 5.S Q O./ a.M.z O     X X X X X X X X                                                 _ N.Q #.-.M I #.P P P P P P P &.",
"&.P K P P P P P S #.F P 2.] V.x               #                                                 w   x s.d.%.o.9.O./ d Y <.d / O./ S S g.Z.k O w         X X X X X X X X X X X X X X X X X X X X X X X X X X X   ) l.b >.K K G #.P P P P P P P P P P P P P P P P I F P O.+.%.G ' s.o X   X > > @ X X X X @ @ X X X X X X X X X X > > > X X @ > > > X j s.f.&.O.#.O.I G &.&.G I O.$.o.O.b.k.k X > > X > X X X @ @ > > > > > > > > > > > > > > > > > > > > > > > > a Z.^ 1.;.m P #.P P P P P P P P P P P P P P P P K %.4 %.5._ A.2 > > = = = > > > > > > > > > > > > > > > > > > > @ X X X X > > > < X k k.d.%.#.$.C =.G I I n =.C 9.O.%.d.s.h X < > > > > @ > > > > X @ X X X X X X X X X X X @ X X X X X X X X X _ B.5 <.O.$.J *.P P P P P P P P P P P P P P P P G A #.K P O.P ' s.  X     @ X 7 X X X X X X X X X X X X X X X X                 y   k Z.d.O.S / K I N %.%.N I K 9.Z P f.s.h   >                                                                 $ M.^ 4.%.v T #.K P K K P K P &.",
"&.%.o.H F w.N #.n >.2.f _ B._ .                                           X X X 0 o   O @     w 6 j k.s.n @.>.n P P P P P P P P K +.X.G s.l.h   > o   X @     [ X X X X X X X X X X X X X X X X X X X X X X X X % I.r.< <.*.r ` 9.S O.V M 6.1.G O.Q F 5.I d P *.O.H N G %.p ) K.F ,   X @ @ @ @ @ @ X X X X @ @ X X @ @ @ X > > [ - o > > X X r O W Z.s.G X.>.m P P P P P P P P K +.X.G s.A.!   r > X = y X X y > > > > > > > > > > > > > > > > > > > > > > > >   _ H.' z f %.<.s 8.&.5 >.O.] S S ) 1.<.b -.;.M M %.*.L ' N.~ o > > > > > > > > > > > > > > > > > > > > > > > > }   X w >   @ r   W A.s.m X.O.F P P P P P P P P M +.X.G s.Z.W 6 r     > > - - [ @ X X X X X X @ X @ X X X X X X X X X X X X X X x I.r., ,.-.e 8.$.1.2.G F >.o.) &.W F 5.&.m -.o.@.*.L I T b Q T.s , X X X X X X X X X X X X X X X X X X X X X X 9     7 X   o w O h Z.s.G @.+.M P P P P P P P P M >.X.4 s.k.j 6 w   . @ X . o 0                                                 . ~ M.^ d | #.U P ;.$.; -.o.E ;.",
"T ] ' A P A } 5.3., 3 C.A.~ . 6                                             X X . O X X O # -   j H.' N &.;.A I P P P P P P P P K P :.P m ' z.!   o # O X X 6   X X X X X X X X X X X X X X X X X X X X X X X X O ~ s._ #.7.<.f b c &.w.9.4 ) ^ @.9.e.Z P ( T S w.A C 7.*.9.f.s., X   X @ @ @ @ @ @ X X X X @ @ X X @ @ @ @ > > o @ > = O w :   W N.' m I 3.#.K P P P P P P P P K P &.L m r.H.W   ; , @ = w w X > > > > > > > > > > > > > > > > > > > > > > > > >   j K.T.~ : Z +.Z V &.P ' _ L m _ ' K &.p @.5.O.< j s.A.^ < w > > > > > > > > > > > > > > > > > > > > > > > >   7 < = @ u ;   ! H.' 5 L &.%.P P P P P P P P P K #.;.I m ' H.h   - 8 O ; < 7 o @ X X X X X X @ X @ X X X X X X X X X X X X X X X _ h.~ K 5.>.4 E v <.q.q.B G _ @.( q.Z K ) ( F q.c D 7.*.9.z.h.> X     X X X X X X X X X X X X X X X X X X X X   6 @ X O o o O h H.' m P ;.#.P P P P P P P P P I p -.&.m d.J.j   - # O X > O .                                                 X   j K.A.~ : o.@.i B >.;.r.W L ",
"w.~ M.g.' ^ ) ] 0.H.L.h.h .   X                                                       o o 6 O x k.' <.@.-.L F -.P P P P P P P P P J G P @.+.' A.k   O #   X >   X X X X X X X X X X X X X X X X X X X X X X X X @ 2 s.B.Q r #.K 7.>.Z i | z N.` V 8.a.Q #.n f >.4 -.5.} 3 g.N.j X     X > @ X @ @ @ X X X X @ @ X X X @ X X > > o = X - , 7 @ j Z.' S @.#.L $.#.P P P P P P P P P J G P @.+.' A.k X 7 1 X @ > o > > > > > > > > > > > > > > > > > > > > > > > > < > # 5 ' L.K.z.^ ~ a.r.g.Z.q.8.I ( k.g.r.p.Q _ r.H.K.N.h .   B > > > > > > > > > > > > > > > > > > > > > > > >   < > X , 7 X k Z.' O.@.#.L &.*.P P P P P P P P #.$.L #.@.O.' Z.j # 7 , - > > o > X X X X X X @ X X X X X X X X X X X X X X X X 7 2 s.M.Q < O.P 7.-.p } #.Q J.' P ) f.W P K K 2.5 %.5.i 3 g.h.j       X X X X X X X X X X X X X X X X X X X X X   > X   o O   k Z.' S @.#.L &.%.P P P P P P P P -.s L -.@.<.d.k.x   6 o o                                                       o   O * ^ B.K.z.^ ~ a.z.f.A.0.,.",
"+. .a.F.s.B.D.s.M.p.5 . O +                                                     @ X   .   O a Z.M.4 X.5.A G 8.o.P P P P P P P P %.I m P 5.@.m s.Z.z O   +     w X X X X X X X X X X X X X X X X X X X X X X X X X   2 p.B.d./ H Z =.N M e.K.H.#.V K M.A.u.( d f b F  .0.D.M.j O X X X > @ X X @ X X X X X X @ X X X X X X X X > > =   o > @ d Z.s.m X.5.#.d I *.P P P P P P P P O.J m %.5.@.m s.Z./ @ > , X = w > > > > > > > > > > > > > > > > > > > > > > > >   1 { w X 3 ^ h.k.A.A.a.S.s.Z D @.Z s.F.g.A.G.k.s.g.m > w i ,   > > > > > > > > > > > > > > > > > > > > > > > > w = - , > @ / Z.s.m @.5.#.G I *.P P P P P P P P -.L d #.5.X.m s.Z.d @ > # X = w @ X X X X X X @ X X X X X X X @ X X X X X X X X X   2 g.K.g.Q K } $.d L ` B.K./ F G s.A.e.&.4 Z F L g _ V.M.j   X X X X X X   X X X X X X X X X X X X X X X X X w     +   O z Z.s.m X.5.%.d I -.P P P P P P P P o.8.d A 5.@.m M.Z.5 O   .   X X                                                 . o ,     * ~ s.k.B.B.p.G.s.f %.",
"7.@.( M.x O , $ % .           +                                           X     X + o     W M.f.G &.%.A K I I A P P P P P P P P %.K &.I A %.:.4 g.B.W     # O @ X X X X X X X X X X X X X X X X X X X X X X X X X =   o ' B.h.z.' f.a.M.h.F.a.d 1.#._ S.f.J.M.' e.H.B.B.g.2   e > > X @ X X X @ X X X X X X X X X X X X X X @ @ > 8 ,     W M.d.4 8.%.p P I K %.P P P P P P P P O.A &.I A %.8.3 g.B.W   > , @ > > > > > > > > > > > > > > > > > > > > > > > > > i @ X - 4 , X X @ , 7 % Z.` O.I #.X.` A.j > 3 a o - > > X X > w > > > > > > > > > > > > > > > > > > > > > > > > > @ , >   W B.g.4 8.%.A I I K %.P P P P P P P P %.F I P p %.q.4 d.M.W O   , 9 > > X X X X X X @ X X X X X X @ @ X X X X X X X X   > X - g.K.f.f.^ a.M.B.C.D.p.=.1.@.~ S.f.H.B.g.e.N.M.M.g.q   e X X X X X     X X X X X X X X X X X X X X X X X @ O o     W B.g.4 ;.%.A I I K %.P P P P P P P P A I I K A %.&.G d.M.W     o 6 X                                                 [       + +     . X 6 x Z.0.Z T ",
"I v #.g.h.0 6 +   X + .   o   6                                           X       + 6 O j Z.M.S X.;.8.d I P V &.P P P P P P P P %.#.#.K m ) &.@.S a.Z.W O 6 8   X X X X X X X X X X X X X X X X X X X X X X X X 7 X X     2 ~ s.M.h.^ ~ p.A.! H *.S d s.p._ a.z.N.a.p.j   @ , . X X X X X X X > X X X X X X X X @ X X X X X @ @   8 9 @ Q Z.M.A @.-./ G H P S S P P P P P P P P %.O.#.K m G %.O.S a.Z.W X w t   > > > > > > > > > > > > > > > > > > > > > > > > @ > < > 7 y w ; Z > i B.s.-.$./ G G P s.H.i > } > w w , - - > w > > > > > > > > > > > > > > > > > > > > > > > >   u 9 @ ] Z.a.S 1.-.L G K %.P H P P P P P P P P A K H J G L -.@.Z M.Z.Q 7 9 e   > @ X X X X X @ @ X X X X X @ @ X X X X X X X X 7 # o     2 ~ s.M.s.p.~ p.B.! P -.+.m A.p.~ f.H.H.a.p.j   @ # . X X X X X   X @ X X X X X X X X X X X X X X X X   8 O   W Z.a.S @.-.L G F P P K P P P P P P P P &.V P I G 8.,.X.S M.k.j O 6 +                                                             O # X +   9 B.h.;.X.&.",
"9.m L ) T.p..   @     . O                                                 X X         z M.a./ o.>.A L 8.P V S &.P P P P P P P P P %.Z P ` G B 6.O.d a.B.z O o O X X X X X X X X X X X X X X X X X X X X X X X X >   O ; X O   . o ; X . j.z.&.D N C %.d.s.x   + % .   e X   X # X X X   X X X X @ @ X X X X X X @ @ X X X X @ @ @ - X / M.a.G o.>.t L q.K V &.P P P P P P P P P I &.Z P ( G t 6.S s g.B.z X : @ > > > > > > > > > > > > > > > > > > > > > > > > : X X r i w X X X o p.T.) f L #.P ( K ) T.p.%   > > > X @ w < ; > > > > > > > > > > > > > > > > > > > > > > > > X : # / B.a.4 O.6.t G ( P Z &.I P P P P P P P P K P A P 8.F p 6.o.L a.M./ @ - # > X X X X @ @ @ @ @ @ X X X X @ X X X X X X X X >     , X   o $ % # O $ j.z.) V Q F P z.s.%   X % . O u X   = o X     X X X X X X X X X X X X X X X X X X X X X O o   z B.h.d S 6.t F 8.K V %.P P P P P P P P P &.A V P 8.L A >.o.G a.M.z O   O                                                 %     7 7     . . $ p.A.) A S -.",
"7.*.C X.9.S.x 9 6 .     X 9 O .                                           X X   >   x Z.H.%.Z 9.J F #.#.%.P P #.P P P P P P P P J A P -.#.%.&.F 9.O.S f.A.h   w X X X X X X X X X X X X X X X X X X X X X X X X . = >     o > [ + @ @ h F.~ *.S ) *.@.t E.a.9 ; 9 y X   # #   = X X X X X > X X @ X X X X X X @ @ @ X X X X > > r   j Z.H.%.Z 9.v H #.o.%.P F ;.P P P P P P P P J F P %.o.P &.F / O.o.z.G.!   i > > > > > > > > > > > > > > > > > > > > > > > > = > e o   - < y y G G.' @.F J X.X.-.K @._ S./ w 9 = ; ; w 9 @ ; > > > > > > > > > > > > > > > > > > > > > > > > <   ! S.f.S O.=.n H P o.-.#.K L P P P P P P P P &.K K &.o.#.I M 9.Z %.H.Z.j   r > X X X @ @ @ @ @ @ @ @ X X X X X X X X X X X X   > w X o - w [ o @ @ Q R.Q o.1.I O.5.t S.g.X #   < X   o # O 7 X X X X X X X X X X X X X X X X X X X X X X X X y   h G.z.o.O.9.M I #.#.%.P A #.P P P P P P P P #.P P %.#.#.F J 8.Z O.H.Z.h   >                                                 O     . .       y z G.` @.G / *.",
"' ' ' ~ ~ I.P.%                                                 0 %   O @   O @ O j Z.B.n X.>.N P P P P P P P P P P P P P P P P P P P P P P P P F >.X.4 B.A.h O 7 8   @ w   o 6 X X X X X X X X X X   X X X X X X X X X X X X X > X % A.' *.O.Q O.O.C M ` U.~ . X X X X X X X X X X X X X X X X @ @ X X X X X X [ -   w >   e > O h A.M.4 @.6.M P P P P P P P P P P P P P P P P P P P P P P P P F 6.@.4 M.G.! O < r   @ r o 2 [ > > > > > > > > > > > > > > > > > > > > > > > > t P.K.~ _ r.' ' ' _ r._ ~ K.P.a > > > > > > > > > > > > > > > > > > > > > > > > y 2 X i >   r w @ ! S.A.4 @.6.N P P P P P P P P P P P P P P P P P P P P P P P P v >.X.4 B.A.! O < >   > w - o [ X X X X @ @ @ @ X X X X X X X X X X X X X X X X <   5 B.d.2.X.] I B >.&.) U.! . X X X X X X X X X X X X X X X X X X X X X X X X 7     7 X   # 9   h A.B.4 X.6.F P P P P P P P P P P P P P P P P P P P P P P P P N >.X.n B.A.j 6 X #   X @   . 0                                                 % J.K.~ ~ ' ' ' ",
"B.B.A.A.A.A.j.$                                                 o O X - O O     j K.N.3 I ,.P H P P P P P P P P P P P P P P P P P P P P P P P P &.A &.I 4 z.I.!     8 7 X X O o X X X X X X X X X X   X X X X X X X X X X X X X   % g.K.Q P 6.Z ( s L 8.d z.K.! X X X X X X X X X X X X X X X X @ @ X X X X X X - O = = 8 e     W K.d.b &.;.A I P P P P P P P P P P P P P P P P P P P P P P P P P B ;.I 4 d.I.~ @   e w - > @ 2 > > > > > > > > > > > > > > > > > > > > > > > > % a.A.Z.T.T.B.B.M.B.T.T.Z.A.a.% > > > > > > > > > > > > > > > > > > > > > > > > 2 @ > - w 1   @ Q K.d.3 &.-.A I P P P P P P P P P P P P P P P P P P P P P P P P H A ;.I 3 d.K.!   X # w = X O - X X X X @ @ @ @ X X X X X X X X X X X X X X X X   % h.K.) o.-.B G K %.F m d.f.~ X X X X X X X X X X X X X X X X X X X X X X X X o O   X # o     ! I.z.4 I &.A &.P P P P P P P P P P P P P P P P P P P P P P P P H B ;.&.N N.K.h     O O X @ O .                                                 $ a.Z.Z.A.T.B.B.",
"e     o o # @ O                                                     @     9 O x Z.N.<.X.%./ L %.P P P P P P P P P P P P P P P P P P P P P P P P *.F L %.X.-.N.G.k   w o   w @   X X X X X X X X X X X X X X X X X X X X X X X X [ _ Q.0.#.G &.1.M P #.*.#.L J.N.X X X X X X X X X X X X X X X X X X X X X X X X X = >   o y   h A.N.S X.-.L f -.P P P P P P P P P P P P P P P P P P P P P P P P &.G G %.X.O.J.A.k X y ,   r > o > > > > > > > > > > > > > > > > > > > > > > > > 7 < : - < < > 1 1 > > < - : < w > > > > > > > > > > > > > > > > > > > > > > > > = < r   - i X k A.N.P X.%.L f -.P P P P P P P P P P P P P P P P P P P P P P P P ;.F L %.X.P N.Z.h @ 7 o   > <   @ @ X X X X X X X X X X X X X X X X X X X X X X 9 ' T.r.| L q.2.F &.o.K G ) P.r.X X X X X X X X X X X X X X X X X X X X X X X X   w @   o @   k G.N.O.X.%.L f *.P P P P P P P P P P P P P P P P P P P P P P P P &.s L %.X.<.N.A.h   9 .   @ X                                                   6 6 @ O 8 6 6 8 ",
"O           O 7                                                 @ =   + # O d A.B.3 X.[.P 5 I %.P P P P P P P P P P P P P P P P P P P P P P P P #.8.d A 5.@.b M.G./   X a   X 7 X X X X X X X X X X X X X X X X X X X X X X X X   p.F.s.R.G.G.E.Z.F.D.A.E.A.F.F.X X X X X X X X X X X X X X X @ X X X X X X X X w =   a X O / Z.M.b X.5.P d 8.#.P P P P P P P P P P P P P P P P P P P P P P P P %.( d A 5.X.4 B.S.I O > t X - w > > > > > > > > > > > > > > > > > > > > > > > > i > > > > > > > > > > > > > > i > > > > > > > > > > > > > > > > > > > > > > > > r -   t #   I S.B.3 X.5.A 4 &.o.P P P P P P P P P P P P P P P P P P P P P P P P #.( 4 A 5.X.b B.S.d O X , o X w @ @ X X X X X X X X X X X X X X X X X X X X X X o a.G.B.R.G.G.A.S.F.A.S.S.G.%XS.X X X X X X X X X X X X X X X X X X X X X X X X w     #     z G.M.3 X.5.P d 8.*.P P P P P P P P P P P P P P P P P P P P P P P P #.8.d A 5.X.N M.Z.z O X q     7                                                 @               ",
"% % . . % . . .                                                   8 .     j B.K.G K %.%.I F K %.P P P P P P P P P P P P P P P P P P P P P P P P K P I P %.%.P s H.L.j   > o O X X X X X X X X X X X X X X X X X X X X X X X X X 9 r G _ _ Q ~ j _ 5 _ W W ) ) * X X X X X X X X X X X X X X X @ X X X X X X @ @ > @ X >   Q V.N.G L %.#.P I P A P P P P P P P P P P P P P P P P P P P P P P P P #.P I P P #.K b H.D.Q @ , , w , > > > > > > > > > > > > > > > > > > > > > > > > X X - : - - - - - - - - 2 - X = > > > > > > > > > > > > > > > > > > > > > > > > > w - , X Q T.N.d L %.#.P I P S P P P P P P P P P P P P P P P P P P P P P P P P A P I P %.%.I G H.V.W   > , O > @ X X X X X X X X X X X X X X X X X X X X X X @ 6 > G ) _ ) _ l ) Q ) ) ) z Q 2 X X X X X X X X X X X X X X X X X X X X X X X X >   o X   W V.H.G K %.#.I I P P P P P P P P P P P P P P P P P P P P P P P P P P P P I P #.%.K n K.D.j   @ o O                                                   + . . % + + & * ",
"O O     O @ @ 7                                                   O 9 O j F.B.o.X.,.L 5 I Y A P P P P P P P P P P P P P P P P P P P P P P P P P H V &.I 5 L ,.@.O.N.F.W O w #   X X X X X X X X X X X X X X X X X X X X X X X X . e   . . O 7 O O   =     =   O X X X X X X X X X X X X X X X @ X X X X X X @ @   e y O W F.M.S X.;.L d I Y V P P P P P P P P P P P P P P P P P P P P P P P P P %.Z &.I d G ;.X.S M.F.W O y e   > > > > > > > > > > > > > > > > > > > > > > > > r r w w @ w w w w w w @ w w r r > > > > > > > > > > > > > > > > > > > > > > > > X t y   W E.M.S @.;.L 4 ( P V P P P P P P P P P P P P P P P P P P P P P P P P P P V P I 4 L ;.@.A B.S.W O 9 u   @ X X X X X X X X X X X X X X X X X X X X X X @ * # X . . O 6       =   X O   X X X X X X X X X X X X X X X X X X X X X X X X X   4 X   W F.B.Z @.;.G d &.&.V H P P P P P P P P P P P P P P P P P P P P P P P P P V P I d L ;.X.%.M.F.h O 9 8                                                   @ X             ",
"                                                                a     z D.B.d o.<.P L L K S %.P P P P P P P P P P P P P P P P P P P P P P P P P H S A P I G P 2.-., M.R./     # X X X X X X X X X X X X X X X X X X X X X X X X X 1 > = ; w X =   1 X   - =   1 @ X X X X X X X X X X X X X X X @ @ @ X X X X @ e     / D.M., -.>.A F I P S S %.P P P P P P P P P P P P P P P P P P P P P P P P %.S S P &.L #.>.-.< M.R.I X o r > > > > > > > > > > > > > > > > > > > > > > > > > > > w < < > > , > < < w > > = > > > > > > > > > > > > > > > > > > > > > > > > i   X I R.B.1 &.,.o.P &.I K K %.P P P P P P P P P P P P P P P P P P P P P P P P &.K C P I F #.>.-.4 M.R.9.  = # X X X X X X X X X X X X X X X X X X X X X X X @   ; = = ; r @ < .   -     #   - X X X X X X X X X X X X X X X X X X X X X X X X 8 o   ) R.N.s %.6.P G I P A S P P P P P P P P P P P P P P P P P P P P P P P P P %.S A P &.L A >.O.5 B.R.z     q                                                 O     O O O     ",
"            . .                                                     h A.K.O.O.9.M H %.-.P A P #.P P P P P P P P P P P P P P P P P P P P P P P P K &.#.A #.&.P n d %.A H.F.k O 7 X X X X X X X X X X X X X X X X X X X X X X X X t   8 7   * % X o #   u 6 O X   @ X X X X X X X X X X X X X X X @ @ @ X X X @ @ >   h S.N.A >.i.M P -.#.A P %.#.P P P P P P P P P P P P P P P P P P P P P P P P K I H A *.2.#.F $.-.A N.S.! X < > > > > > > > > > > > > > > > > > > > > > > > > < = X > ; = = , , X = ; > X > ; > > > > > > > > > > > > > > > > > > > > > > > > w X ! S.J.o.-.L b K +.+.P I &.#.P P P P P P P P P P P P P P P P P P P P P P P P L P S A #.;.P n 9.#.%.N.S.!   > X X X X X X X X X X X X X X X X X X X X X X X X w O   w   & &   @ ,   @ 7 u X = X X X X X X X X X X X X X X X X X X X X X X X X y   ! S.H.%.S / F H P #.o.#.&.K P P P P P P P P P P P P P P P P P P P P P P P P #.&.P A -.-.H v  .-.A H.F.k   X                                                 .             . ",
"                                                [ .   @     8 X O j S.A.G @.O.M P P P P P P P P P P P P P P P P P P P P P P P P P P P P P P P P P P P P P P P P S -.*.5 B.R.W   @ # .   y   - 6 X X X X X X X X X X X X X X X X X X X X X X X X X X X X X X X X X X X X X X X X X X X X X X X X [   X r   o , > O h F.A.n @.O.M P P P P P P P P P P P P P P P P P P P P P P P P P P P P P P P P P P P P P P P P H 1.@.s B.F.h @ < e o @ i o : [ > = = > > > > > > > > > > > > > > > > > > > > > > > > > > > > > > > > > > > > > > > > > > > > > y 2 X y X   r w X Q F.B.4 @.2.J P P P P P P P P P P P P P P P P P P P P P P P P P P P P P P P P P P P P P P P P M 7.@.4 B.F.h O > e   > w   o 9 X X X X X X X X X X X X X X X X X X X X X X X X X X X X X X X X X X X X X X X X X X X X X X X X 6 2 X w   . a > O h F.B.4 @.7.M P P P P P P P P P P P P P P P P P P P P P P P P P P P P P P P P P P P P P P P P J O.X.n A.F.j O X # .   7 . . [                                                 ",
"                                                . 9     6 O   O j (.K.N F ;.&.F P P P P P P P P P P P P P P P P P P P P P P P P P P P P P P P P P P P P P P P P B &.;.L 3 J.}.k       w   w O - X X X X X X X X X X X X X X X X X X X X X X X X X X X X X X X X X X X X X X X X X X X X X X X X   7 X   |     X ! W.N.3 L ;.%.V P P P P P P P P P P P P P P P P P P P P P P P P P P P P P P P P P P P P P P P P V %.;.P 3 N.}.W X = 8 u X < O - > > > > > > > > > > > > > > > > > > > > > > > > > > > > > > > > > > > > > > > > > > > > > > > > 2 @ w - w 1 o @ W W.N.3 L ;.&.V P P P P P P P P P P P P P P P P P P P P P P P P P P P P P P P P P P P P P P P P F %.;.K 3 H.W.h X   e 7 = > O - X X X X X X X X X X X X X X X X X X X X X X X X X X X X X X X X X X X X X X X X X X X X X X X X - O >   w X   . h W.N.3 P ,.;.t P P P P P P P P P P P P P P P P P P P P P P P P P P P P P P P P P P P P P P P P V &.,.K 3 J.W.j       u   X 8 .                                                 ",
"                                                o   <     6 # x F.J.S X.,.L L %.P P P P P P P P P P P P P P P P P P P P P P P P P P P P P P P P P P P P P P P P &.G 4 ,.@.o.J.F.l   i     X >   X X X X X X X X X X X X X X X X X X X X X X X X X X X X X X X X X X X X X X X X X X X X X X X X o X > -   i X k F.N.B O.,.g F ;.P P P P P P P P P P P P P P P P P P P P P P P P P P P P P P P P P P P P P P P P &.G s ,.@.Z J.E.~ X {   X < <   > > > > > > > > > > > > > > > > > > > > > > > > > > > > > > > > > > > > > > > > > > > > > > > > X < r   X y @ ! E.H.D @.,.s F &.P P P P P P P P P P P P P P P P P P P P P P P P P P P P P P P P P P P P P P P P -.F s ;.@.D H.F.! X y     r <   X X X X X X X X X X X X X X X X X X X X X X X X X X X X X X X X X X X X X X X X X X X X X X X X   > X .   y   l F.J.D X.,.g F -.P P P P P P P P P P P P P P P P P P P P P P P P P P P P P P P P P P P P P P P P -.L s ;.O.S Y.F.h   y   o @                                                     ",
"                                                w     q   O * E.D.3 X.5.A / I o.P P P P P P P P P P P P P P P P P P P P P P P P P P P P P P P P P P P P P P P P #.I H B 5.2.5 B.F.0.O o ,   X @ X X X X X X X X X X X X X X X X X X X X X X X X X X X X X X X X X X X X X X X X X X X X X X X X w X o # > O d F.A.3 @.5.A / &.#.P P P P P P P P P P P P P P P P P P P P P P P P P P P P P P P P P P P P P P P P P ( / p 5.1.4 B.F.0.X < e X = w > > > > > > > > > > > > > > > > > > > > > > > > > > > > > > > > > > > > > > > > > > > > > > > > w - X t =   8.F.A.3 +.5.p / I O.P P P P P P P P P P P P P P P P P P P P P P P P P P P P P P P P P P P P P P P P #.8./ t 5.+.b A.F.( O X a   = w X X X X X X X X X X X X X X X X X X X X X X X X X X X X X X X X X X X X X X X X X X X X X X X X 8 X   , # O 0.F.B.3 +.5.p / 8.#.P P P P P P P P P P P P P P P P P P P P P P P P P P P P P P P P P P P P P P P P #.L G A 5.@.3 D.F.d O , &     w                                                 ",
"                                                  6     + % R.K.n F ,.P F I A %.P P P P P P P P P P P P P P P P P P P P P P P P P P P P P P P P P P P P P P P P $.P <.B f 8.K c J.R.h O > = O X X X   X X X X X X X X X X X X X X X X X X X X X X X X X X X X X X X X X X X X X X X X X X X X X > u   > 8 j R.H.G K ,.A F q.K A P P P P P P P P P P P P P P P P P P P P P P P P P P P P P P P P P P P P P P P P #.P q.F A ,.K b H.R.Q @ > > @ > > > > > > > > > > > > > > > > > > > > > > > > > > > > > > > > > > > > > > > > > = > > > > > > > > @ o , @ W E.K.m F ,.A F q.P O.P P P P P P P P P P P P P P P P P P P P P P P P P P P P P P P P P P P P P P P P A K q.F A ,.K n K.R.W   >   @ > X X X X X X X X X X X X X X X X X X X X X X X X X X X X X X X X X X X X X X X X X X X X X X X X @ O X X O W R.J.G K ,.A F q.K P P P P P P P P P P P P P P P P P P P P P P P P P P P P P P P P P P P P P P P P P P F T F A ;.F G K.R.% O X   8                                                   ",
"                                                  8 9 O % %XL.A X.,.s G q.V A P P P P P P P P P P P P P P P P P P P P P P P P P P P P P P P P P P P P P P P P P &.Z Z q.) 5 ,.@.P M./.Q   O a   X X   X X X X X X X X X X X X X X X X X X X X X X X X X X X X X X X X X X X X X X X X X X X X X   # 7 7 j %XB.A @.;.s G q.V V &.P P P P P P P P P P P P P P P P P P P P P P P P P P P P P P P P P P P P P P P P -.A B q.G 4 ,.X.S M.%XW @ 7 u   > > > > > > > > > > > > > > > > > > > > > > > > > > > > > > > > > > > > > > > > = > > > > > > > X e w   _ E.B.P X.,.4 / q.A o.-.P P P P P P P P P P P P P P P P P P P P P P P P P P P P P P P P P P P P P P P P &.V V q./ s ;.X.O.B.E._ O 9 e   X X X X X X X X X X X X X X X X X X X X X X X X X X X X X X X X X X X X X X X X X X X X X X X X   a 6 O Q /.M.P @.;.s / q.B V &.P P P P P P P P P P P P P P P P P P P P P P P P P P P P P P P P P P P P P P P P P C A q.G s ,.X.Z T.%X2 O 6 8                                                   ",
"                                                8   @ * ^.R.o -.O.,.F L K P ,.t P P P P P P P P P P P P P P P P P P P P P P P P P P P P P P P P P P P P P P P P A :.A P I F &.+.P 4 N.^.z %   w X X X X X X X X X X X X X X X X X X X X X X X X X X X X X X X X X X X X X X X X X X X X X X X X ,   e 5 /.V.o ,.O.;.F L K V :.F P P P P P P P P P P P P P P P P P P P P P P P P P P P P P P P P P P P P P P P P V :.S F L L ,.O.O.4 M././ #   t > > > > > > > > > > > > > > > > > > > > > > > > > > > > > > > > > > > > > > > > = > > > > > > > i   X ( E.B.1 &.O.,.L L K A ,.A P P P P P P P P P P P P P P P P P P P P P P P P P P P P P P P P P P P P P P P P A :.V K L F &.O.>., B.^.9.    e X X X X X X X X X X X X X X X X X X X X X X X X X X X X X X X X X X X X X X X X X X X X X X X X ,   + z ^.C.4 %.O.;.F L K V :.A P P P P P P P P P P P P P P P P P P P P P P P P P P P P P P P P P P P P P P P P t :.K F L L ,.O.-.o R.).% 8   8                                                 ",
"                                                >   x %XK.Z >. .M 1 -.-.A K V ;.P P P P P P P P P P P P P P P P P P P P P P P P P P P P P P P P P P P P P P P P C F &.#.O.7.t L F O.#.K./.!   @ X X X X X X X X X X X X X X X X X X X X X X X X X X X X X X X X X X X X X X X X X X X X X X X X > X h /.H.A 6.g m V ;.o.Z P K ;.P P P P P P P P P P P P P P P P P P P P P P P P P P P P P P P P P P P P P P P P K F T A #.;.A H $.O.S K.%X! X < > > > > > > > > > > > > > > > > > > > > > > > > > > > > > > > > > > > > > > > > = > > > > > > > r X ! %XI.o.-.F H A 3.*.A T F L P P P P P P P P P P P P P P P P P P P P P P P P P P P P P P P P P P P P P P P P &.K &.A #.;.V J i.-.S K.F.!   > X X X X X X X X X X X X X X X X X X X X X X X X X X X X X X X X X X X X X X X X X X X X X X X X @   ! /.K.P O.$.J t -.#.A &.P -.P P P P P P P P P P P P P P P P P P P P P P P P P P P P P P P P P P P P P P P P &.V P A #.-.t H $.>.B K.%Xj   @                                                 ",
"                                6 .   @   . + @ O j F.A.G +.O.M P P P P P P P P P P P P P P P P P P P P P P P P P P P P P P P P P P P P P P P P P P P P P P P P P P P P P P P P F *.@.< V./.h . X ,     w   - 0 X X X X X X X X X X X X X X X X X X X X X X X X X X X X X X X X [ o   > > = , > 7 j %XB.5 2.X.H P P P P P P P P P P P P P P P P P P P P P P P P P P P P P P P P P P P P P P P P P P P P P P P P P P P P P P P P Q Z 5.: B.%Xj 6 < e , > w = - [ > > > > > > > > > > > > > > > > > > > > > > > > > > > > > > > > 9 - = > X , e < 6 W E.A.4 @.7.M P P P P P P P P P P P P P P P P P P P P P P P P P P P P P P P P P P P P P P P P P P P P P P P P P P P P P P P P M O.@.4 B.%Xh 6 > , =   > o o 9 X X X X X X X X X X X X X X X X X X X X X X X X X X X X X X X X 0 2   w X . a > . j '.V.; 1.o.J P P P P P P P P P P P P P P P P P P P P P P P P P P P P P P P P P P P P P P P P P P P P P P P P P P P P P P P P M Z 5.n A.%Xj 6 @ O .   @ . . 6                                 ",
"                                . O     6       j .XU.m F #.&.P P P P P P P P P P P P P P P P P P P P P P P P P P P P P P P P P P P P P P P P P P P P P P P P P P P P P P P P P V &.#.8.: b.oXh     @ u   , O ; X X X X X X X X X X X X X X X X X X X X X X X X X X X X X X X X   7 < = @ O X   j .XH.Q I A w.V P P P P P P P P P P P P P P P P P P P P P P P P P P P P P P P P P P P P P P P P P P P P P P P P P P P P P P P P 4 w.#.&.m N..X!   ; X | = = 7 - > > > > > > > > > > > > > > > > > > > > > > > > > > > > > > > > - @ = = | X -   W  XJ.N I ;.&.F P P P P P P P P P P P P P P P P P P P P P P P P P P P P P P P P P P P P P P P P P P P P P P P P P P P P P P P P F &.%.K N K..Xh   =   u = > 7 o X X X X X X X X X X X X X X X X X X X X X X X X X X X X X X X X - O ,   u @   . h oXb.3 q.#.&.H P P P P P P P P P P P P P P P P P P P P P P P P P P P P P P P P P P P P P P P P P P P P P P P P P P P P P P P P c w.o.P m H..Xj       6   > O .                                 ",
"                                .   @     9 O j %XU.B X.,.d 8.o.P P P P P P P P P P P P P P P P P P P P P P P P P P P P P P P P P P P P P P P P P P P P P P P P P P P P P P P P S I 4 $.*.#.J.).k # 7   -   @ X X X X X X X X X X X X X X X X X X X X X X X X X X X X X X X X X   = > o   7 e h E.Y.D +.,.s I -.P P P P P P P P P P P P P P P P P P P P P P P P P P P P P P P P P P P P P P P P P P P P P P P P P P P P P P P P %.L 4 ,.+.A L.E.! @ }   : r = = > > > > > > > > > > > > > > > > > > > > > > > > > > > > > > > > = = < :   i X ! E.K.S @.,.g L ;.P P P P P P P P P P P P P P P P P P P P P P P P P P P P P P P P P P P P P P P P P P P P P P P P P P P P P P P P #.&.s w.@.B U.E.!   y   - > X o X X X X X X X X X X X X X X X X X X X X X X X X X X X X X X X X   > X 2   7 # l /.J.A 3.=.4 q.S P P P P P P P P P P P P P P P P P P P P P P P P P P P P P P P P P P P P P P P P P P P P P P P P P P P P P P P P %.I s ;.O.S U.E.x + 9   .   X .                                 ",
"                                X     & o O * %XR.N X.5.A G 8.#.P P P P P P P P P P P P P P P P P P P P P P P P P P P P P P P P P P P P P P P P P P P P P P P P P P P P P P P P %.F ` f 2.3.3 V./.z O >   o X @ X X X X X X X X X X X X X X X X X X X X X X X X X X X X X X X X w X   # > w * %XD.3 7.1.t ` L o.P P P P P P P P P P P P P P P P P P P P P P P P P P P P P P P P P P P P P P P P P P P P P P P P P P P P P P P P O.I ( t 1.5.3 D.%X/ @ 1   - ; w > > > > > > > > > > > > > > > > > > > > > > > > > > > > > > > > r ; - o 1 X d %XA.N @.5.r / 8.#.P P P P P P P P P P P P P P P P P P P P P P P P P P P P P P P P P P P P P P P P P P P P P P P P P P P P P P P P p 8./ A 5.X.m D./.d @ t .   = w X X X X X X X X X X X X X X X X X X X X X X X X X X X X X X X X @ = X   # O z %XV.b 2.2.f ( F O.P P P P P P P P P P P P P P P P P P P P P P P P P P P P P P P P P P P P P P P P P P P P P P P P P P P P P P P P #.L ( t 5.@.3 E.%X* O , . .   7                                 ",
"                                  O o   O % ).L.n F w.A V I V &.P P P P P P P P P P P P P P P P P P P P P P P P P P P P P P P P P P P P P P P P P P P P P P P P P P P P P P P P #.P Y P f $.&.; J.`.W . X   7   X X X X X X X X X X X X X X X X X X X X X X X X X X X X X X X X X 7   > u % #XK.4 I ,.A F I P %.P P P P P P P P P P P P P P P P P P P P P P P P P P P P P P P P P P P P P P P P P P P P P P P P P P P P P P P P Z P I F f &.I n J.`.W X > X u > > > > > > > > > > > > > > > > > > > > > > > > > > > > > > > > > < w   , @ W `.K.m K ;.p F q.K A P P P P P P P P P P P P P P P P P P P P P P P P P P P P P P P P P P P P P P P P P P P P P P P P P P P P P P P P %.V T t A y.K n L.).j O >   @ X X X X X X X X X X X X X X X X X X X X X X X X X X X X X X X X X X 7   X O l `.J.v I 8.F K <.P $.P P P P P P P P P P P P P P P P P P P P P P P P P P P P P P P P P P P P P P P P P P P P P P P P P P P P P P P P %.K J F #.;.P G L.`.% O ,   0                                   ",
"                                  8 O 7 % $XR.A @.%.s d q.<.B P P P P P P P P P P P P P P P P P P P P P P P P P P P P P P P P P P P P P P P P P P P P P P P P P P P P P P P P P 9.%.B Y ( 4 $.O.f V.#Xj O 9     X X X X X X X X X X X X X X X X X X X X X X X X X X X X X X X X   8 9 7 % $XV.S @.-.d G q.A B :.P P P P P P P P P P P P P P P P P P P P P P P P P P P P P P P P P P P P P P P P P P P P P P P P P P P P P P P P <.B C q./ d -.@.B V.%XQ w w e X > > > > > > > > > > > > > > > > > > > > > > > > > > > > > > > > X , 7 w Q %XD.B @.;.s / q.V V &.P P P P P P P P P P P P P P P P P P P P P P P P P P P P P P P P P P P P P P P P P P P P P P P P P P P P P P P P :.r V ( / L %.X.S R.%Xj @ 7 #   X X X X X X X X X X X X X X X X X X X X X X X X X X X X X X X X     u @ 3 $XB.A O.K G ( H D #.9.P P P P P P P P P P P P P P P P P P P P P P P P P P P P P P P P P P P P P P P P P P P P P P P P P P P P P P P P :.V K q.G L ;.@.S D.$X% O 9 O .                                 ",
"                                #   # . &XR.o <.O.,.L L F S :.K P P P P P P P P P P P P P P P P P P P P P P P P P P P P P P P P P P P P P P P P P P P P P P P P P P P P P P P P &.V <.P t &.;.#.;.o C.&Xz . : X X X X X X X X X X X X X X X X X X X X X X X X X X X X X X X X X , - 8 o &XR.o -.>.P L F K :.P F P P P P P P P P P P P P P P P P P P P P P P P P P P P P P P P P P P P P P P P P P P P P P P P P P P P P P P P P K K <.A L 8.#.>.>.  V.&Xd t = , > > > > > > > > > > > > > > > > > > > > > > > > > > > > > > > > > = t s #XR.  6.O.:.F I P S :.V P P P P P P P P P P P P P P P P P P P P P P P P P P P P P P P P P P P P P P P P P P P P P P P P P P P P P P P P V :.P P L s &.>.6.  R.#X# # X e X X X X X X X X X X X X X X X X X X X X X X X X X X X X X X X X   2 + z &XC.o ;.%.&.&.t P &.B &.P P P P P P P P P P P P P P P P P P P P P P P P P P P P P P P P P P P P P P P P P P P P P P P P P P P P P P P P V P :.F s &.%.7.%.o R.#X%   o #                                 ",
"                                X   h $XK.V >./ J F #.-.%.A P ;.P P P P P P P P P P P P P P P P P P P P P P P P P P P P P P P P P P P P P P P P P P P P P P P P P P P P P P P P D P L L 2.+.A J #.;.L K.$X!   r X X X X X X X X X X X X X X X X X X X X X X X X X X X X X X X X <   h $XK.S >.z N P #.-.O.B %.$.P P P P P P P P P P P P P P P P P P P P P P P P P P P P P P P P P P P P P P P P P P P P P P P P P P P P P P P P L &.A O.-.o.I m $.>.D K.$X!   r > > > > > > > > > > > > > > > > > > > > > > > > > > > > > > > > <   ! $XK.D 6.g J c ;.#.P &.K #.P P P P P P P P P P P P P P P P P P P P P P P P P P P P P P P P P P P P P P P P P P P P P P P P P P P P P P P P #.P K %.-.%.F M g 6.A K.$Xk   > X X X X X X X X X X X X X X X X X X X X X X X X X X X X X X X X ,   ! $XK.P >.$.G A O.2.$.G T B P P P P P P P P P P P P P P P P P P P P P P P P P P P P P P P P P P P P P P P P P P P P P P P P P P P P P P P P ;.P V %.;.o.K M g >.V K.$Xk   @                                 ",
"                0     X   . . > O % $XR.G 2.Z M P P P P P P P P P P P P P P P P P P P P P P P P %.%.%.#.#.#.P P P P P P P P P P P P K K K P I I P P P P P P P P P P P P P P P P P P P P P P P P m #.2.; V.#Xh + > >     w = - 0 X X X X X X X X X X X X X X X X [     > X o X > & j '.V.4 3.o.M P P P P P P P P P P P P P P P P P P P P P P P P A &.K P I F I K F O.T b H 2.f I K I I 1 P &.t &.P P P P P P P P P P P P P P P P P P P P P P P P m O.5.B V.#Xh + < , X > r - - [ > > > > > > > > > > > > > > > > } o ; r > = , B 7 j $XA.4 6.O.M P P P P P P P P P P P P P P P P P P P P P P P P %.%.%.O.%.P P &.P P P P P P P P I P P P P P P I P P P P P P P P P P P P P P P P P P P P P P P P M o.2.n V.'.j 0 r @ o X > o   [ X X X X X X X X X X X X X X X X 0 - = @     , > & h `.V.v 2.#.m P P P P P P P P P P P P P P P P P P P P P P P P t &.P I I F P K 9.O.H N 8.A F G $.#.&.V K &.A O.P P P P P P P P P P P P P P P P P P P P P P P P M o.2.4 V.'.j O >   .   O     0                 ",
"                  O X   O     . % *XL.m I p &.I P P P P P P P P P P P P P P P P P P P P P P P P P P P %.%.P F V P P P P P P P P K K P P P K A V P P P P P P P P P P P P P P P P P P P P P P P P V &.#.8.3 N.*Xk     X u   X O ; X X X X X X X X X X X X X X X X   O > X 7 8 X X j *XY.3 I #.&.H P P P P P P P P P P P P P P P P P P P P P P P P %.%.V K P K &.%.%.m X.<.$XK.O.S A K P P K P &.K P P P P P P P P P P P P P P P P P P P P P P P P F %.A &.N Y.*Xh   = @ f = < O - > > > > > > > > > > > > > > > > - @ < = u e X   j 4XY.m I p %.I P P P P P P P P P P P P P P P P P P P P P P P P P P P &.P P K F P P P P P P P P F K P %.P K V V P P P P P P P P P P P P P P P P P P P P P P P P H &.p L N L.4Xj     # 7 = < O o X X X X X X X X X X X X X X X X - O   X w X     h *XJ.b &.#.;.K P P P P P P P P P P P P P P P P P P P P P P P P %.%.V K P K &.%.I F @.Y $XK.1.K #.A %.&.F P &.A P P P P P P P P P P P P P P P P P P P P P P P P P &.p P N L.*Xx .   O O   o O                   ",
"                    # .   7 # l #XL.t O.O.V e.f P P P P P P P P P P P P P P P P P P P P P P P P F F F K I &.&.I P P P P P P P P P P &.P P P P &.P P P P P P P P P P P P P P P P P P P P P P P P O.:., =.;.F Y.'.! # y   -   > = X X X X X X X X X X X X X X X X o > <     9 # j '.Y.L ;.%.r :.#.P P P P P P P P P P P P P P P P P P P P P P P P P K K &.%.A P P ;.>.c .XE.$X^ Z ;.A A %.P K P P P P P P P P P P P P P P P P P P P P P P P P P P Z ;.d 9.-.t Y.#X! e y   : > < - > > > > > > > > > > > > > > > > = = r X   y e h $XY.B +.;.s 8.p P P P P P P P P P P P P P P P P P P P P P P P P L F F K I I &.&.P P P P P P P P K P %.%.P P P &.P P P P P P P P P P P P P P P P P P P P P P P P Z w.s =.*.V Y.#Xh e y     > =   X X X X X X X X X X X X X X X X = X #     7 q ! #XY.t *.9.s w.X.P P P P P P P P P P P P P P P P P P P P P P P P P K V &.%.A %.P J -.F .XR.=X' X.:.P A &.&.F P P P P P P P P P P P P P P P P P P P P P P P P P P p w.F %.+.B Y.$Xh & 7     +                     ",
"                @     .   7 * $XR.m +.+.A I F =.P P P P P P P P P P P P P P P P P P P P P P P P I K K K K K P P P P P P P P P P P P P P P P P %.P P P P P P P P P P P P P P P P P P P P P P P P #.K I K 2.-.b V.#Xz + X   ,   @ X X X X X X X X X X X X X X X X > X   o X y 5 $X!.3 #.2.S T F $.P P P P P P P P P P P P P P P P P P P P P P P P K K &.:.P A %.P P Z E.$Xa ' $X` F P %.A %.&.K I P P P P P P P P P P P P P P P P P P P P P P P P +.F / f 2.>.N V.$XG w >   4 = w > > > > > > > > > > > > > > > > r = = # X w 5 $XD.3 @.1.A ( F O.P P P P P P P P P P P P P P P P P P P P P P P P I I K F F K K P P P P P P P P P K P P P P P P P P P P P P P P P P P P P P P P P P P P P P P P P -.F I P 2.#.3 R.$X5 w   o o X w X X X X X X X X X X X X X X X X @ X o X   8 z #XV.b ;.2.K I K *.P P P P P P P P P P P P P P P P P P P P P P P P K K P &.%.A %.P O.V E.$X@ d.$Xq.t P P A &.&.t &.P P P P P P P P P P P P P P P P P P P P P P P P -.F I P 2.#.3 L.$X* 6         @                 ",
"                  +     + * &XU.5 I >.S L G F <.P P P P P P P P P P P P P P P P P P P P P P P P P %.&.&.&.%.%.%.P P P P P P P P P P P P &.P A B P P P P P P P P P P P P P P P P P P P P P P P P $.H Y P K =.L v K.&Xj + >   u   X X X X X X X X X X X X X X X X   8   > 8 2 2XU.4 L %.S P H F 8.P P P P P P P P P P P P P P P P P P P P P P P P P K %.A A %.&.&.< D.$Xj #   U.$XG G w.P A :.K F P P P P P P P P P P P P P P P P P P P P P P P P %.F I I A %.I 4 L.2XQ @ 1   p > > > > > > > > > > > > > > > > > > y   > e 2 2XL.: I ;.P P J F %.P P P P P P P P P P P P P P P P P P P P P P P P %.%.&.&.&.%.%.%.P P P P P P P P P P P P &.P P A P P P P P P P P P P P P P P P P P P P P P P P P 9.V C C %.;.L 4 U.&X% w >   8   X X X X X X X X X X X X X X X X   w     q j 2XK.v I =.L P Y K $.P P P P P P P P P P P P P P P P P P P P P P P P I K %.A A &.&.P } D.$X5 O o L.$Xm F :.A A ;.F I P P P P P P P P P P P P P P P P P P P P P P P P ;.V C P $.9.P v U.&X% +     @                   ",
"                  + O O 2 #XR.K 2.o.V J ( L P D P P P P P P P P P P P P P P P P P P P P P P P P %.%.P K A K P %.P P P P P P P P P P K K K P P P P P P P P P P P P P P P P P P P P P P P P P P P 8.S B Y ( d #.+.f V.#Xh + 7     X X X X X X X X X X X X X X X X o e 7 w 5 $XV.B *.#.K H H A P I P P P P P P P P P P P P P P P P P P P P P P P P I P P A &.&.t G n.$X_ 6 5 X   %XOXQ G &.#.&.P K P P P P P P P P P P P P P P P P P P P P P P P P L K S Y I s K 2.D D.$XW w y @ > > > > > > > > > > > > > > > > > X u 9 w 5 =XR.A 5.A s ( I C S P P P P P P P P P P P P P P P P P P P P P P P P P O.%.K K F K %.%.P P P P P P P P &.P K K P P %.%.P P P P P P P P P P P P P P P P P P P P P P P P L K S Y J g #.2.A R.#X5 w 9 8   X X X X X X X X X X X X X X X X o X 6 8 j 3XV.f 2.f s I Y D K L P P P P P P P P P P P P P P P P P P P P P P P P I P P A &.&.t n n.=X_ O 2 #   %X Xm 1 &.%.%.K P P P P P P P P P P P P P P P P P P P P P P P P P K S S I / d o.5.L L.<Xj + O @                   ",
"                X o . * 2XR., #.O.,.8.t K :.B P P P P P P P P P P P P P P P P P P P P P P P P P &.P F F F F G G K P P P P P P K F F K F F F P I P P P P P P P P P P P P P P P P P P P P P P P P &.B &.K t &.,.#.;.  L.2Xz # o @ X X X X X X X X X X X X X X X X X X X , 3XR., -.-.,.%.< P w.A K P P P P P P P P P P P P P P P P P P P P P P P P K P %.%.:.K : e.&X' , w X = o , XXL.m P ,.A P I P P P P P P P P P P P P P P P P P P P P P P P P 8.V S A F w.,.o.>.  R.2Xd e ; , > > > > > > > > > > > > > > > > @ - e 5 2XR.- -.O.,.8.s K &.B &.P P P P P P P P P P P P P P P P P P P P P P P P %.P F F F G G G K P P P P P P K K K K F F F K P P P P P P P P P P P P P P P P P P P P P P P P P P A :.F t ;.,.o.O.- R.3X* # - # X X X X X X X X X X X X X X X X @   q x 2XL.o ;.o.,.w.V A K t ,.P P P P P P P P P P P P P P P P P P P P P P P P K P %.P &.K 4 r.$X0.O X     # % &XJ.b K ,.A P P P P P P P P P P P P P P P P P P P P P P P P P P P A :.F t q.,.o.%.- L.2X* + o #                 ",
"                X   j #XR.t 6.$.M F f w.O.D :.$.P P P P P P P P P P P P P P P P P P P P P P P P V F ( n.P.P.J.r.K K P P P P K K K q.u.m.e.&.K F P P P P P P P P P P P P P P P P P P P P P P P P Z :.L L -.O.K m #.,.f L.#X!   > X X X X X X X X X X X X X X X X >   h =XL.B >.z M C #.w.$.F :.O.P P P P P P P P P P P P P P P P P P P P P P P P P P %.A P F ( OXD.8 6 - = < , @ k 4XY.1 &.A %.I P P P P P P P P P P P P P P P P P P P P P P P P p :.K P -.#.H M g >.D L.#X!   r > > > > > > > > > > > > > > > > <   h =XU.B ,.i.M H #.-.A A q.f P P P P P P P P P P P P P P P P P P P P P P P P A K ` n.P.P.n.e.K K P P P P K K K q.m.m.e.I F t P P P P P P P P P P P P P P P P P P P P P P P P D :.d $.;.Z V M i.,.B L.=Xk   > X X X X X X X X X X X X X X X X >   ! #XL.F ;.#.m S o.*.L L ,.Z P P P P P P P P P P P P P P P P P P P P P P P P K P %.A P F ` oXA.X   . @   - 6 l *XP.1 %.A <.S P P P P P P P P P P P P P P P P P P P P P P P P A 8.F %.>.X.F Q #.,.s L.=Xk . @                 ",
"[ .   @   . + X O j #XR.d 2.O.H P P P P P P P P P P P P P P P P P P P P P P P P *.H F %.R r 3.u a.E.&X&X^./.).#X=Xg.L  .,.C 4 T.#X&X&X`.&X&X/.s.z r +.&.N o.4.m P P P P P P P P P P P P P P P P P P P P P P P P N %.2.; V.<X! + > O o   > ; = 0 [ o = >   % o > 6 j $XR.c 5.o.m P P P P P P P P P P P P P P P P P P P P P P P P P P P P P P P P F :.=.L <.5 #X).@ @ @ @ > X X X   ' &Xu.@.R F %.H F t ;.;.A P H P P P P P P P P P P P P P P P P P P P P P P P P m O.5.1 R.#X! 8 < > , = w ; - } } - - w > 1 , < 8 ! #XR.c 5.#.Q P P P P P P P P P P P P P P P P P P P P P P P P I V =.&.v +.1.; a.E.=X&XW./.`.#X&Xd.m o.6.| 5 R.#X&X#X).#X&XE.s.g D +.P M Z [.m P P P P P P P P P P P P P P P P P P P P P P P P ) o.5.B R.#Xk + > # * X > = o [ 0 X = 7   o X w + ! <XV.; 2.#.N P P P P P P P P P P P P P P P P P P P P P P P P P P P P P P P P L C -.&.S d &XT.                  ~ #Xr.*.H P %.F F F &.&.K &.A P P P P P P P P P P P P P P P P P P P P P P P P M #.2.n !.`.j & X   .   X   . [ ",
"  6     7 X   . j eXU.m P p &.I P P P P P P P P P P P P P P P P P P P P P P P P P :.;.o.H H 4  X&XL.W % . . . * g.5XL.L *.J _.&Xd.j % % % W I.-XOX' 1 #.F O.+.H P P P P P P P P P P P P P P P P P P P P P P P P K &.p &.N Y.4Xk . o @ u   > O X   O > X 7 >     j eXU.m L p &.H P P P P P P P P P P P P P P P P P P P P P P P P P P P P P P P P :.u H O.f R.&X2 @ @ @ @ > > X X = o x.2XQ ;.H o.P :.P P P V &.P P P P P P P P P P P P P P P P P P P P P P P P P I &.i P m U.eXh > = e w = < O o - O < = u e = , Q eXU.m &.p &.I P P P P P P P P P P P P P P P P P P P P P P P P F &.#.#.n I G  X&XU.~ 2 . . % 5 V.2XY.#.*.) &X_.' j % % 5 ) U.4XOX] V ;.F ,.o.J P P P P P P P P P P P P P P P P P P P P P P P P I &.p P m U.eXj .   > 7 X , O   = O @   w ,   O k 4XY.N &.f &.K P P P P P P P P P P P P P P P P P P P P P P P P P P P P P P P P P  .H Z $./.`.o                   . c.3XQ *.H $.P :.P P A V &.P P P P P P P P P P P P P P P P P P P P P P P P P P &.p K N U.eXj .   O O   o 6   ",
"  @ O .   7   l #XL.t +.%.A w.g P P P P P P P P P P P P P P P P P P P P P P P P c #.#.o.&.Q !.`./       8 @       j 3XC.4 .X/.o       8 @     o R.#X' p -.A O.D P P P P P P P P P P P P P P P P P P P P P P P P X.;.s 9.*.1 Y.<X! o 7   , # 8 = - > > o   7 @ l #XL.V *.;.d w.Z P P P P P P P P P P P P P P P P P P P P P P P P P P P P P P P P %.s O.o.B.3X8.  @ @ @ @ @ @ X @ w = O R.$Xd 2.P A &.P K P P P P P P P P P P P P P P P P P P P P P P P P P P P P Z 8.g ;.+.B L.#X! , w   - r < : ; < r - X y , ! #XY.r *.9.d w.Z P P P P P P P P P P P P P P P P P P P P P P P P K ;.A &.L Q R..XL X   @ u w X X   ! 3XY.: &X).- @ X @ e ,     # ^./.' $.#.$.p Y P P P P P P P P P P P P P P P P P P P P P P P P Z w.d 9.*.B Y.#Xl @ 7   o e > = = X a o   @ # k <XY.1 -.9.s :.X.P P P P P P P P P P P P P P P P P P P P P P P P P P P P P P P P o.( S i T.3Xa                   O X   R.#XF 2.I A &.P P P K P %.P P P P P P P P P P P P P P P P P P P P P P P P p w.A &.=.d U.<Xl   O   . #     ",
"7         8 * #X/.m O.+.A I F $.P P P P P P P P P P P P P P P P P P P P P P P P N 3.o.&.F J.2Xh @ @ @     X = - [ . a.).g.-Xj O   X       , ,   o R.&XG %.K :.D P P P P P P P P P P P P P P P P P P P P P P P P -.F I f 2.*.b !.<Xz O >   ,   w w X       w 5 #X/.N O.1.P ( F O.P P P P P P P P P P P P P P P P P P P P P P P P P P P P P P P P f <.X.g.1X) 7 o @ @ @ @ @ @ @ @ y = X $ %X'.f H #.%.A K :.P P #.P P P P P P P P P P P P P P P P P P P P P P P P O.F ( L @.+.N R.#Xd i = # - = r r = = , > i d #XR.N O.@.L ` K O.P P P P P P P P P P P P P P P P P P P P P P P P P #.H &.f V.#Xl > > w > X X = ; [ . B.).C.&X% 9 @ > X   X 1 e X 2 E.)./ %.s I D P P P P P P P P P P P P P P P P P P P P P P P P 7.F ( L 2.O.N ^.#Xd 9   o X   w >   o @ X 8 z 3X!.b *.2.K I F -.P P P P P P P P P P P P P P P P P P P P P P P P P P P P P P P P $.Y } H.1Xz O o                 0     % ).`.| F #.%.A P :.P A #.P P P P P P P P P P P P P P P P P P P P P P P P #.V I P 4.=.N !.#Xa 7   .     7 ",
"  +     O x 5XW.5 P >.%.L G V >.P P P P P P P P P P P P P P P P P P P P P P P P G 6.A M G -Xf..     o     > @   X   z &X=XU.. o o o X           O $ &XJ.< ( 8.o.P P P P P P P P P P P P P P P P P P P P P P P P $.F Y K f =.&.v U.2Xh 8 ,   w     8   X 8 j 3XU.5 L -.O.P H F ;.P P P P P P P P P P P P P P P P P P P P P P P P P P P P P P P P L 1.` 1XN.y = # > > @ @ @ > > > - 6 ; > 8 &X^.s %.%.P A K P %.&.P P P P P P P P P P P P P P P P P P P P P P P P <.A G L L ;.P : U.5Xj p , o e X > u X > e j 5XW.2 I ,.S K H F &.P P P P P P P P P P P P P P P P P P P P P P P P G %.S P $.4Xa..   = ; = > > @ X > , z =X=XU.  o = = > > @ > = ; O % &XJ.F J L O.P P P P P P P P P P P P P P P P P P P P P P P P ,.V F I %.-.P 4 U.3Xj 8 X   9   X w     q j 5XU.v I ;.f K Y F $.P P P P P P P P P P P P P P P P P P P P P P P P P P P P P P P P I X.` 1Xg.6 = +                 o O -   q =X^.< &.%.P K K K P &.P P P P P P P P P P P P P P P P P P P P P P P P ;.V F P #.-.I 4 U.3Xx #     6   ",
"X + 6 7 % #X^.A *.o.V J / L P S P P P P P P P P P P P P P P P P P P P P P P P P P o.P b ' *X% q # #       X X O     8 &X$XB.  o     X X X     o [ . N.XXm F I *.P P P P P P P P P P P P P P P P P P P P P P P P L K S Y I g | 2.u U.3XW O w > o   a 9 7 5 3XR.V *.#.F I Y C P L P P P P P P P P P P P P P P P P P P P P P P P P P P P P P P P P C L 3XT.> > o > > @ @ @ @ > > > = # 7 B @ z 3XI.4 F &.P B &.&.P P P P P P P P P P P P P P P P P P P P P P P P P P S A ( ( s A 5.B R.3XQ w y s X ; p y w j 3XR.B 2.f s I Y C K L P P P P P P P P P P P P P P P P P P P P P P P P G &.A K P.oX: # , > X @ @ @ # 8 - X 4 $X=XJ.X o X @ > w @ @ @ > [   L.(.J I F 2.P P P P P P P P P P P P P P P P P P P P P P P P L P S Y I F #.*.t R.3X3 7 0 a X o e 7 @ j 3X!.s 1.#.g I Y S K L P P P P P P P P P P P P P P P P P P P P P P P P P P P P P P P P V $.3XB.O X % O                 X   @ X O x 3XY.n F :.P A %.%.P P P P P P P P P P P P P P P P P P P P P P P P P K K F I H V o.*.A R.3X5 6 6 q   ",
"X   . * 5X^.4 ;.X.,.8.t F :.A &.P P P P P P P P P P P P P P P P P P P P P P P P ,.A >.G L.W.. 6 6 6 O @ X     X =     L.3X! # X O O X O X , @     u j 2Xr.p P L P P P P P P P P P P P P P P P P P P P P P P P P :.t K F F w.,.o.;.- ^.2Xz # -   X o . * 5X^.4 %.o.,.8.t K :.A I P P P P P P P P P P P P P P P P P P P P P P P P P P P P P P P P J ).E.g @ X 6 = > > @ @ X X > > , X 6 @ ; # _ 3Xn.b P &.o.%.%.K P P P P P P P P P P P P P P P P P P P P P P P P &.B P K s 8.,.O.<.4 ^.5Xd , ; > > ; , 5 5X^.4 %.O.,.8.s K &.B &.P P P P P P P P P P P P P P P P P P P P P P P P P %.o.n (.U., > 9 6 7 w < > = - > w X R.3X]   e 9 w > = = , 7 6 @ u ~ &X( o.S &.P P P P P P P P P P P P P P P P P P P P P P P P &.B <.A t 8.,.o.%.4 ^.5X5 + o X O o # 5 5XW.1 :.o.,.w.F A K t :.P P P P P P P P P P P P P P P P P P P P P P P P P P P P P P P P G &XE.#   o O X                 X X O X o + _ 5Xr.b I &.A %.%.F P P P P P P P P P P P P P P P P P P P P P P P P &.B &.F t :.,.#.&.5 ^.5X* .     ",
"@   j =X(.F %.L M F f ;.O.D :.f P P P P P P P P P P P P P P P P P P P P P P P P A H *.a R..X  X             X X   0   - q & .   X     X X       -   Q &X0.2.D J P P P P P P P P P P P P P P P P P P P P P P P P Z :.L $.-.Z V J K &., W.3Xk O y <   Q 3XW.t >.L C C #.w.$.K :.Z P P P P P P P P P P P P P P P P P P P P P P P P P P P P P P P P W.=X2 @ # 8 = > X > @ @ @ X X X @   : . # =   D.eX` 1 %.#.#.K I P P P P P P P P P P P P P P P P P P P P P P P P f w.S S -.o.F m / <.< U.0X~ X r <   ! 0XU.r >.9.C C #.=.L K ,.Z P P P P P P P P P P P P P P P P P P P P P P P P A O.2.: ^..X  = = = = = = = > X > X 7 a o   e O - X X > > X X ; -   Q 5X) +.S b P P P P P P P P P P P P P P P P P P P P P P P P A :.V P ;.#.F H L >.t W.0X!   , w   ! 3XW.p ;.A ) V Z >.$.L :.Z P P P P P P P P P P P P P P P P P P P P P P P P P P P P P P P P ).&X% X . 6                     +   ;     > . A.,X` s %.#.#.P P P P P P P P P P P P P P P P P P P P P P P P P P A &.V %.;.A F H L >.t W.0Xh   # ",
"O z 0X/.P P F U P P P P P P P P P P P P P P P P P P P P P P P P P P P P P P P P O.Q -.X.L.).. 9       O # X   =                   X X         X o   ) *X~ L >.V P P P P P P P P P P P P P P P P P P P P P P P P P P P P P P P P U G I o.R.3Xz     z 3XR.#.J 4 7.P P P P P P P P P P P P P P P P P P P P P P P P P P P P P P P P O.K I F #.P b L.*XN X u X < @ o X X X @ > > > > > > > @ u O > X F.-X/ K H A %.I P P P P P P P P P P P P P P P P P P P P P P P P P P P P P P P P D s I #.W.0X) @ @ ) 0XR.o.I G U P P P P P P P P P P P P P P P P P P P P P P P P P P P P P P P P S G -.D R.Q., w > X = X , >   > @ X @ > > > > X > > > @ @ @ @ > <   0.=X! O.S f P P P P P P P P P P P P P P P P P P P P P P P P P P P P P P P P U s &.o.R.0Xz     z 0XL.$.;.1 <.P P P P P P P P P P P P P P P P P P P P P P P P P P P P P P P P O.K I A O.P Q R.*Xm   a     X .                     8 O X   O   ].*X( V T A %.P P P P P P P P P P P P P P P P P P P P P P P P P P P P P P P P P U G K o.^.0Xz   ",
"j <XW.#.A ,.K  .P P P P P P P P P P P P P P P P P P P P P P P P P P P P P P P P #.G P Z J.=X. O     @ O                                 # @   X X O ' &X) A C %.P P P P P P P P P P P P P P P P P P P P P P P P P P P P P P P P | ,.H c } U.0XW z <XU.o.V ,.#.L P P P P P P P P P P P P P P P P P P P P P P P P P P P P P P P P O.V I I #.A ` rXa.5 X = 7 7 > > X X @ @ > @ > > X =   t >   t w $ 5X(.t 3.o.H F P P P P P P P P P P P P P P P P P P P P P P P P P P P P P P P P  .,.%.c B I.0XQ Q <XU.Z A ,.H  .P P P P P P P P P P P P P P P P P P P P P P P P P P P P P P P P K I o.r L.=X. > > > < > X X > > X X @ @ > > @ X > X   X e , > > =   g.&Xd A <.$.P P P P P P P P P P P P P P P P P P P P P P P P P P P P P P P P  .Y &.A o.U.3Xj ~ 0XU.{ B P ;.| P P P P P P P P P P P P P P P P P P P P P P P P P P P P P P P P #.F I P O.Z r.rXp.o X X   8 @                     O   3   O   8 $ 5XL.F *.#.K P P P P P P P P P P P P P P P P P P P P P P P P P P P P P P P P P f O.:.V 1.}.<Xh ",
"3X).} S J } +./ P P P P P P P P P P P P P P P P P P P P P P P P P P P P P P P P -.A I K ( 5X! O X     X     ,                   X     X @ X   X @ . Q.^.#.#.v 3.P P P P P P P P P P P P P P P P P P P P P P P P P P P P P P P P 9.A 3.J U 2.U.<X3X Xp C I 1.O./ P P P P P P P P P P P P P P P P P P P P P P P P P P P P P P P P -.F G &.-.A ` OX$X. > ; # + X > > @ @ @ @ @ @ @ X o   - X < t O g.2XJ.1 *.:.c J P P P P P P P P P P P P P P P P P P P P P P P P P P P P P P P P 9.Z -.J +.*.R.3X3X(.{ S m { 2./ P P P P P P P P P P P P P P P P P P P P P P P P P P P P P P P P K <.K t ` 5X! > > > > >     < X @ @ @ @ @ @ @ X > @   X , @ X > = + /.(.{ K I P P P P P P P P P P P P P P P P P P P P P P P P P P P P P P P P P ( +.2.n D *.W.3X<XU.*.C Y 6.K 8.P P P P P P P P P P P P P P P P P P P P P P P P P P P P P P P P -.F F %.-.A ` OX/.. , =   &   X                 X   = X   O , . f.*XJ.1 =.;.F I P P P P P P P P P P P P P P P P P P P P P P P P P P P P P P P P L O.*.I C { .X3X",
"T.X.Y G $.%.P C P P P P P P P P P P P P P P P P P P P P P P P P P P P P P P P P =.B T $.u XX/.  # O   X X   @ O                   X X         X O % 0XN.i >.H #.P P P P P P P P P P P P P P P P P P P P P P P P P P P P P P P P C P H F G Y i Q.Q.i Y / G H %.C P P P P P P P P P P P P P P P P P P P P P P P P P P P P P P P P %.P L F -.%.t ) 5X).. y = % 8 w > @ @ @ @ @ @ @ > = o   = <   _ 7XI., F c &.p &.P P P P P P P P P P P P P P P P P P P P P P P P P P P P P P P P C %.P s Q Y } Q.Q.i Y ) L H P C P P P P P P P P P P P P P P P P P P P P P P P P P P P P P P P P L Z Y ( 1 XX/.  > > X > > X > > @ @ @ @ @ @ @ @ @ < > X X X X ,   ) 3Xb.*.8.G S P P P P P P P P P P P P P P P P P P P P P P P P P P P P P P P P v &.H L ) R { Q.W.p U H L H %.M P P P P P P P P P P P P P P P P P P P P P P P P P P P P P P P P %.P L A -.%.t ) 3X}.. w   . o 6                 O - X     # . ~ rXP.g F I L K &.P P P P P P P P P P P P P P P P P P P P P P P P P P P P P P P P v #.I L G Y o.I.",
"W.Z C G =.%.P C P P P P P P P P P P P P P P P P P P P P P P P P P P P P P P P P =.D H / *.J.3X5   # X X =     @                   X X     o o o O B.=X) B <.#.A P P P P P P P P P P P P P P P P P P P P P P P P P P P P P P P P C K H K G U i Q.Q.i S / L H #.S P P P P P P P P P P P P P P P P P P P P P P P P P P P P P P P P V &.&.F #.;.K L ` 9XW.O r :   9 > > @ @ @ @ X X w X X > {   j 3X~.4 $.I H A 3.#.P P P P P P P P P P P P P P P P P P P P P P P P P P P P P P P P U P P G Q C y Q.Q.i C ) $.P P C P P P P P P P P P P P P P P P P P P P P P P P P P P P P P P P P &.Z H 8.p J.3X2 X < > > w @   > > @ @ @ @ @ > > X , , X > , > >   D.XXF S 3.L H P P P P P P P P P P P P P P P P P P P P P P P P P P P P P P P P C %.F $.) M i Q.W.p v J / F O.H P P P P P P P P P P P P P P P P P P P P P P P P P P P P P P P P F &.&.A #.%.K L e.0XK.6 =   8 @                 O X   7 a . j 2X~.4 o.:.H K %.P P P P P P P P P P P P P P P P P P P P P P P P P P P P P P P P P M #.P L G U i I.",
"0X(.y S R } +.( P P P P P P P P P P P P P P P P P P P P P P P P P P P P P P P P L <.c F w.4 XX.X    #     X   @                   X     X @     z 5XJ.f C &.*.H P P P P P P P P P P P P P P P P P P P P P P P P P P P P P P P P 9.D 3.( U } I.3X9XW.w C &.1.O./ P P P P P P P P P P P P P P P P P P P P P P P P P P P P P P P P K P P P P P %.&.i d.0X' 6 w X # > > @ @ @ @ X X w X > ,   z &X'.| : ` #.*.-.&.K P P P P P P P P P P P P P P P P P P P P P P P P P P P P P P P P 9.B %.R +.{ L.9X9X(.y S R } +./ P P P P P P P P P P P P P P P P P P P P P P P P P P P P P P P P I O.K ( P F oXQ.  - > X > , X > > @ @ @ @ @ > > X > X X > , X   ) <XP.#.M *.-.H P P P P P P P P P P P P P P P P P P P P P P P P P P P P P P P P ( X.*.J D } R.9X3XU.} H :.2.p 8.P P P P P P P P P P P P P P P P P P P P P P P P P P P P P P P P K P P P P P %.&.{ d.9X' 6 w                     o O w   . j &X`.#.v R P o.%.P S P P P P P P P P P P P P P P P P P P P P P P P P P P P P P P P P 8.S } I U y  X0X",
"W <XW.o.A :.C  .P P P P P P P P P P P P P P P P P P P P P P P P P P P P P P P P F :.D P L r m.5X' .       >   X                 X       X     # Q.XXF #.J #.*.J P P P P P P P P P P P P P P P P P P P P P P P P P P P P P P P P  .,.H c @.U.0X_ ) <XU.o.V ,.#.d P P P P P P P P P P P P P P P P P P P P P P P P P P P P P P P P P P A P I K K P ,.s N.9X) @ 1   > X X @ > > > X = > r   % Q.eXQ *.I M A o.;.V K P P P P P P P P P P P P P P P P P P P P P P P P P P P P P P P P $.,.#.c B I.9X! Q <XU.o.A ,.H  .P P P P P P P P P P P P P P P P P P P P P P P P P P P P P P P P H %.%.F F i m.3X'   = X X e X > > > @ @ X X > > > @ X X > X   , ).).L -.n O.*.F P P P P P P P P P P P P P P P P P P P P P P P P P P P P P P P P  .Y %.A o.U.0XQ _ 0XU.{ B K ;.| P P P P P P P P P P P P P P P P P P P P P P P P P P P P P P P P P P A P I K K A ,.f V.0Xz @ =                   o 7 7   . .X*X) =.H R r =.&.H P P P P P P P P P P P P P P P P P P P P P P P P P P P P P P P P P $.%.:.V *.}.<XW ",
"6 _ 0XR.r K L U P P P P P P P P P P P P P P P P P P P P P P P P P P P P P P P P P F X.,.G 6.> F.eX%   8 O ,   X                       @ X   , 0.0X] Z ;.L #.%.H P P P P P P P P P P P P P P P P P P P P P P P P P P P P P P P P U G I Z R.0X0.o   0.9XR.i I G 7.P P P P P P P P P P P P P P P P P P P P P P P P P P P P P P P P P %.S P F F I %.M O.#.Q.3X3 6 > X X X @ > > > X   y 7   R.3X] *.H o.3.V R c P P P P P P P P P P P P P P P P P P P P P P P P P P P P P P P P P P D G J p W.9X0., @ r.9XR.i I G U P P P P P P P P P P P P P P P P P P P P P P P P P P P P P P P P H s *.K m [.i ].-Xo X 1 X ,   > > > X X X X X > > @ X > >   5 u.0X) V $.F Y @.G P P P P P P P P P P P P P P P P P P P P P P P P P P P P P P P P U s &.r R.9X_ @ X 0.0XL.| ;.c Y P P P P P P P P P P P P P P P P P P P P P P P P P P P P P P P P K %.S P F F P #.c C | .X<Xo 6 ;                     w   R.9X) f J #.2.F ( F #.P P P P P P P P P P P P P P P P P P P P P P P P P P P P P P P P P U G I i R.0X_ # ",
">   ~ 9X(.s &.P M F #.;.#.V &.A P P P P P P P P P P P P P P P P P P P P P P P P P P P P P P P P $X+X  . #   e   X         @   X X X 6 0     z 0Xm.:.K P %.K K P P P P P P P P P P P P P P P P P P P P P P P P P V :.A #.;.A K I P #.g U.0Xs.  w =   p.0XW.s %.A M H #.;.P V ;.o.P P P P P P P P P P P P P P P P P P P P P P P P P P P P P P P P / #.2.- 2X=X. > 7 ; o 8 u X = >   w X M.0Xn.} 8.P P P P P P P P P P P P P P P P P P P P P P P P P P P P P P P P K &.K %.%.V P P P P p W.0Xa.# y < X g.0XU.t -.#.H P o.#.K V I #.P P P P P P P P P P P P P P P P P P P P P P P P P P P P P P P P $XOX    s   ,   = =   X X @ < X > ; X u X   _ 0Xm.;.K P &.P K P P P P P P P P P P P P P P P P P P P P P P P P P #.%.A %.&.A P H #.%.s U.0Xj.. > @   a.0XW.t P H H F A &.K F ,.o.P P P P P P P P P P P P P P P P P P P P P P P P P P P P P P P P G P 6.: <X&X. > 6 X ; O O o   = O 8   C.0Xu.} J P P P P P P P P P P P P P P P P P P P P P P P P P P P P P P P P A :.V P -.o.F M #.%.s W.0Xp.. w ",
"    . z uX^., ;.o.;.:.V K I V ,.P P P P P P P P P P P P P P P P P P P P P P P P P P P P P P P P ` 3X}.X . +   u     X , @       = 6 o = 6 x 3X(.&.A V P %.P K P P P P P P P P P P P P P P P P P P P P P P P P P P A -.P V T &.o.A ( V.9Xz.. X @   X   _ pXL.4 ;.#.,.:.V K P V ,.P P P P P P P P P P P P P P P P P P P P P P P P P P P P P P P P F A >.&.5 rX(.  }   , X   = X > p   h uXP.1 q.A P P P P P P P P P P P P P P P P P P P P P P P P P P P P P P P P &.p %.P c T &.{ %.F L.tXr.  X w > ;   0.pXL.4 ;.A :.:.F I &.t ;.P P P P P P P P P P P P P P P P P P P P P P P P P P P P P P P P ` 9XI.<     < t X   > w w X   X =   > > O Q 5XU.P V V P &.P P P P P P P P P P P P P P P P P P P P P P P P P P P :.t &.I V :.,.{ ;.4 V.pX_ .   X @   . 0.uXL.G %.A %.:.V H I V %.P P P P P P P P P P P P P P P P P P P P P P P P P P P P P P P P I A S q.) rXR.  + O   - @   o   e   h uXm.s e.V P P P P P P P P P P P P P P P P P P P P P P P P P P P P P P P P :.B P F t ;.;.#.-.s L.pX) . o   ",
". 8 O O ! 9X^., 2.A t H T P P K P P P P P P P P P P P P P P P P P P P P P P P P P P P P P P P P B z.9XK.  o #     X         X , 6 o X   . 5X2X#.K K P %.P P P P P P P P P P P P P P P P P P P P P P P P P P P P P ;.%.P R v t 3.1 V.9X'   w @ e , X 7 7 W wXV.t 4.o.t H T P K F P P P P P P P P P P P P P P P P P P P P P P P P P P P P P P P P C S P #.f ' 9XT.  u   = : X , @   5 0X X@.V W Z P P P P P P P P P P P P P P P P P P P P P P P P P P P P P P P P P %.#.I H v V 3.g V.pX' @ w t - 1 @ i 7 ' 9XL.1 ;.V 1 H I P &.#.P P P P P P P P P P P P P P P P P P P P P P P P P P P P P P P P K ' 9XK.  :     w @ < > X > @ w X 9   = * 5X`.-.F K P &.%.P P P P P P P P P P P P P P P P P P P P P P P P P P P F P P I H v o.3.t L.9XW 8 7 X # o , X   _ pXV.s 3.p t I H P &.K P P P P P P P P P P P P P P P P P P P P P P P P P P P P P P P P <.S A #. .r.9XK.. 8     =   # X   5 0X(.X.A ) A P P P P P P P P P P P P P P P P P P P P P P P P P P P P P P P P V K P T H t A 2.t L.9Xh O 9 O * ",
"  9     q W 9X(.1 I -.P P I A #.P P P P P P P P P P P P P P P P P P P P P P P P P P P P P P P P I D ' aXK.    e O O         X   0 = X . 3X2XI p P &.&.P K P P P P P P P P P P P P P P P P P P P P P P P P P P P &.P P A P ;.K n W.7Xg.. X   u O   { X   q W pXW.: I -.P P H V P P P P P P P P P P P P P P P P P P P P P P P P P P P P P P P P P >.V #.#.H s z.9Xa.8 w ;     - u X =X=Xo.O.( P H P P P P P P P P P P P P P P P P P P P P P P P P P P P P P P P P %.P K A P ;.K n U.pX_ a = = p     o.X > # ' 9XW.n F &.P A H P &.P P P P P P P P P P P P P P P P P P P P P P P P P P P P P P P P K D H.0XN.  - e @ @ X = > > @ X u   w % 3XoX .N P &.&.P P P P P P P P P P P P P P P P P P P P P P P P P P P P P P H H A P &.P G W.pXW q   X p     u     q ~ pXU.n K ;.#.A H P %.P P P P P P P P P P P P P P P P P P P P P P P P P P P P P P P P O.A $.K P f x.9X~ . 8 =   X @   . <X&Xt | &.S L P P P P P P P P P P P P P P P P P P P P P P P P P P P P P P P P P V P P P ;.I : W.7Xh q     u   ",
"@         6 z 9X^.m =.4.A P K ;.P P P P P P P P P P P P P P P P P P P P P P P P P P P P P P P P #.( t H.9XU.    8 #   X X     O   6 . 3X3XI p J P P P K K P &.%.P P P P P P P P P P P P P P P P P P P P P P P P %.H H V 3.4.3 !.9Xz.  = #     X X X   @   8 0.9X!.m =.4.A I F ;.P P P P P P P P P P P P P P P P P P P P P P P P P P P P P P P P *.I L I v 2.u L.9Xj @ X p O e   XX5X4 +.8.4 O.S P P P P P P P P P P P P P P P P P P P P P P P P P P P P P P P P P H H A 3.4.: !.9X0.e X t = = w w = ; X < @ 0.9X!.3 =.3.A R H P P P P P P P P P P P P P P P P P P P P P P P P P P P P P P P P P #.` > J.aXH.X   u ,   > >   > @ w   5 5XXXI o.G P P P K K P &.P P P P P P P P P P P P P P P P P P P P P P P P P #.F I A 3.=.3 !.9X0.8   @ o X X 7     #   # 0.9X!.3 =.3.A H K #.P P P P P P P P P P P P P P P P P P P P P P P P P P P P P P P P #.G G T C +.e (.7X5 .   u O o . #X7Xv o.9.F +.&.P P P P P P P P P P P P P P P P P P P P P P P P P P P P P P P P ;.K H A 4.=.N !.9Xz O   #     O ",
"=   &     O & ! 7X~.s =.-.V :.A P P P P P P P P P P P P P P P P P P P P P P P P P P P P P P P P A =.R > I.9XU.      >     @ o     z 5X2XI *.I H K K K P P %.P P P P P P P P P P P P P P P P P P P P P P P P P P A T v &.=.u U.7Xf.  y     8 , = ;   a o   9 . p.7XU.a =.-.V w.A P P P P P P P P P P P P P P P P P P P P P P P P P P P P P P P P { 8.N M 2.Z q.} ).7X2 0 - p O L.9Xq.O.K &.F F +.P P P P P P P P P P P P P P P P P P P P P P P P P P P P P P P P B :.v &.4.g U.7Xa.  r ; X f > ; v X , :   {   g.7XU.u =.-.V q.V P P P P P P P P P P P P P P P P P P P P P P P P P P P P P P P P &.p H t I.9Xz.X   , > X X > , X X _ 5X`.*.&.N 2.K P K P P %.P K P P P P P P P P P P P P P P P P P P P P P P P P p :.V &.=.g U.7Xa.. 7   o a   ; = X q   X > . a.8XU.a =.;.V :.p P P P P P P P P P P P P P P P P P P P P P P P P P P P P P P P P #.8.N M 6.B T f XX8X. O X u O ^.0XT Z G 8.F K O.P P P P P P P P P P P P P P P P P P P P P P P P P P P P P P P P A ,.V -.=.a U.7X~ . 9     q   - ",
"  O     6 8   . g.uX~.m I A &.V P P P P P P P P P P P P P P P P P P P P P P P P P P P P P P P P ;.< ;.I Z 0.wXOXo   o   X e   . z 5X2XL i I q.Z P P P %.%.P P K P P P P P P P P P P P P P P P P P P P P P P P P %.%.V I 3 U.cXf.  - X w   e O ; X O   X u @ -   g.uX~.m I o.;.A P P P P P P P P P P P P P P P P P P P P P P P P P P P P P P P P %.t J F *.P c 3.G 2XrX.     z.aXN.Z -.( V &.I O.P P P P P P P P P P P P P P P P P P P P P P P P P P P P P P P P P :.A P b }.uXf.  b > w < @ O ; ; @ = = o.> :   f.uX~.b K p &.H P P P P P P P P P P P P P P P P P P P P P P P P P P P P P P P P K C t.F < J.aX|.-   = X @ e     W 9XoXp H I $.P %.P P %.%.P K K P P P P P P P P P P P P P P P P P P P P P P P P P &.t K b U.uXg.  - X u X   6 X ; O   - @ X 3   g.uXU.3 &.o.%.H P P P P P P P P P P P P P P P P P P P P P P P P P P P P P P P P %.P J t *.:.v *.s 8X*X. 2   x.9Xd.p %.I A -.L Z P P P P P P P P P P P P P P P P P P P P P P P P P P P P P P P P V &.A I m U.uXg.  o @ 0     6   ",
"0     @ . .   > & j.7X!.: 2.-.n P P P P P P P P P P P P P P P P P P P P P P P P P P P P P P P P K ;.%.#.;.V ` 0XoX5     8 #   u.hX(.#.f ( H Z ;.P K P P P K P &.P P P P P P P P P P P P P P P P P P P P P P P P P o.3.: !.7Xf.$ r   o # 7 X - 6 [   = @   #   r & g.qX!.- 4.-.M P P P P P P P P P P P P P P P P P P P P P P P P P P P P P P P P C P *.#.n I #.M +.d 0X`.O m aXT.p J P %.I %.@.L P P P P P P P P P P P P P P P P P P P P P P P P P P P P P P P P K *.3.1 !.qXf.$ X.X - @ w ; = # [ = ; r X , X Z $ g.qX!.1 4.*.H P P P P P P P P P P P P P P P P P P P P P P P P P P P P P P P P K %.O.o.q.< ` 0XoX3 X X w ,   m.hXW.H P K A <.K P P P P P K P %.P P P P P P P P P P P P P P P P P P P P P P P P H #.;.: ~.tXf.$ <   o   w ;   [ 6 X = 7 X o O } & f.7X!.1 3.A M P P P P P P P P P P P P P P P P P P P P P P P P P P P P P P P P C P 2.*.I $.o.E L / wXD.O r.9XT.} / L D H ;.*.I P P P P P P P P P P P P P P P P P P P P P P P P P P P P P P P P n -.2.; !.7Xg.& >   .   O X   0 ",
"                > . ~ 9X.Xs %.K M I o.#.#.K &.A P P P P P P P P P P P P P P P P P P P P P P P P P P P P P P P P $XuX/   . . Q.0X@X&.t P &.P K %.P P P P P P P P P P P P P P P P P P P P P P P P A :.c &.-.o.V T K #.u W.wXM.  w X X X X X X X X X X X X X X X X <   a.9X(.s #.*.H H p #.%.K ;.o.P P P P P P P P P P P P P P P P P P P P P P P P P P P P P P P P :.< r.uXF.0XOXt P P P P P P P P P P P P P P P P P P P P P P P P P P P P P P P P K &.A w.%.A A P #.#.t (.wXg.X < > > > > > > > > > > > > > > > > < X g.9X(.s #.#.H &.p #.&.H P #.P P P P P P P P P P P P P P P P P P P P P P P P P P P P P P P P 1XrX/     o .X0Xm.&.V P &.A V &.P P P P P P P P P P P P P P P P P P P P P P P P #.%.P ;.#.p I M #.#.t (.9Xa.  > X X X X X X X X X X X X X X X X =   g.9XW.t #.#.R A A ,.P A &.o.P P P P P P P P P P P P P P P P P P P P P P P P P P P P P P P P &.1 e.uXS.0X Xt P P P P P P P P P P P P P P P P P P P P P P P P P P P P P P P P p &.K #.#.#.I v %.P s (.9Xp.. >                 ",
"o                   . _ pX(.4 ;.-.A &.P F K K ,.P P P P P P P P P P P P P P P P P P P P P P P P P P P P P P P P H ^.aXI.j #X9Xm.P K K P P P P &.P P P P P P P P P P P P P P P P P P P P P P P P -.t &.V H :.:.A K L L.pXz.. - O X X X X X X X X X X X X X X X X   -   _ pX^.F -.#.#.,.P F P P %.P P P P P P P P P P P P P P P P P P P P P P P P P P P P P P P P P ,.F J.vX&Xm %.P P P P P P P P P P P P P P P P P P P P P P P P P P P P P P P P P P %.< T T %.*.;.4 L.pX0.  = @ > > > > > > > > > > > > > > > > @ =   0.pX!.4 -.%.%.,.K V P P ;.P P P P P P P P P P P P P P P P P P P P P P P P P P P P P P P P F `.dXz.5 5X7Xm.&.K V P P P P P P P P P P P P P P P P P P P P P P P P P P P P P %.K P A K :.%.#.;.4 L.pX0.  o X X X X X X X X X X X X X X X X X     . 0.pXL.s %.Z %.:.V A P B &.P P P P P P P P P P P P P P P P P P P P P P P P P P P P P P P P P :.F J.vX&XN A P P P P P P P P P P P P P P P P P P P P P P P P P P P P P P P P ,.A K A P &.K %.&.G ^.pX_ .                     ",
"                . # O + W wX(.t *.o.t P T P K K P P P P P P P P P P P P P P P P P P P P P P P P P P P P P P P P v 1 H.0XwX*Xq.v t P &.P K P %.%.P P P P P P P P P P P P P P P P P P P P P P P P o.%.&.V T c P ;.4 V.aXd.  w w # X X X X X X X X X X X X X X X X o @ y O W aX^.t 4.#.t H T H K P P P P P P P P P P P P P P P P P P P P P P P P P P P P P P P P P S %.Z F U.` 1 6.P P P P P P P P P P P P P P P P P P P P P P P P P P P P P P P P P %.%.V R v P 3.t !.aX~ w y w , > > > > > > > > > > > > > > > > , w y w ~ aX^.t ;.A c H H K #.#.P P P P P P P P P P P P P P P P P P P P P P P P P P P P P P P P C < U.9XwXoXw.v A P %.P P P P K P P P P P P P P P P P P P P P P P P P P P P P P K K F I H t o.3.t !.wX~ 8 9 @ # X X X X X X X X X X X X X X X X   p 7 O g.aXV.F 2.A V H H H &.V P P P P P P P P P P P P P P P P P P P P P P P P P P P P P P P P A O.A 1 {.) 1 >.P P P P P P P P P P P P P P P P P P P P P P P P P P P P P P P P K K P T H t #.2.t ^.aX!   9 O .                 ",
"                  8     q ~ pX X- w.;.t I T V P P P P P P P P P P P P P P P P P P P P P P P P P P P P P P P P P &.-.F z.U.s &.$.P &.P K P &.P K P P P P P P P P P P P P P P P P P P P P P P P P #.&.H K A w.F c W.pXd.. X   7 O X X X X X X X X X X X X X X X X   p     q ~ pX(.1 ;.&.r P H 1 :.P P P P P P P P P P P P P P P P P P P P P P P P P P P P P P P P P %.o.O.1 I P O.P P P P P P P P P P P P P P P P P P P P P P P P P P P P P P P P &.K P P t ,.I 1 (.pX' a   > o.  > > > > > > > > > > > > > > > > X o.=   g ' pX(.: I %.V P H V &.P P P P P P P P P P P P P P P P P P P P P P P P P P P P P P P P &.:.= b.W.J r 8.P &.&.P K P P P P P P P P P P P P P P P P P P P P P P P P P P P %.V H P A -.&.: (.pX~ q   X {   X X X X X X X X X X X X X X X X   w     + _ dXU.1 K ;.#.A I P #.P P P P P P P P P P P P P P P P P P P P P P P P P P P P P P P P K %.O.S V I &.O.P P P P P P P P P P P P P P P P P P P P P P P P P P P P P P P P P V T P t ;.w.; (.pXW q     e                   ",
"                O     o   6 / aX_.3 $.t.p H P -.P P P P P P P P P P P P P P P P P P P P P P P P P P P P P P P P 4.L , 1.@.I G *.&.P K K P %.P P P P P P P P P P P P P P P P P P P P P P P P P P P H H P 4.=.: !.9Xx.    #     @ X X X X X X X X X X X X X X X X @     , X + _ wX!.3 =.3.p I I #.P P P P P P P P P P P P P P P P P P P P P P P P P P P P P P P P I V %.%.&.K &.A P P P P P P P P P P P P P P P P P P P P P P P P P P P P P P P P P I M A 3.=.- ~.wX0.u > w = = w > > > > > > > > > > > > > > > > w = X < > u 0.wX~.- =.t.t R T K P P P P P P P P P P P P P P P P P P P P P P P P P P P P P P P P { G J O.X.n / *.P P K K K P P &.P P P P P P P P P P P P P P P P P P P P P P P P K I H t t.=.: !.wX0.@   , o X @ X X X X X X X X X X X X X X X X w     ,   8 z.wX!.3 =.3.P I K $.P P P P P P P P P P P P P P P P P P P P P P P P P P P P P P P P I K %.%.&.P &.A P P P P P P P P P P P P P P P P P P P P P P P P P P P P P P P P ;.P H A t.$.3 _.wX_ O   #                       ",
"                =   .     O + p.pX~.s =.-.V w.A P P P P P P P P P P P P P P P P P P P P P P P P P P P P P P P P A -.;.; T F #.:.P P P &.P K K P P P P P P P P P P P P P P P P P P P P P P P P P F T V %.=.#  XpXK.  7 X   6 , = X X X X X X X X X X X X X X X X ;   a o   7 . j.qX(.s =.-.V q.t P P P P P P P P P P P P P P P P P P P P P P P P P P P P P P P P I t &.K A r I P P P P P P P P P P P P P P P P P P P P P P P P P P P P P P P P P A T v %.=.u }.pXg.# y X ; g   v > > > > > > > > > > > > > > > > v   s ; X y # g.pX~.g =.%.c q.V P P P P P P P P P P P P P P P P P P P P P P P P P P P P P P P P >.{ -.H c ;.2.o.P K K P &.P P P P P P P P P P P P P P P P P P P P P P P P P P P p w.V #.=.g (.pXg.. 7   X a   ; X X X X X X X X X X X X X X X X = X #   > 7   N.pX~.4 =.;.V ;.K P P P P P P P P P P P P P P P P P P P P P P P P P P P P P P P P L F P P B B P I P P P P P P P P P P P P P P P P P P P P P P P P P P P P P P P P A :.V ;.=.s ~.qXp.. O     q   X                 ",
"                  O     O 8   . _ cX X3 &.#.%.F P P P P P P P P P P P P P P P P P P P P P P P P P P P P P P P P $.S C ` m H Y F %.%.%.&.P K K P P P P P P P P P P P P P P P P P P P P P P P P P T P o.F b U.xXK.    X u   8 O = X X X X X X X X X X X X X X X X X 7   X u @ -   f.cX(.4 ;.{ P H P P P P P P P P P P P P P P P P P P P P P P P P P P P P P P P P t w.K F ,.w.V K P P P P P P P P P P P P P P P P P P P P P P P P P P P P P P P P :.B A I : U.xXf.  : > i = X 7 = > > > > > > > > > > > > > > > > = 7 X = i w -   z.xX~.: &.p P H P P P P P P P P P P P P P P P P P P P P P P P P P P P P P P P P #.O.S ( / B Z ;.%.P P &.&.P K K P P P P P P P P P P P P P P P P P P P P P P P P &.#.p &.3 ~.xXz.  - X u X   7 X X X X X X X X X X X X X X X X X = O   X 9   -   H.cX~.b I p %.I P P P P P P P P P P P P P P P P P P P P P P P P P P P P P P P P t w.F F :.w.B K P P P P P P P P P P P P P P P P P P P P P P P P P P P P P P P P F %.#.&.b  XxX_       7     O                   ",
"                [   X X   .   > & ' pX_.- *.-.M P P P P P P P P P P P P P P P P P P P P P P P P P P P P P P P P I s ;.o.O.&.F P #.P K A K P P K P P P P P P P P P P P P P P P P P P P P P P P P H *.4.F !.wXN.$ > X o   9 X = 6 X X X X X X X X X X X X X X X X 0   = w X #   > & g.pX_.; 4.;.M P P P P P P P P P P P P P P P P P P P P P P P P P P P P P P P P O.A I F P A %.P P P P P P P P P P P P P P P P P P P P P P P P P P P P P P P P P A *.2.1 !.pXf.$ r > , X w v = 0 > > > > > > > > > > > > > > > > [ = ; w X , @ r $ g.pX_.1 4.*.V P P P P P P P P P P P P P P P P P P P P P P P P P P P P P P P P H G &.B Z q.G H P P P P K P P P P P P P P P P P P P P P P P P P P P P P P P P P H -.4.: _.wXg.& > X #   @ ; X 0 X X X X X X X X X X X X X X X X 0   ; @   o   > & H.pX!.1 3.#.M P P P P P P P P P P P P P P P P P P P P P P P P P P P P P P P P -.A &.F &.B %.P P P P P P P P P P P P P P P P P P P P P P P P P P P P P P P P P H -.*.; _.wXj.& >   .   X X   0                 ",
"                                >   a.aX(.t %.#.v H #.#.&.V :.p P P P P P P P P P P P P P P P P P P P P P P P P P P P P P P P P P P P P P P P P P P P P P P P P P P P P P P P P %.-.o.&.K P F H #.,., W.aXh.  r X X X X X X X X X X X X X X X X X X X X X X X X X X X X X X X X B   a.aX(.t ;.o.H I A A P P %.o.P P P P P P P P P P P P P P P P P P P P P P P P P P P P P P P P P P P P P P P P P P P P P P P P P P P P P P P P A ;.A ;.K V H H V ,.e U.aXN.  X.> > > > > > > > > > > > > > > > > > > > > > > > > > > > > > > > Z   M.aX(.p ,.A V :.p A &.P P A P P P P P P P P P P P P P P P P P P P P P P P P P P P P P P P P P P P P P P P P P P P P P P P P P P P P P P P P o.%.V :.p A P M p w.t U.aXh.  r X X X X X X X X X X X X X X X X X X X X X X X X X X X X X X X X i   h.gXU., w.A H K p #.%.K &.o.P P P P P P P P P P P P P P P P P P P P P P P P P P P P P P P P P P P P P P P P P P P P P P P P P P P P P P P P p &.K &.#.%.F n o.#.s ).aXp.  >                                 ",
"                                  o . _ sX(.4 ;.,.#.K %.V P A :.P P P P P P P P P P P P P P P P P P P P P P P P P P P P P P P P P P P P P P P P P P P P P P P P P P P P P P P P A ;.%.V T H :.*.;.4 ^.dXr..     X X X X X X X X X X X X X X X X X X X X X X X X X X X X X X X X   3   ) sX^.- ,.-.A ,.H H P V w.P P P P P P P P P P P P P P P P P P P P P P P P P P P P P P P P P P P P P P P P P P P P P P P P P P P P P P P P P #.;.< T :.%.*.,.= ^.sX_   :   > > > > > > > > > > > > > > > > > > > > > > > > > > > > > > > >   c   _ xX(.X ,.%.P :.I H K A ;.P P P P P P P P P P P P P P P P P P P P P P P P P P P P P P P P P P P P P P P P P P P P P P P P P P P P P P P P ,.t P V T &.%.%.;.- ^.sX0.  :   X X X X X X X X X X X X X X X X X X X X X X X X X X X X X X X X   - . 0.sX^., 3.o.%.:.H < &.P %.P P P P P P P P P P P P P P P P P P P P P P P P P P P P P P P P P P P P P P P P P P P P P P P P P P P P P P P P w.B P t &.:.P ;.-.: ^.sX_ . o                                   ",
"                                o   7 + ~ aX(.s *.#.t I H P V P P P P P P P P P P P P P P P P P P P P P P P P P P P P P P P P P P P P P P P P P P P P P P P P P P P P P P P P P F V w.V H V i 3.s V.aXd.O 7 w   X X X X X X X X X X X X X X X X X X X X X X X X X X X X X X X X o w y O _ aX^.s 4.o.A H H P K %.P P P P P P P P P P P P P P P P P P P P P P P P P P P P P P P P P P P P P P P P P P P P P P P P P P P P P P P P F P P F T c o.4.p ^.sX' e w > - > > > > > > > > > > > > > > > > > > > > > > > > > > > > > > > > , w w # ' dX!.s -.P V H P P %.#.P P P P P P P P P P P P P P P P P P P P P P P P P P P P P P P P P P P P P P P P P P P P P P P P P P P P P P P P K P I F H V *.2.s ^.aX' 8 7 @ # X X X X X X X X X X X X X X X X X X X X X X X X X X X X X X X X o   @ 8 ' dX^.u 2.o.A H H H P K P P P P P P P P P P P P P P P P P P P P P P P P P P P P P P P P P P P P P P P P P P P P P P P P P P P P P P P P P V I H I V #.*.t ^.aX~ + 9   .                                 ",
"                                  8     + ~ sX.X= &.y.r I H V %.P P P P P P P P P P P P P P P P P P P P P P P P P P P P P P P P P P P P P P P P P P P P P P P P P P P P P P P P P F c :.A ;.&.< W.vX_ . =   7 @ X X X X X X X X X X X X X X X X X X X X X X X X X X X X X X X X # 7   > + ~ sX(.: &.;.t F T F &.P P P P P P P P P P P P P P P P P P P P P P P P P P P P P P P P P P P P P P P P P P P P P P P P P P P P P P P P P V F I t ;.P 1 (.xX' # = = w > > > > > > > > > > > > > > > > > > > > > > > > > > > > > > > > > @ y = = # ' sX(.; &.&.t K I V #.P P P P P P P P P P P P P P P P P P P P P P P P P P P P P P P P P P P P P P P P P P P P P P P P P P P P P P P P K P H P w w.;.- (.fX_ + X X 7 X X X X X X X X X X X X X X X X X X X X X X X X X X X X X X X X X o @   X + _ vXW.1 P ;.t :.F F &.P P P P P P P P P P P P P P P P P P P P P P P P P P P P P P P P P P P P P P P P P P P P P P P P P P P P P P P P %.c I &.w y.&.; (.dX~ &     9 O                                 ",
"                                O         O _ gX`.: =.4.P I P #.P P P P P P P P P P P P P P P P P P P P P P P P P P P P P P P P P P P P P P P P P P P P P P P P P P P P P P P P #.I v P t.=.: ^.aXr.8   @     7 X X X X X X X X X X X X X X X X X X X X X X X X X X X X X X X X 7     , X @ 0.aX_.- =.t.p I P #.P P P P P P P P P P P P P P P P P P P P P P P P P P P P P P P P P P P P P P P P P P P P P P P P P P P P P P P P o.H H P t.=.- _.aX0.e X > > = w > > > > > > > > > > > > > > > > > > > > > > > > > > > > > > > > > = = > X e r.aX_.- | [.A M H P P P P P P P P P P P P P P P P P P P P P P P P P P P P P P P P P P P P P P P P P P P P P P P P P P P P P P P P P #.I H #.t.=.- _.aX0.@   @   X @ X X X X X X X X X X X X X X X X X X X X X X X X X X X X X X X X 7     X   8 0.aX_.- $.t.A H I #.P P P P P P P P P P P P P P P P P P P P P P P P P P P P P P P P P P P P P P P P P P P P P P P P P P P P P P P P -.K H A 4.=.: _.gX_ + o       O                                 ",
"                                =   q     9 . p.dX(.s =.#.&.&.o.P P P P P P P P P P P P P P P P P P P P P P P P P P P P P P P P P P P P P P P P P P P P P P P P P P P P P P P P o.P T %.=.a U.dXB.. 7 >   a , X X X X X X X X X X X X X X X X X X X X X X X X X X X X X X X X X =   a   X y   g.dX(.d =.&.K w.p P P P P P P P P P P P P P P P P P P P P P P P P P P P P P P P P P P P P P P P P P P P P P P P P P P P P P P P P o.:.V %.=.e  XdXB.  > = X f > ; > > > > > > > > > > > > > > > > > > > > > > > > > > > > > > > > ; X g = = w   N.dX}.e =.;.c :.F P P P P P P P P P P P P P P P P P P P P P P P P P P P P P P P P P P P P P P P P P P P P P P P P P P P P P P P P A :.A &.t., (.dXB.  7     a X = X X X X X X X X X X X X X X X X X X X X X X X X X X X X X X X X = O a   X 7 . M.dX Xo t.#.K &.P P P P P P P P P P P P P P P P P P P P P P P P P P P P P P P P P P P P P P P P P P P P P P P P P P P P P P P P P A &.K #.=.s (.dXj.. 6   . q   X                                 ",
"                                  O     O O 2 . g.xXOXN F -.A I P P P P P P P P P P P P P P P P P P P P P P P P P P P P P P P P P P P P P P P P P P P P P P P P P P P P P P P P &.%.V q.b U.vXN.  - X 7 -   O X X X X X X X X X X X X X X X X X X X X X X X X X X X X X X X X X   O X X w @ -   z.xX X: P #.#.P P P P P P P P P P P P P P P P P P P P P P P P P P P P P P P P P P P P P P P P P P P P P P P P P P P P P P P P P :.B A P 3 }.xXN.  - > i = @ 7 = > > > > > > > > > > > > > > > > > > > > > > > > > > > > > > > > = @ @ = i > -   z.xX X: P o.%.H P P P P P P P P P P P P P P P P P P P P P P P P P P P P P P P P P P P P P P P P P P P P P P P P P P P P P P P P H #.#.L 3 (.xXf.  o X u X   7   X X X X X X X X X X X X X X X X X X X X X X X X X X X X X X X X   O     u X o   H.vX(.3 &.$.A :.P P P P P P P P P P P P P P P P P P P P P P P P P P P P P P P P P P P P P P P P P P P P P P P P P P P P P P P P H K %.K N  XxXd.  2 O O   . O                                   ",
"                                0   X O   .   t & ~ dX_.1 2.#.M P P P P P P P P P P P P P P P P P P P P P P P P P P P P P P P P P P P P P P P P P P P P P P P P P P P P P P P P H %.-.: ~.sXz.$ <   , O O ; - 0 X X X X X X X X X X X X X X X X X X X X X X X X X X X X X X X X [   ; 7   o X < & g.dX_.1 2.#.M P P P P P P P P P P P P P P P P P P P P P P P P P P P P P P P P P P P P P P P P P P P P P P P P P P P P P P P P C %.-.: ~.sXH.$ i @ , X 7 v ; # > > > > > > > > > > > > > > > > > > > > > > > > > > > > > > > > u = < w   4 > w $ f.dX_.< 2.*.V P P P P P P P P P P P P P P P P P P P P P P P P P P P P P P P P P P P P P P P P P P P P P P P P P P P P P P P P v %.*.4 _.dXf.$ < X ,   @ ; = 0 X X X X X X X X X X X X X X X X X X X X X X X X X X X X X X X X + X ;     , O w & f.sX!.4 4.;.M P P P P P P P P P P P P P P P P P P P P P P P P P P P P P P P P P P P P P P P P P P P P P P P P P P P P P P P P M -.*.: _.dX_ & >   + . O X   0                                 ",
"                                                >   h.gX.Xt #.-.M H #.*.#.K P A P P P P P P P P P P P P P P P P P P P P P P P P P P P P P P P P P P P P P P P P %.#.#.&.K P V Y o.,., (.fXB.. < X X X X X X X X X X X X X X X X X X X X X X X X X X X X X X X X X X X X X X X X X X X X X X X X r   h.gX(., -.#.H H #.{ I K #.#.P P P P P P P P P P P P P P P P P P P P P P P P P P P P P P P P P P P P P P P P A ,.p -.P K H H H :.e (.fXB.  } > = > > > > > > > > > > > > > > > > > > > > > > > > > > > > > > > > > > > > > > > > > > > > > > D   h.fX.X, %.#.H P #.#.P P &.#.P P P P P P P P P P P P P P P P P P P P P P P P P P P P P P P P P P P P P P P P o.%.K P A %.H M o.;., (.fXh.  B X X X X X X X X X X X X X X X X X X X X X X X X X X X X X X X X X X X X X X X X X X X X X X X X ;   h.fX X, ;.P R V %.#.&.K #.*.P P P P P P P P P P P P P P P P P P P P P P P P P P P P P P P P P P P P P P P P A &.V ,.p o.T M #.-.t (.gXg.  r                                                 ",
"                                                  o . _ fX`.s #.%.t &.K K P B P P P P P P P P P P P P P P P P P P P P P P P P P P P P P P P P P P P P P P P P P A %.%.t T H &.*.,.= ^.bXr.. o O X X X X X X X X X X X X X X X X X X X X X X X X X X X X X X X X X X X X X X X X X X X X X X X X   4 . _ bX_.: ;.%.*.:.R K &.1 t.P P P P P P P P P P P P P P P P P P P P P P P P P P P P P P P P P P P P P P P P P A %.V T H A 2.&., (.bX0.  : X = = > > > > > > > > > > > > > > > > > > > > > > > > > > > > > > > > > > > > > > > > > > > > > >   n   0.bX'.- -.-.p ,.I V K V &.P P P P P P P P P P P P P P P P P P P P P P P P P P P P P P P P P P P P P P P P ,.B P c :.:.A %.%.- '.vX0.  :   X X X X X X X X X X X X X X X X X X X X X X X X X X X X X X X X X X X X X X X X X X X X X X X X O - . _ kX^., 2.#.&.P I 1 P &.#.P P P P P P P P P P P P P P P P P P P P P P P P P P P P P P P P P P P P P P P P :.V P F :.&.%.#.,.4 `.bX_ . 5                                                   ",
"                                                . O 9 O ~ fX`.s *.#.K H I &.P P P P P P P P P P P P P P P P P P P P P P P P P P P P P P P P P P P P P P P P P P K V w.V H H i 3., ^.fX' + 7 # * X X X X X X X X X X X X X X X X X X X X X X X X X X X X X X X X X X X X X X X X X X X X X X X X   w 7   ' fX^.t 4.#.V I H :.P P P P P P P P P P P P P P P P P P P P P P P P P P P P P P P P P P P P P P P P P P V P &.F H c #.4.e (.fX' # > , , > > > > > > > > > > > > > > > > > > > > > > > > > > > > > > > > > > > > > > > > > > > > > > > > X r y @ ' fX_., 4.o.P T H I I K P P P P P P P P P P P P P P P P P P P P P P P P P P P P P P P P P P P P P P P P K K I F T V o.2., _.fX' O y w o X X X X X X X X X X X X X X X X X X X X X X X X X X X X X X X X X X X X X X X X X X X X X X X X 8 7 @   ^ fX(.u 3.i K H c e.V P P P P P P P P P P P P P P P P P P P P P P P P P P P P P P P P P P P P P P P P P K K I H I t #.*.1 ^.fX_   6 @ .                                                 ",
"                                                  9     + ~ sXXX; q.w.r F I 1 ;.P P P P P P P P P P P P P P P P P P P P P P P P P P P P P P P P P P P P P P P P &.F V P V w.&.1 (.bXd..   > u   X X X X X X X X X X X X X X X X X X X X X X X X X X X X X X X X X X X X X X X X X X X X X X X X X w X = # ' bX.X1 J w.y H I #.P P P P P P P P P P P P P P P P P P P P P P P P P P P P P P P P P P P P P P P P P I F H K r w.&.1 (.bXd.# > = y X > > > > > > > > > > > > > > > > > > > > > > > > > > > > > > > > > > > > > > > > > > > > > > > > X y > > # ' bX.X1 &.;.t V T V K P P P P P P P P P P P P P P P P P P P P P P P P P P P P P P P P P P P P P P P P P F I F w w.&.1  XbX' + > > w   X X X X X X X X X X X X X X X X X X X X X X X X X X X X X X X X X X X X X X X X X X X X X X X X   w X X + d.bX^.1 I ,.p H V F ;.P P P P P P P P P P P P P P P P P P P P P P P P P P P P P P P P P P P P P P P P #.F I P w w.&.: .XfX~ + X   9 O                                                 ",
"                                                O       X + _ gX:X: | 3.P I F #.P P P P P P P P P P P P P P P P P P P P P P P P P P P P P P P P P P P P P P P P #.I c A t.=.: _.fXr.@   #     @ X X X X X X X X X X X X X X X X X X X X X X X X X X X X X X X X X X X X X X X X X X X X X X X @ 7     e X @ r.fX;X- $.w.#.F H =.P P P P P P P P P P P P P P P P P P P P P P P P P P P P P P P P P P P P P P P P -.F c K t.=.- _.gXr.e X , > > 7 > > > > > > > > > > > > > > > > > > > > > > > > > > > > > > > > > > > > > > > > > > > > > > > > w = = e X 8 r.fX_.- $.t.A H F #.P P P P P P P P P P P P P P P P P P P P P P P P P P P P P P P P P P P P P P P P %.H H P t.=.- XXfXr.@   ,   X @ X X X X X X X X X X X X X X X X X X X X X X X X X X X X X X X X X X X X X X X X X X X X X X X X   X   @   8 z.gX_.: =.3.A V I #.P P P P P P P P P P P P P P P P P P P P P P P P P P P P P P P P P P P P P P P P -.P H P t.=.- XXgX0.O   #     6                                                 ",
"                                                =   q     7 . g.sX XL =.;.K w.#.P P P P P P P P P P P P P P P P P P P P P P P P P P P P P P P P P P P P P P P P #.K :.#.*.g ~.sXB.. 7 >   8   ; X X X X X X X X X X X X X X X X X X X X X X X X X X X X X X X X X X X X X X X X X X X X X X X @ =   e   X 7   h.sX(.s ;.#.K &.#.P P P P P P P P P P P P P P P P P P P P P P P P P P P P P P P P P P P P P P P P o.&.H %.=.a (.sXB.  > = X u @ < > > > > > > > > > > > > > > > > > > > > > > > > > > > > > > > > > > > > > > > > > > > > > > > > ; @ g X > y   N.sX Xs =.;.K :.#.P P P P P P P P P P P P P P P P P P P P P P P P P P P P P P P P P P P P P P P P P &.K #.=.a  XsXh.  7 X   a X ; X X X X X X X X X X X X X X X X X X X X X X X X X X X X X X X X X X X X X X X X X X X X X X X X =   ,   = @ . K.sX~.s *.#.:.K K P P P P P P P P P P P P P P P P P P P P P P P P P P P P P P P P P P P P P P P P #.&.K #.;.d (.sXg.. 6     +   X                                                 ",
"                                                  O   o O   -   d.xXoX3 t p #.H P P P P P P P P P P P P P P P P P P P P P P P P P P P P P P P P P P P P P P P P &.%.P &.4 }.NXK.  - # u     7   X X X X X X X X X X X X X X X X X X X X X X X X X X X X X X X X X X X X X X X X X X X X X X X @ = 7 X X u w :   z.bXOX4 n %.*.H P P P P P P P P P P P P P P P P P P P P P P P P P P P P P P P P P P P P P P P P %.A ,.K - OXNXB.  - > p = X 7 = > > > > > > > > > > > > > > > > > > > > > > > > > > > > > > > > > > > > > > > > > > > > > > > > = 7 X = i w :   N.vXOX; P #.A P P P P P P P P P P P P P P P P P P P P P P P P P P P P P P P P P P P P P P P P P I A ;.F 3 OXNXz.  - @ u     7 X X X X X X X X X X X X X X X X X X X X X X X X X X X X X X X X X X X X X X X X X X X X X X X X X   O     e X   O H.NX~.3 ;.#.%.P P P P P P P P P P P P P P P P P P P P P P P P P P P P P P P P P P P P P P P P P I A ;.s 3 OXxXz.  - @ 9     O                                                   ",
"                                                0   = O   #   > & f.sX`.: t.;.v P P P P P P P P P P P P P P P P P P P P P P P P P P P P P P P P P P P P P P P P H #.3.; ~.bXK.$ <   o O @ ; X 0 X X X X X X X X X X X X X X X X X X X X X X X X X X X X X X X X X X X X X X X X X X X X X X X X 0   ; 7   # @ < $ z.jX_.t 4.&.c P P P P P P P P P P P P P P P P P P P P P P P P P P P P P P P P P P P P P P P P H o.3.: ~.bXH.$ } @ , X 7 B = 7 > > > > > > > > > > > > > > > > > > > > > > > > > > > > > > > > > > > > > > > > > > > > > > > > [ X ; y X , > B & K.sX_.1 6.*.M P P P P P P P P P P P P P P P P P P P P P P P P P P P P P P P P P P P P P P P P M #.4.4 _.sXK.$ r   # O @ ; X 0 X X X X X X X X X X X X X X X X X X X X X X X X X X X X X X X X X X X X X X X X X X X X X X X X O X = 6 O #   ; & N.jX!.; 3.#.M P P P P P P P P P P P P P P P P P P P P P P P P P P P P P P P P P P P P P P P P n #.3.: _.kXd.& >   .   O =   0                                                 ",
"#                                                               r   h.fX.X, %.-.M P #.o.&.V ,.o.P P P P P P P P P P P P P P P P P P P P P P P P o.%.P %.A %.V M *.:.t W.lXB.O < X X X X X X X X X X X X X X X X X X X X X X X X = X   X X @ @ @ w @   X > X X X X X X X X X X X X X X X X X X X X @ @ @ X X X X B   h.kXXXt %.#.M :.#.p ;.V &.P P P P P P P P P P P P P P P P P P P P P P P P P A %.%.&.F I V H H &.e  XlXB.  { > > > > > > > > > > > > > > > > > > > > > > > > > > > > , , ; , , ; , , > > > > > > > > > > > > > > > > > > > > > > > > > > > > o.  N.lX.X, &.K H P #.#.&.F :.P P P P P P P P P P P P P P P P P P P P P P P P P A 6.p &.#.P H K #.;., .XlXh.  B X X X @ @ @ X X X X X X X X X X X X X X X X X X > X     X @ 7 @ w X X X X X X X X X X X X X X X X X X X X X X X X X X X X X X X >   B.kX(., ;.o.H K %.%.P :.P o.P P P P P P P P P P P P P P P P P P P P P P P P %.:.V ;.o.#.T M #.#., .XfXh.  w                                                               o ",
"          #                                                       2 . 0.nXXX4 ;.%.P P &.A P B P P P P P P P P P P P P P P P P P P P P P P P P P #.P A V :.K %.%.:.@ ^.nXx.. o   X X X X X X X X X X X X X X X X X X X X X X X X     X @ @ X     X X X = X   X X X X X X X X X X X X X X X X X X X X @ @ X X X X   4 . 0.bX`.: ,.#.%.P &.V K t P P P P P P P P P P P P P P P P P P P P P P P P P K P A t T F %.*.:.- (.NXr.  - X > > > > > > > > > > > > > > > > > > > > > > > > X > , 1 > X X > = X X > 1 < > X > > > > > > > > > > > > > > > > > > > > > > > >   :   r.bX_.: -.#.%.V q.F F &.#.P P P P P P P P P P P P P P P P P P P P P P P P &.c #.p R J *.-.-.: `.bX0.. :   X X @ @ @ @ X X X X X X X X X X X X X X X X X X   X X X X X     X X X X X     X X X X X X X X X X X X X X X X X X X X X X X X X   o . z.bX^.- ,.-.%.K :.V A P %.P P P P P P P P P P P P P P P P P P P P P P P P P t P A &.P #.#.-.: `.nX_ . 2                                                       o           ",
"@ #           o                                                 . @ 6   g.kX(.s *.-.A T H I P P P P P P P P P P P P P P P P P P P P P P P P P P P B q.c H P i 3.; _.kXN.0 9   # X X X X X X X X X X X X X X X X X X X X X X X X # o         o = X     X X @ # @ X X X X X X X X X X X X X X X X X X @ @ @ @ @ @ o w 7   ' kX'.t 2.#.B T P :.P K P P P P P P P P P P P P P P P P P P P P P P P P H A w.c H H p [.e _.bXd.@ w , - > > > > > > > > > > > > > > > > > > > > > > > > > > > X X > t < < r < X > > > > > > > > > > > > > > > > > > > > > > > > > > > > - , w # d.kX_.e ,.B H I F w.#.#.P P P P P P P P P P P P P P P P P P P P P P P P V P &.F I 1 #.4.t _.kXg.@ 7 w # X X X X X X X X X X X X X X X X X X X X X X X X # # o         o X     X @ @ # @ X X X X X X X X X X X X X X X X X X X X X X X X # @ 7 @ d.kX(., 6.i P V V :.A P P P P P P P P P P P P P P P P P P P P P P P P P P P I H T K %.*.t _.fX'   6 @ .                                                 o         X # @ ",
"      O @     o                                                   7   o + ' bXXX; &.w.> P H V &.P P P P P P P P P P P P P P P P P P P P P P P P P K H H t y.;.=  XnXz.0   > [   X X X X X X X X X X X X X X X X X X X X X X X X O # X o o X @ # , > X X   X X X X X X X X X X X X X X X X X X X X X X @ @ @ @ X @ y X X # d.bXXX; P w.w K H K &.P P P P P P P P P P P P P P P P P P P P P P P P P H F K r w.&.> .XNXz.# = = w   > > > > > > > > > > > > > > > > > > > > > > > > > > > > > > >     > > > > < > > > > > > > > > > > > > > > > > > > > > > > > > > @ w = , 8 ' bX.X= I ,.r K F P &.P P P P P P P P P P P P P P P P P P P P P P P P H #.H H p y.J < .XbX' # > X 7 X X X X X X X X X X X X X X X X X X X X X X X X X o X X @ # X X > > @ X @ X X X X X X X X X X X X X X X X X X X X X X X X X X X X   u X   + z.nX X= I w.r P F P %.P P P P P P P P P P P P P P P P P P P P P P P P %.F H F w w.&.: XXbX_ + o   9                                                   o     # O       ",
"#       @ O                                                     @     #   8 z.fX:X: | 4.%.I K #.P P P P P P P P P P P P P P P P P P P P P P P P #.P c #.t.=.- _.nXr.7   -     @ X X X X X X X X X X X X X X X X X X X X X X X X @ > X     X @ O O @ 7 @ X X X > X X X X X X X X X X X X X X X X X X @ @ @ X X X 7 X X ,   7 z.kX:X- =.3.A H P ;.P P P P P P P P P P P P P P P P P P P P P P P P %.P c P t.*.- _.lXr.@ ; t   X y > > > > > > > > > > > > > > > > > > > > > > > > > X > r r > > 1 < > > r r > X , > > > > > > > > > > > > > > > > > > > > > > > > w = X e = 8 r.kXXX- *.3.K c J &.P P P P P P P P P P P P P P P P P P P P P P P P *.n H #.t.=.- ;XkXr.@   ,   X 7 @ @ @ X X X @ @ X X X X X X X X X X X X X X X X = X   X @ X O O   @ 8 @ X X X > X X X X X X X X X X X X X X X X X X X X X X X X @     @   + r.kX_.- | t.K F P *.P P P P P P P P P P P P P P P P P P P P P P P P #.P I P 3.| - :XfXz.8   #     7                                                       O       @ ",
"    o       #                                                   =   q     O . g.kXOXd ;.#.P &.#.P P P P P P P P P P P P P P P P P P P P P P P P P K :.#.$.d (.bXB.. 7 X # 8   = X X X X X X X X X X X X X X X X X X X X X X X X   X > @ @ e e e , @ @ @ , , >   X X X X X X X X X X X X X X X X X X @ @ X X X X ;   a   X 7   h.kX Xs ;.%.&.,.o.P P P P P P P P P P P P P P P P P P P P P P P P -.P :.#.*.f  XkXB.  > = X | w ; > > > > > > > > > > > > > > > > > > > > > > > > ; < > X > 1 = X X - < > X > < , > > > > > > > > > > > > > > > > > > > > > > > > < w f   = w   B.bX XL *.#.q.F K P P P P P P P P P P P P P P P P P P P P P P P P o.H H #.$.a  XkXB.  7 X   a X ; @ @ @ X X X @ @ X X X X X X X X X X X X X X X X   X X @ # e , # # @ @ @ , , >   X X X X X X X X X X X X X X X X X X X X X X X X ;   #   X O . K.kX Xa *.p w.K #.P P P P P P P P P P P P P P P P P P P P P P P P #.&.P #.9.d  XbXg.  O     q   =                                                   @       #     ",
"%   . #     #                                                     O     8 O o   z.xXoXb 1 #.p I P P P P P P P P P P P P P P P P P P P P P P P P H &.#.P 3  XDXK.  o # w     X   X X X X X X X X X X X X X X X X X X X X X X X X   > ,           o o       X > > X X X X X X X X X X X X X X X X X X X @ X X X X - 7 X = u w :   K.vXXX3 V ;.p P P P P P P P P P P P P P P P P P P P P P P P P P P %.A K :  XDXB.  - , y X w u X > > > > > > > > > > > > > > > > > > > > > > > > X t > > < >   - -   = < @ > t X > > > > > > > > > > > > > > > > > > > > > > > > = 7   = { w ;   H.NX X: P #.K F P P P P P P P P P P P P P P P P P P P P P P P P T { :.M , oXNXK.  - @ u X   7 X X X X X X X @ @ X X X X X X X X X X X X X X X X   , ,           o o       o > = X X X X X X X X X X X X X X X X X X X X X X X X   7     u @ o . K.DX X3 P #.&.H P P P P P P P P P P P P P P P P P P P P P P P P I t #.t b oXvXz.  o   9 o o O                                                     o     # .   % ",
"eX_ . .     #                                                   0     O   o   > & d.bX`.: 3.;.M P P P P P P P P P P P P P P P P P P P P P P P P R o.4.1 _.bXK.& w   o 8   ;   0 X X X X X X X X X X X X X X X X X X X X X X X X X @     5 J.4XdXdXdXtX}./     # X X X X X X X X X X X X X X X @ X X X X X X X X 0   = 7   # X r & f.bX_.1 4.*.H P P P P P P P P P P P P P P P P P P P P P P P P Y o.;.1 XXNXK.$ {   - > y ; = 8 > > > > > > > > > > > > > > > > > > > > > > > > , > X r <   ) yXyX`   < > X > , > > > > > > > > > > > > > > > > > > > > > > > > u = ; w 7 e @ i $ B.bX_.1 [.{ T P P P P P P P P P P P P P P P P P P P P P P P P P A *.1 _.NXc.$ r   # @ 7 ; X 0 X X X X X X @ X X X X X X X X X X X X X X X X X X #     2 I.5XdXdXdXtX}.z     # X X X X X X X X X X X X X X X X X X X X X X X X 0   = @ O o   > & H.bX_.n 2.#.M P P P P P P P P P P P P P P P P P P P P P P P P M %.3.4 _.bXz.& >   +   O X   0                                                   X     . . 0.eX",
"9XNXP.  * + 7 X         O     @                                             X X <   h.lXXX, #.%.R F #.;.%.t w.A P P P P P P P P #.;.V &.P %.H n o.,.t .XlXK.  > X X X X X X X X X X X X X X X X X X X X X X X X   @   X @ X X X > 7   p.gXfXrX|.{.|.*XgXfX(.  X @ > X   X @ X > X X X X X X X @ @ @ X X X X @ @ X X X @ @ X > > <   B.lXXXt %.#.c T -.*.:.t ;.%.P P P P P P P P P ;.#.-.P P H K K ;.p .XlXB.  i > > > > > > > > > > > > > > > > > > > > > > > > > > > y @ r > > B @ X 4   J.bX9X9XbXJ.  m X @ < = > > > w > > > > > > > > > > > > > > > > > > > > > > > > > > > i   B.lX Xu ;.K M P %.#.&.A &.#.P P P P P P P P #.&.A &.#.-.K M #.;., .XnXK.  r @ X X X X X X @ X @ X X X X X X X X X X X X X X X X >   X , X @ = 9 O g.hXfXeX|.{.|.4XgXfX}.  X 8   X   @ # @ X X X X X X X X X X X X X X X X X X X X X X X X X =   K.nXOXs ,.B M V &.A I P %.*.P P P P P P P P #.P B w.p %.q.v -.#., XXlXB.  >                                                                 X 7 + o   P.NX9X",
"F  XlX&X+       o o   #     o                                               X X   2 . 0.MX2X4 #.Z %.K K F :.V &.P P P P P P P P %.&.V V :.A &.#.>.; _.MXx.. o   X X X X X X X X X X X X X X X X X X X X X X X X   X X X X X @ X   6 }.mXXX` - 4 < n o 2 (.MXrX*   , > > X X X X X X X X X X X @ @ X X X X @ @ @ X X X X @ @ > > X :   r.MXXX- ;.&.*.A H #.&.c %.P P P P P P P P K P p t T c %.*.&.- `.MXz.  - X > > > > > > > > > > > > > > > > > > > > > > > > > t X X > > < t   ; @ 6 .XmXOX, , XXnXXX6 w ;   t < X w X > t X > > > > > > > > > > > > > > > > > > > > > > > > @ -   z.MXXX, &.#.%.V :.V V %.#.P P P P P P P P P P t V :.A %.#.;.: `.MXx.  : @ @ X X @ X X X @ X @ X X X X X X X X X X X X X X @ X X X X @ @ , X . W.MX-X/ = n : c e d (.mX4X&   X >   X #     X X X X X X X X X X X X X X X X X X X X X X X X O o . x.mX_., 3.#.%.A :.c V P #.P P P P P P P P P B &.A P A P %.%.4 2XMX0.. 2                                                     #   o               O &XlX Xs ",
"7.w I.lX0X2 6 o     X                                                       X X . # 7   g.nX`.t *.y.K H I :.V K P P P P P P P P P V q.V H K p 3., _.nXH.8 7 X # X X X X X X X X X X X X X X X X X X X X X X X X X X @ X   X @ X   I.BXU.e #.A $.3.H T ,.> Q NX=Xo   > > X X X X X X X X X X X X @ @ X X X X @ @ X X X X X X > >   w 7   d.nX`., 4.%.V I H :.%.K P P P P P P P P P K w.F Y H { [., `.nXz.# w w # > > > > > > > > > > > > > > > > > > > > > > > > > X < = X < >   b 7 s 7XNXI.p C U e {.bX7X4 9 n   w > X > t X > > > > > > > > > > > > > > > > > > > > > > > > > , > @ X z.nX_.- 3.p K H F q.K P P P P P P P P P P F q.V H P p 3., `.nXd.@ 7 @ o > X X X X X X @ X X X X X X X X X X X X X X X X X X X > @   @ @ . W.BXN.@ 2.%.V q.V P 6.> N bX=Xo   X X X #   X X X X X X X X X X X X X X X X X X X X X X X X X # O @ o d.lX_.e 6.p P H F e.K P P P P P P P P P F :.I V :.V o.3.s _.lXd.  6 @                                                   #     o   7 @   o 6 5 9XlXP.w <.",
"&.:.i / aXgXh O g           o O                                             X X   9 X X . ' NX4X: K ,.t P H K &.P P P P P P P P P P H H t ,.;.; .XMXH..     9   X X X X X X X X X X X X X X X X X X X X X X X X X   @ X   @ X   z aX'.| -.A [.&.{ Z <.B *.=.' lXY.  X X X   > X X X X X X X X X X @ X X X X X X X X X X X X > >   i =   . d.MXXX; J y.i H H o.I P P P P P P P P K P H P t ,.&., XXMXH.# X = y @ > > > > > > > > > > > > > > > > > > > > > > > > > > > < > > @ #.  j aXkX8.} P :.I P y 9.sXgX5 O #.@ > > > > > > > > > > > > > > > > > > > > > > > > > > > > > > @ u = X # z.MXXX= &.,.r P H P P P P P P P P P P K H F K r ,.&.; XXMXd.+ > > u O > X X X X X X @ X X X X X X X @ X X X X X X X X X X X , @   >   z kXW.| H B [.P *.o.H v 2.4.z.zXJ.  X @ X @   > X X X X X X X X X X X X X X X X X X X X X X X X   w @   + H.MX`.; &.,.r H H P P P P P P P P P P P H V V t y.I ; 4XnX_ . X X 9                                                   O       #     a O h gXwX( o.:.P ",
"&.C Y o.a 7XnX0.  # @   #   8 O                                                 @     #   O z.nX2X- | t.%.I P #.P P P P P P P P #.P c P t.*.- XXnXx.@   #     7 X X X X X X X X X X X X X X X X X X X X X X X X @   X     X     =XdXM X.c L  .M P 6.*.P :.P ; oXdX2 X X @   > X X X X X X X X X X X X X X X X X X X X X X X @ @ y     e X O z.VX;X- $.;.*.H H *.P P P P P P P P #.H c K t.=.: ;XnXz.@ = ,   X w > > > > > > > > > > > > > > > > > > > > > > > > @ r   r X t s   0.lXpX, %.U P #.$.K R A g 7XnX0.  t 1 X r   t @ > > > > > > > > > > > > > > > > > > > > > > > > w X X t = X z.mX:X: =.t.P V P %.P P P P P P P P #.K c P t.=.: :XmXz.O X t X X w > X X X X X X @ X X X X X X @ @ X X X X X X X X X X @ @ X X X   -XpXv 1.c ) p %.A ,.A K w.#., :XuX2 X @ X o   @ X X X X X X X X X X X X X X X X X X X X X X X X @     7 X 8 z.lX_.- $.3.P c P #.P P P P P P P P %.V H #.3.=.3 :XlXx.@   X     7                                                   a     @       _ mXpXg i U A 8.",
"R #.{ :.A { oXVXr..     8 O   O                                                 =   +     6 . h.bX4XL | #.%.#.#.P P P P P P P P #.A :.o.| L  XbXT.. O     q   = X X X X X X X X X X X X X X X X X X X X X X X X @ X X   X X   , gX XB >.w.5 ) O.3.V 1 f ;.c V 6.NX'   X ,   X @ X X X X X X X X X X X X X X X X X X X X X X @ @ ;   #   > 7   B.bXOXs ;.#.&.:.#.P P P P P P P P #.K :.K  .$. XbXK.  w = X u > ; > > > > > > > > > > > > > > > > > > > > > > > > w X w r   - o r.VXeXA U R #.#.R R #.p R C %.-XVX' o -   t >   > > > > > > > > > > > > > > > > > > > > > > > > > ; X e   = w   K.mX XL $.#.,.P %.P P P P P P P P #.A :.P $.L  XmXB.  7 >   e X ; > @ X X X X X @ @ X X X X X @ @ X X X X X X X X X X > X @ X   2 vXY.U D w.( b S ,.P s #.8.v H @XNX~   @ X o X X X X X X X X X X X X X X X X X X X X X X X X X X X   #   X O   I.bX XL $.#.:.P %.P P P P P P P P #.P P -.=.d oXbXg.. 7     #   =                                                       X   o . z.VXoXu B w.*.#.R ",
"H F ;.*.C B $.XXDXd.. +   X   o                                                   O   o u X o   f.NX>X3 t =.A ,.P P P P P P P P P %.*.P 3 OXDXI.  o X 9     6   X X X X X X X X X X X X X X X X X X X X X X X X @ X X   X X   / fXP.< o.{ m ] *.{ H n w.#.w.&.r gX(.  @ @ X X @ X X X X X X X X @ X X X X X X @ @ @ X X X X @ @ = 7 X X u p 3   I.bXoX4 : #.{ T P P P P P P P P P P P F : OXDXK.  - , w X > y X > > > > > > > > > > > > > > > > > > > > > > > > = X r > s   ' NXXXL B M ;.=.P K H F =.#.R B $.XXNX'   t y w > > > > > > > > > > > > > > > > > > > > > > > > > > = u > X p t :   K.DX X: F o.#.P P P P P P P P P K A o.K 3  XDXK.  : t i X X u = > X X X X @ @ @ @ @ @ X X X X @ X X X X X X X X X   , X @ >   0.nXe.A B o.L M <.p I F ;.t :.K o.fXU.  @     @ @ X X X X X X X X X X X X X X X X X X X X X X X X   0   X e # - O K.DX X3 P o.%.P P P P P P P P P I p #.t 3 oXNXH.  o X u o   O                                                             . d.DX).$.B C #.=.F T ",
"t.A E v =.8.v Z #XDX'   #                                                       0   = O   o   > & g.mX2X1 4.;.v P P P P P P P P H p 4.1 _.mXK.& >   o   @ =   [ X X X X X X X X X X X X X X X X X X X X X X X X X X @   = o   u.kXz  .:.T #.o.P E -.2.Z R : 8.e 0XrX  u @ X   @ X X X X X X X X @ X X X X X X @ @ @ X X X X @ @ [   ; w   o X r $ H.mX;Xt 4.P H P P P P P P P P T p ;.: _.MXK.$ Z   - X w = = u > > > > > > > > > > > > > > > > > > > > > > > > = < > @   _ DX2XZ : 9.4.F R A 4.4.A R F t.9.: Z 2XDX'   w @ t = > > > > > > > > > > > > > > > > > > > > > > > > 0 X < y X o   Z $ H.mX_.1 3.p R P P P P P P P P H p 3.c ;XmXK.& B   X X w ; X [ @ X X X @ @ @ @ @ @ @ @ X X X X X X X X X X X X X   w X , =   P.gX)  .,.C S #.o.m #.2.A T V L s 9X*X  u     , X X X X X X X X X X X X X X X X X X X X X X X X X 0   = 6 O #   < & K.bX_.1 4.#.R P P P P P P P P M ;.3.1 :XmXd.& >       @ =   0                                                     X O   _ FX).Z v 8.=.M E A t.",
"&.P P P P P P P < +XVX!     0                                               X X         X X     >   h.nX4X1 #.-.C #.8.H c L L U #.#.1 .XVXT.  > X X X X X X X X X X X X X X X X X X X X X X X X X X   X X X X X @   =   e O . ' vX` r +.P G I %.S :.F t ;.#.;.p 7XeX    , X   > X X X X X X X X @ @ @ X X X X X X @ X X X X > > @ @ @ > > > @ @ r   K.mXXX1 ;.#.U L L M M / L U %.%., XXVXL.  < > > > > > > > > > > > > > > > > > > > > > > > > > > > > > > > > > w ; < Q nXeX> P P P P P P P P P P P P P P P P < eXVX5 < = u @ > > > > > > > > > > > > > > > > > > > > > > > > > > > > > > > > ;   K.MXoX< &.S U L / M M / L U o.%.1 XXVXK.  r X @ @ @ X X @ @ > @ @ X X X X @ X X X X @ @ X X X X X X X X X X X X ;   e 8   Y.xX` Z o.&.G K <.o.&.P t w.p ,.r pXXX  6 2 o   X X X X X X X X X X X X X X X X X X X X X X X X X X X X X X X X X r   K.VXXX> #.#.U #.L M M L f U #.-.> *XVXh.  >         X X X X               X                                 . 0     ! VX+XB P P P P P P P &.",
"&.P P P P P P P R a uXsXo 8   .                                             X X         X X       2 . r.MX2XG #.H ;.A O.-.%.;.v -.: XXGXP.. o X X X X X X X X X X X X X X X X X X X X X X X X X X X   X X X X X   f   X @ X   ` MX] ,.O.&.( s P K A T P P &.P > vX(.X ;   y 6 @ X X X X X X X X @ @ X X X X X X @ @ X X X X > > @ @ @ > > > @ @ > -   z.MX2X4 %.c ;.P -.-.#.;.V %.: ;XMXP.  : X > > > > > > > > > > > > > > > > > > > > > > > > > > > > > > > > @ ; w o sXuX# q.P P P P P P P P P P P P P P P P T , uXsX  w < # > > > > > > > > > > > > > > > > > > > > > > > > > > > > > > > > @ :   J.MX`.s *.c ;.L #.#.P ;.V %.1 :XMXx.. - X > @ @ @ X X @ @ > @ @ X X X X @ X X X X @ @ X X X X X X X X X X @ e   7   X   ' NXQ :.o.&.( 1 S A B &.&.P &.K < vXL.  c   9 O @ X X X X X X X X X X X X X X X X X X X X X X X X X X X X X X X X   - . x.MXXX: -.V ;.P %.%.P &.V A G 2XBXr.. 5           X X   X               X                                 .   8 % fXyXe R P P P P P P P &.",
"&.P P P P P P P n P $.dXdX    .                                             X X         X X X     O O + g.nX2X, &.&.*.K K *.P &.X `.mXK.  7   o X X X X X X X X X X X X X X X X X X X X X X X X X X X X X X X X e   ;   X 7 9 9 gX(.- A t L I :.q.V P A A w.n n.nXz.    v   e   X X X X X X X X X X X X X X X X @ X X X X X > > @ @ X X > X X X X > 7 O d.mX:X1 &.&.1.P P 2.&.8.> `.mXN.X 7 > X > > > > > > > > > > > > > > > > > > > > > > > > > > > > > > > > = r   7XkX=.A N P P P P P P P P P P P P P P P P n S $.bX7XO < X > > > > > > > > > > > > > > > > > > > > > > > > > > > > > > > > # w @   N.mXXX8 ;.&.*.K K 1.&.;., `.mXd.O 7 w o X X @ @ @ X @ @ > @ X X X X X @ X X X X @ @ X X X X X X X X X X X   1 X e w 7 u fX(.= O.A &.I &.q.V K P p w.n n.nX0.O X i O ,   X X X X X X X X X X X X X X X X X X X X X X X X X X X X X X X X   X 6   d.mXXX= ;.&.2.K K 1.&.;.t `.mXd.  O @ .                               X                                 .     pXdX$.&.n P P P P P P P &.",
"&.P P P P P P P $.E y J.BXU.O                                               X X         X X X     8 X > . ' MX4Xu B Y 8.L C B p XXBXK.+   > u   X X X X X X X X X X X X X X X X X X X X X X X X X X X X X X X X > ;   - # O     0XxXm P ;.P P A F P P %.-.F - oXgXj O   - -   = X X X X X X X X X X X X X X X @ @ @ X X X X > > X X X @ @ X X X   i < =   z.MX4Xu B P 9.9.Y B u &XMXH.# X = i X > > > > > > > > > > > > > > > > > > > > > > > > > > > > > > > > ; 9 I.SX' } C K P P P P P P P P P P P P P P P P K Y } J.VX{.O ; = = > > > > > > > > > > > > > > > > > > > > > > > > > > > > > > X p > @ 8 H.MXXXp B H $.$.P B p XXMXH.# X > p X > @ @ @ @ @ @ @ > X X X X X X @ @ X X X X @ X X X X X X X X X X X =   ,     #   9XdXn %.%.P I 1 L I P %.%.F - oXgXx 6 X X 1   X X X X X X X X X X X X X X X X X X X X X X X X X X X X X X X X X   u X   + K.BXXXu D Y L L Y D { 4XMXd..   > 8                                 X                                   + U.VXr.y E $.P P P P P P P &.",
"&.P P P P P P P 2.v :.{ (.VXq X                                                                 6 X   X   O x.VX2X} C I I H } `.VXx.#   #   X @ X X X X X X X X X X X X X X X X X X X X X X X X X X X X X X X X     0 O . K.7XkXbXDXoX1 ;.P K I F :.A Z #.I P.DXmXNXdX).% . u > X X X X X X X X X X X X X X @ @ X X X X X X @ @ > > > @ @ @ > > i X   , > @ x.VXXX{ C I I C { XXVXx.# = t X X w > > > > > > > > > > > > > > > > > > > > > > > > > > > > > > > > ; + FX^.t %.H O.P P P P P P P P P P P P P P P P -.c y.X 2XNXq ; > > > > > > > > > > > > > > > > > > > > > > > > > > > > > > > > > =   p @ O x.VXXX} C I I C } XXBXz.O X t X X w > X @ X @ @ > > > X X X X X X @ @ @ @ X X X X X X X X X X X X X = @ 0 8 % L.pXkXbXNXOXt %.A K I F :.K A -.I Y.DXnXbXxX X% . u X X X X X X X X X X X X X X X X X X X X X X X X X X X X X X X X X 7     ,   @ x.VXXX} C J J H } XXnXz.@   #     7   X X X         X             X                                   a VX(.{ ,.v *.P P P P P P P &.",
"&.P P P P P P P o.w.b O.L fX*X                                                                  X   +   X O . B.BXoXy U U y oXVXR.. O     O   = X X X X X X X X X X X X X X X X X X X X X X X X X X X X X X X X , u   j dXmXuXW.N.J.P.F P &.K P K P K :.%.F e.Y.n.J.XXNXFXK.  [ X X X X X X X X X X X X X X @ @ X X X X X X @ @ > > > > X @ > > ;   #   = 7   B.BXoXy U U y oXVXK.  7 >   e   ; > > > > > > > > > > > > > > > > > > > > > > > > > > > > > > > >   *XfX( Z M ;.S P P P P P P P P P P P P P P P P A 3.v O.I fX*X  > > > > > > > > > > > > > > > > > > > > > > > > > > > > > > > > ; X , X = O   K.VXoXy U U y oXVXK.  @ > X e   = > > @ @ X X > > > X X X @ @ X @ @ @ X X X @ X X X X X X X X X X   | O j fXnX7XU.J.J.P.K %.&.P &.K K P &.&.F e.Y.n.C.4XNXVXK.  u X X X X X X X X X X X X X X X X X X X X X X X X X X X X X X X X =   #     O . K.VXoXw U U y oXVXB.  O     #   =   X X X         X             X                                   *XfXG o.N w.A P P P P P P P &.",
"&.P P P P P P P &.o.H :.p U.MXj                                                 X   X X           6   X u   -   c.VXeXp w oXVXI.  o # u     6   X X X X X X X X X X X X X X X X X X X X X X X X X X X X X X X X O   ^ MXdX] , [ V F G q.t P %.P ,.K K K #.%.&.1 *.t 1 2 XXZX(.. X X X X X X X @ X @ @ X X X X @ X @ X X X X @ @ @ > @ @ X X > >   u , = u w -   I.CX>Xp p >XCXx.  : e p X > u X > > > > > > > > > > > > > > > > > > > > > > > > > > > > > > > > 5 MXU.u w.v p ,.P P P P P P P P P P P P P P P P ;.A ; y.y (.MX2 > > > > > > > > > > > > > > > > > > > > > > > > > > > > > > > > X y X = t w : O x.CX>Xr r oXVXx.  - e p X X w X > @ @ @ X > > > @ X X X @ @ X @ X X X X @ @ X X X X X X X X X X 8   N.MXqXN g ..t V F I t A P K ,.K K K #.&.&.< #.V s 5 XXZX^.  X X X X X X X X X X X X X X X X X X X X X X X X X X X X X X X X   7     u e -   x.VXoXr t >XVXc.  -   u -   6       X X         X             X                                 z MXL.y &.H o.:.P P P P P P P &.",
"&.P P P P P P P L T O.K I F NXQ.                                                X X X X X       0   = 7   o , X   g.VX*X*XVXd.  >     # O =   0 X X X X X X X X X X X X X X X X X X X X X X X X X X X X X X X X O Q NXtX# 4.>.E *.A P P :.A &.$.o.A :.F &.#.#.&.4.R U 2.w L.GXW.X X X X X X X X @ @ @ @ X X X @ @ @ X X X @ > @ @ @ @ X X X > @ 0 X ; @ X ,   r   ' VX*X*XVXd.  r   o X > ; = 0 > > > > > > > > > > > > > > > > > > > > > > > > > > > > > > > > Q.bXv ;.$.O.R | P P P P P P P P P P P P P P P P  .R O.f ;.M bXQ.> > > > > > > > > > > > > > > > > > > > > > > > > > > > > > > > 8 = = 9 7 #   ;   d.VX*X*XVXd.  B   o X @ ; X 0 > > @ @ X X > > @ X X X @ X X @ X X X X @ @ @ X X X X X X X X X 8 Q MX4Xq 4.#.E +.#.I G :.P %.P o.P &.F P -.#.%.-.H M *...~.BXI.X X X X X X X X X X X X X X X X X X X X X X X X X X X X X X X X 0   = @       r   g.VX*X*XVX'   X >     @     0     X X                       O                                 ).bXc I I +.Y s P P P P P P P &.",
"&.P P P P P P P P J J P *.X yXaX  o                                             X         X X X 6     9 X   e     _ mX-X-XVX'   >     O @   o 0   X X X X X X X X X X X X X X X X X X X X X X X X     X   X @   . qXxX> =.w.F #.P P P P P P P P P P P P P P P P H &.p P S t OXVX3 O w =   X > @ @ @ X X X X @ @ @ @ X X X @ > > > > > > > @ @ @ 6 = = <   O u ;   ] mX-X-XMX] O < @ o @ w = ; 0 > > > > > > > > > > > > > > > > > > > > > > > > > > > > = > ,   aXyX= >.o.#.&.F P P P P P P P P P P P P P P P P A q.c %.-., yXwX  , , > > > > > > > > > > > > > > > > > > > > > > > > > > > > > [ = = i X   w r   _ mX-X-XmX`   < w     w = = 0 @ X X @ > > > X @ X X X X X X @ X X @ @ @ @ X X @ X X X X @ @   . wXdX, =.;.F #.P P P P P P P P P P P P P P P P V :.#.A T > +XmX3 6 @ X   #   @ X X X X X X X X X X X X X X X X X X X X X X X X 0     7 O   X > @ ' VX*X4XVX_   X <     u     6                               O                 X   X           dXeX; %.#.f e.c P P P P P P P &.",
"&.P P P P P P P %.H F P A &.Y.nX,                                               X X         X X - O     8 8     _ SXyXf e >XSXc.  :   w   X u       X X X X X X X X X X X X X X X X X X X X X X X     X   X @   _ mXY.t w.p I %.P P P P P P P P P P P P P P P P V %.%.S <.t Q bXOX  7 X X X X X @ @ X X X X @ @ X X X X @ @ > > > > > > @ @ @ @ ; 7 @ = @ 7 4   r.AX4Xr i 4XAXr.  n X w 1 > 7 = > > > > > > > > > > > > > > > > > > > > > > > > > X > < > > , , kXU.P S #.&.V P P P P P P P P P P P P P P P P P ,.c K &.A #. XkX, = X > < > > > > > > > > > > > > > > > > > > > > > > > > > > > = 7 > ; w w G   z.SXeXt e eXCXz.  b @ u : X @ = > X X @ > > > X > @ X X X X @ @ X X @ @ X @ X X > X X X X @ @   0.CXb.P &.#.F #.P P P P P P P P P P P P P P P P K V ,.#.H P G bX(.  X X X #   @ X X X X X X X X X X X X X X X X X X X X X X X X   u     9 O :   c.SXeXr t eXSXc.    > O   @ O -                               O                 X           . 4 kXI.K S ;.L F P P P P P P P P &.",
"&.P P P P P P P A T #.P Y A 0.VX9.                                                                e       0 . ^ VXeX{ U U u -XVXB.  O     #   X X X X X X X X X X X X X X X X X X X X X X X X X X   X X   X o   &XjX, -.F #.&.P P P P P P P P P P P P P P P P P K #.&.F A ;.- >XvX. @   @ X X X @ @ X X X X @ @ X X X X X X > > X > X X @ X X @ = X #   r w   h.AXeX{ C C { 4XVXK.  O = - e   ; > > > > > > > > > > > > > > > > > > > > > > > > > > > < > X > I zXP.p C %.$.I #.P P P P P P P P P P P P P P P P %.c %.%.T e P.mXL > X > < > > > > > > > > > > > > > > > > > > > > > > > > > > > ; > #   > 7   K.AXeX{ C C p eXAXB.  7 >   # > = > > @ @ X @ @ X > X X X X X @ @ X X X X X X X X > X X X X X @   4XsX- #.H #.P S P P P P P P P P P P P P P P P P %.F #.&.H -., 4XdX. X X # X   @ X X X X X X X X X X X X X X X X X X X X X X X X =   #     O   K.AXeXi C C { eXAXj.    ;   O #   X X                           X                 X           . 9.mXu.u H P &.F %.P P P P P P P &.",
"&.P P P P P P P A I -.#.R A u.lX9.        O                                                     7     t     z.mX7X .1 K T F | :XVXx.8   #     7 X X X X X X X X X X X X X X X X X X X X X X X X X   X X   X o   aX4X .-.v ;.&.V P P P P P P P P P P P P P P P P O.%.F F F 3.#.m.mX5 #   @ @ = X X X X X X X @ X X X X X X X > > X X X X @ @ X X 7 v   7 w   z.BX8XF A I I A t 2XBXr.@ , < X = w > > > > > > > > > > > > > > > > > > > > > > > > > > > > < X > I zXP.u Y &.t q.*.P P P P P P P P P P P P P P P P A I -.%.R p P.nX&.> X < > > = > > > > > > > > > > > > > > > > > > > > > > > > > w =   > < @ 0.AX8X .n T T n | 8XBXr.@ > X X ; @ > > @ @ @ @ @ @ > X X X X @ @ @ X X X X X X X X > X X X X X @   sXXX=.#.M #.#.K P P P P P P P P P P P P P P P P -.P t P Y o.t.Y.nX2 o X O O X X X X X X X X X X X X X X X X X X X X X X X X X X 7     #   8 x.VX2X{ c I I V  .6XVXz.    8     O   X X X                       X                         O     9.zXu.} H A I T o.P P P P P P P &.",
"&.P P P P P P P &.A #.%.v &.P.nXd   o     #                                 X X         X X     @ O @     ' GXuXr v I $.$.I c B 4XZXK.+   > u   X X X X X X X X X X X X X X X X X X X X X X X X X   X X   X o   aX4X} #.R #.%.H P P P P P P P P P P P P P P P P Z ;.F F q.{ p n.mX)   X 7 7 X > X X X X X X X X X X X X X X @ @ @ @ @ @ @ @ @ @ 7 @ ; e O g.ZXrXB s ) *.*.) s B 4XGXH.  = < w X > > > > > > > > > > > > > > > > > > > > > > > > X , > > > > > t nXP.#.P :.s F *.P P P P P P P P P P P P P P P P &.F #.%.H I P.mXs = = > > > > > > > > > > > > > > > > > > > > > > > > > > > > > X 7 B ;   H.GX4Xr c I $.$.I c r 4XGXd.  1 < 7 @ > @ @ @ @ @ @ @ > X X X X X X @ @ @ X X X X X @ > X X X X @ @   fXXX} -.E #.A H P P P P P P P P P P P P P P P P %.K &.B T o.u Y.mX)   X @ O X X X X X X X X X X X X X X X X X X X X X X X X X X   9 >   . K.BX4Xe B P 9.9.Y v p tXZX' . X > 6 #     X X X X                   X                   X     O     d nXP.;.C &.K V *.P P P P P P P &.",
"&.P P P P P P P P P F %.O.= XXNXo   o     #                                 X X         X X       O u . ' ZX7Xo H H 4.P K *.P T 1 2XBXH.O O @ o X X X X X X X X X X X X X X X X X X X X X X X X X   X X X X o   sX4X9 -.M o.&.H P P P P P P P P P P P P P P P P %.p q.n P *.t n.VX_   = w 7   > X X X X X X X X @ X X X X X @ @ @ @ @ @ @ @ @ @ o   i O d.AX2X, H &.*.A K 2.&.I t 2XBXH.  7 w   > > > > > > > > > > > > > > > > > > > > > > > > > , > > = > = > vXeX= #.P I F %.P P P P P P P P P P P P P P P P :.t P %.%.  4XvXX > > > > > < > > > > > > > > > > > > > > > > > > > > > > > > > - > 7   d.ZX6X> &.I *.K H *.I I , 6XBX' O w > o > > @ @ @ @ @ @ > X X X X X X @ @ @ X X X X X @ > X X X X X X   kXXX9 %.M #.#.H P P P P P P P P P P P P P P P P %.F ;.P c 3.p J.VX)   X w O   X X X X X X X X X X X X X X X X X X X X X X X X X   X O O H.BX2Xt I P *.K K *.P &., 8XZXg.O 9   .         X X                   X                     X     #   o vX>X= #.&.I t %.P P P P P P P &.",
"&.P P P P P P P A &.J I 2.b jX-X                                            X X         X X X   e   . 0.GX7X- ;.H &.A %.%.A &.F %.G 2XGXI.  : X X X X X X X X X X X X X X X X X X X X X X X X X X   X X X X o   uXtXf %.v -.#.K P P P P P P P P P P P P P P P P &.p w.c V ,.F ~.nX5   = > @   > @ @ X X X X X X @ @ X X X X @ @ > @ > > @ X @ @ X G   _ GX7Xs &.L Y @.P P @.Y L ,.: 2XLXz.  b X > > > > > > > > > > > > > > > > > > > > > > > > > > > > > , ,   oXbXE { P I &.K P P P P P P P P P P P P P P P P K P J P 3.b bX*X  = > > > > > > > > > > > > > > > > > > > > > > > > > > > > > > X n   r.LX6Xs #.H -.A %.%.A -.K #.G 6XGXr.  G   X X @ @ @ @ > > > X X X @ @ X @ @ @ X X X X X X @ X X X X X @   dX4Xf P M *.-.F P P P P P P P P P P P P P P P P %.P P &.< ,.$.~.bX%   X > X   X X X X X X X X X X X X X X X X X X X X X X X X X X -   P.GX2XG #.H ;.F S %.F ;.F #.4 iXBX0..   X         X                     X                     X     #     *XbXN *.K I #.H P P P P P P P &.",
"&.P P P P P P P &.t ] &.[ OXCXl       O #                                   X X         X X X X   # ~ ZXuX. -.+.S #.&.N N &.#.P #.;.= 4XAXT.  > X X X X X X X X X X X X X X X X X X X X X X X X X   X X X X o   .XNXG V R -.K K P P P P P P P P P P P P P P P P K ;.F H :.o.- iXsX  e X   > X @ @ X X X X X X @ @ @ X X X X > @ > > > > X X @ @ ;   g.AXtX  3.K C *.( M n ( *.C o.;.> 4XAXB.  r > > > > > > > > > > > > > > > > > > > > > > > > > X > > > > , X x lX6X9 w.4 $.H P P P P P P P P P P P P P P P P F &.N A } >XmXz X , > > > > X > > > > > > > > > > > > > > > > > > > > > > > > > <   B.AXrX> #.-.A o.&.N N &.#.A -.o.X tXAXh.  r X X X X > > > > > X X X X X X @ X X X @ X X X X @ X X X X @ @   .XNXG P H =.P I P P P P P P P P P P P P P P P P P P $.#.:.#.X iXdX  t X   X o   X X X X X X X X X X X X X X X X X X X X X X X X >   K.AX4X, ;.o.S =.( N M 8.=.S *.%.  uXAX~ . X         X                     X                 X               z zX:X} %.J -.c P P P P P P P &.",
",.` u e.O.7.<.V E -.4.8 ^.KXR.&                                                 6 -   8     #   $ ~ GXqX> 4.P H P P P P P P P P v o.4.1 :XZXK.$ > X   O O   4 6 X X X X X X X X X X X X X X X X X X X X X X X X j FX_.; >.S t t.G { &.C P &.} q.6.` $.#.R o.*.t.$.4.o.H A  .) ZX{.-   = X > > X X X X X @ @ @ @ @ @ X X X > > > 6 ; = w e   e > . ^ JX6X: 2.#.J P P P P P P P P M #.3.< :XKXN.$ r X   # w = : 6 > > > > > > > > > > > > > > > > > > > > > > > >   ^ GXuX. 4.O.E P C 6.B &.g r.9.9.] #.R &.;.F P E -.4.g (.KXL.O > > > > > > > > > > > > > > > > > > > > > > > > 0 ; = w w   e > & d.GX6X: *.&.M P P P P P P P P R %.2.= 6XZXd.& > <   X y = = 0 @ @ @ X X X X X @ @ @ X X X @ @ X X X X X X X X h IX~.; P -.| t.z 2.D I L O.1.` ,.] | 2.C 1.*.=. .4.p :.H  .r.ZXu.,   o     @   X X X X X X X X X X X X X X X X O 1     o   9 = . K.ZX>Xf *.H P P P P P P P P P M #.2.= 6XGX~ &   X     6   o 6                                                 . H.JXXXa 4.i R I H S <.M | n.3.",
"#.>XXX8 ; p } | [ @ ] iXJX^.. +                                                 3 O     O @ o   ~ DXyX4 n ,.4.c P P P P P P P P T %.-.V - >XPXK.  - # u -   O - X X X X X X X X X X X X X X X X X X X X X X X X . (.UXr.=.y.R v R S -.C K I N OXt |.n.| &.R E N H v E r t.m iXbX-   , ,   X > @ X X X X X X @ @ X X X X X > > > : @   X @ @ 3   d.PXeXb V ,.#.K P P P P P P P P :.A #.F b >XDXK.  : @ w ; > 7 ; > > > > > > > > > > > > > > > > > > > > > > > > y # n.MXbXC.G u u ..w = L 4X6X1 A ,X~.p ; o.*.p } , Q pXGX(.  e > > > > > > > > > > > > > > > > > > > > > > > > ; 7 X = w w :   N.DXyX: t y.A P P P P P P P P P V A y.P : yXDXd.  4 @ 7 = X O : @ @ > X X X X X @ @ @ X X X X X X X X X X X X X O >XNXq. .&.R v ] C Y V &.K R oXr |.n.F I E R H I b E B #.m xXsX#     # X X X   X X X X X X X X X X X X X X X X X O   : 8 @ -   K.MXeX= F ;.o.T P P P P P P P P V &.,.F b tXFX~   2   6     O :                                                 6 # N.GXsXV.d 8 u } w : 9.6X>XA ",
"v ] CXvX*XU.P.U.oXsXMXnX' . 8                                               X     , X   X O . ^ ZXiX, $.-.A V 3.P P P P P P P P ;.> &.;.*.d oXJXK.  7     a   X X X X X X X X X X X X X X X X X X X X X X X X X     xXlX^ 8 } Y < >.2.&.u 5 sX|.X ` NXu.6 M H O.>.C o.4.- qXZXj     ,     > > X @ @ X X X X X X X X X X X @ > > X X a   = {   h.GXtX- #.&.K K -.P P P P P P P P p P P %.;.4 yXCXg.  y >   u @ X > > > > > > > > > > > > > > > > > > > > > > > > w 7   ) tXGXNXcX2XOX2XdXMXCXb.v c ' SXxX4X~.P.U.oXdXZXkXJ.  {   > > > > > > > > > > > > > > > > > > > > > > > > X > s   = o.  B.ZXyX4 $.&.&.V -.P P P P P P P P -.t &.%.$., yXZXf.  y >   a , X @ @ @ X X X X X X @ X X X X X X X X X X X X X X e   xXnXQ , i >.Z ,.1.A ;.5 dX{.> ` bX0.u M V +.-.Y p [., 7XGX%     X X   X X X X X X X X X X X X X X X X X X X X   *     u   K.ZXeX, w.%.,.r %.P P P P P P P P ,.V A %.$., iXZX' . 0     e o                                                   O     Q pXGXNXuXXXOX4XpXDXSX` F ",
"t.[ tXSXvXmXkXmXkX7XK.. O u   X                                             X X + o   @ o   r.BXqX- #.#.6.V H 2.P P P P P P P P p T H K 3.| ; 6XHXx.  = ,   X 7 X X X X X X X X X X X X X X X X X X X X X X X X   u . aXAXOXy.; 4.9 X N I.NXmX( 3.s 7XPX+X` s } = {  .P.bXZX' O , X     X > X @ @ X X X X X X X X X X X X > > > w =   s , O z.AX6X: | 3.K T P $.P P P P P P P P #.I H t t.#.; 6XAXx.  1 ,   < y > > > > > > > > > > > > > > > > > > > > > > > >   > f     _ ).wXjXkXMXrXVXpXu <.t.[ dXAXvXbXmXzXkX8XL.o 6  .X ; > > > > > > > > > > > > > > > > > > > > > > > > w <   < , O r.HX6X: p y.#.P &.#.P P P P P P P P $.:.c &.2.#.: 6XHXz.  1 ,   ; w @ @ @ X @ X X X X X X X X X X X X X X X X X X X = X % sXZXoX9.< p u 7 M Y.NXkXw.&.G pXPX+Xm 1 { >  ...P.NXMXW + @ , X     X X X X X X X X X X X X X X X X X X X 9 =   8 @   z.HX8X> 4.I P %.:.K P P P P P P P P -.K V ,.*.#.- qXBXx.  o ,   - O                                                     ,   . _ ).wXsXbXbXrXzXuXu w.",
"R p P.CXc.. _ #     8   #   -                                                 X 8 O X o   ' GXuX> M ;.*.v q.#.K P P P P P P P P K :.H V A w.P = 4XHXH.. X X 7 O X X X X X X X X X X X X X X X X X X X X X X X X w   @   oXDXMXpX6X>XdXNXFXHX6Xe o.#.J.SXHXDXdXeX6XtXNXSXpX5 O # X   X X < X   , @ @ X X X X X X X X X X X @ @ @ e 7 > =   ' LXrX: 1 y.A H V I #.P P P P P P P P &.P c A t y.t : tXGXN.  > < y 8 > > > > > > > > > > > > > > > > > > > > > > > > u =   ; y O o   , 2 . g.mXP. .A U p I.zXr.u F f -   @   ,   < = > > > > > > > > > > > > > > > > > > > > > > > > , w < ;   d.LXrX: V w.P H 1 :.#.P P P P P P P P #.P F V ,.;.K = rXJXd.  , < 7 @ > > > X @ @ @ @ X X X X X X X X X X X X X X X X   8 + . oXDXMXpX8X4XdXNXDXAX&X} O.P J.SXHXFXdX:X4XiXNXZX7X5 6 X X @     > @   X X X X X X X X X X X X X X X X X O @ = X O N.KXeX; K 6.A v P *.J P P P P P P P P P K q.V P ;.F = tXLX'   ,   O 8                                                 O       a O   o o o . c.CXu.{ :.",
"<.A p yXnXq .   6 0 O # o                                                   X     O q   ' GX7X# 3.,.V T T < &.P P P P P P P P P &.< T H T P o.6.= 8XKXH.  7 X   X X X X X X X X X X X X X X X X X X X X X X X X 6   ;     3 ^.uXaXsXpX(.W.GXm.#.:.%.f bX3Xc.pXsXsXpXXX! . 8 @ >   X > X X >   > @ @ X X X X X X X X X X X @ @ @   X {   d.HX7X= t.;.1 T T < &.P P P P P P P P P K P V q.H V y.2.> 2XKXd.  *.@   > > > > > > > > > > > > > > > > > > > > > > > > > , < = < > O [ 7 9 g NXiXf F P D S , dXbX. - @ [ y > > < @ > , > > > > > > > > > > > > > > > > > > > > > > > >   X o.  H.HX7X  y.-.V J I V P %.P P P P P P P P P P V T I K #.[.> 4XKX'   {     > > > X @ @ X X X X X X X X X X X X X X X X X X @ # ,     ) W.wXsXxXuXW.).ZXn.B P %.L mX<Xc.dXxXvXpX`.Q . 8 O =   X   X @     > X X X X X X X X X X X X X X X X . X u O H.HX6X# t.#.P H e.t A H P P P P P P P P P &.< T T V ;.3., 6XKX'   u                                                     #   , o   O 6 6 6 O i.mXiXs K Y ",
"q.R V ;.ZXrXo           6 6   #                                                 @ o . 0.JXqXo ;.t 3.A R p &.v #.P P P P P P P P #.&.P V V t ,.p ,.- 2XLXP.  - X X X X X X X X X X X X X X X X X X X X X X X X X X   X X G         . O . sXdX; E v %.{ OXFXj .   . . + 6 8   = X < @ @     , X X @ X X X X @ @ X X X X X X > @ @ > :   z.LX6X- ,.w ,.P K K :.K V P P P P P P P P ;.A P I F V ;.o.,.: 6XLXx.  : w > > > > > > > > > > > > > > > > > > > > > > > > X t 7 7 < = > i <   2XGXe.y T &.I ` T / HX5X. # > = = > w }   1 > > > > > > > > > > > > > > > > > > > > > > > > w :   x.LX6X: ,.i %.&.V F w.V A P P P P P P P P %.A y.1 F P ;.i w.- 6XLXr.  : w > @ > X X X X X @ @ @ X X X X X X X X X X X X X ,   X = -       .     . vXiX< R H P p OXFXj .   . .   6 |     , X @ X   X     > X X X X X X X X X X X X X X X X X o   P.LX6X- &.A 2.F H p w.v *.P P P P P P P P P V &.V &.A ,.p -.: 7XLXr.. 3 X                                                   # O O   ,   7   . 5XCXF P T &.",
"{ r i 9 P.zX X6     O o     o                                                       ^ ZXuXo w.O.T c ;.{ &.P #.P P P P P P P P P #.;.t &.;.%.B T Z y.X 4XHXB.  < X X X X X X X X X X X X X X X X X X X X X X X X X   7 0   = = y w ; 6 I.SX'  .#.#.-.K 4 bXqX+ , O , X > X @ X   @   > > @ X X > @ X X X X @ @ @ @ @ X X X @ @ @ > o N.HXtX, %.#.R K %.#.P K t ,.P P P P P P P P #.#.&.F #.;.F R Z y.  4XKXN.  > > > > > > > > > > > > > > > > > > > > > > > > > < X w y = = = > 6 W.SXH.[ r r y } r Z y P.SXU.7 1   t > >   t X > > > > > > > > > > > > > > > > > > > > > > > > >   N.HXrX> ,.A R P K #.%.V A -.P P P P P P P P #.P V w.#.#.K H Z ,.  tXHXh.  > @ @ > X X X X X @ @ @ X X X @ @ X X X X X X X X   1   [ 7 = ; y [ ;   W.AX` o.H I %.P s MX8X  1 6 X X =   @ ,         X @ > X   X X X X X X X X X X X X X X X X =   K.HX2X@ y.V &.M K 3.#.c ,.} P P P P P P P P #.P P &.o.;.V R O.;.o uXZX^                                                         8   o       6 OXzXJ.@ t > | ",
"_.OXOX.XL.sXIX5                                                 6 -   7 O   # X & ^ JXqX= 2.o.R P P P P P P P P P P P P P P P P P P P P P P P P H i [.; :XLXH.$ < X   6 6 X 3 O X X X X X X X X X X   X X X X X X X X X X X X X , . j GX>Xo.4.N A y.*.1 J.PXU.$ X X X X @ X X X X X X X X X X @ @ @ X X X X @ @ 6 - X w @   t > & ^ KX6X; 2.-.H P P P P P P P P P P P P P P P P P P P P P P P P M i t.1 6XJXH.. < u X = >   1 9 > > > > > > > > > > > > > > > > > > > > > > > > 1 DXsX^.XX X X_._. X XOX^.sXDX4 > > > > > > > > > > > > > > > > > > > > > > > > 6 , = > ,   u ; $ d.JX6X: 4.p H P P P P P P P P P P P P P P P P P P P P P P P P R o.3.= 6XJXg.& > t   @ 7   X 6 X X X X X @ @ @ X X X X X X X X X X X X X X X X , . l HXXX*.*.m #.-.#.A Y.JXB.& X X X X X X X X X X X X X X X X X X X X X X X X 6 ; = O @   X > & H.LX:Xc 3.p M P P P P P P P P P P P P P P P P P P P P P P P P T K 2.= qXJX' $   #   O 6   - 6                                                 5 IXsXL..XOXOX(.",
"bXNXNXMXnXnX5X.                                                 4 O     O O     ' FXtX3 K ,.;.V P P P P P P P P P P P P P P P P P P P P P P P P T &.#.F : >XPXK.  o @ e :   O , X X X X X X X X X X   X X X X X X X X X X X X X   X xXxXb A Z I N K r &.: oXPX^ X X X X X X X X X X X X X X X @ @ @ X X X X @ @ ; O X ; 7 @ 3   N.FXyX3 F ;.%.A P P P P P P P P P P P P P P P P P P P P P P P P I #.*.F ; eXPXK.  - w i ; > 7 ; > > > > > > > > > > > > > > > > > > > > > > > > % 7XnXnXVXNXMXmXnXNXNXVXnXnX5X% > > > > > > > > > > > > > > > > > > > > > > > > ; 9 > = w w :   N.PXeX: F 3.A P P P P P P P P P P P P P P P P P P P P P P P P P F #.;.V 3 eXPXN.  : @ 7 ; X O - X X X X X X @ @ X X X X X X X X X X X X X X X X   o NXsX; A 6.V v M t 3., >XGX~ X X X X X X X X X X X X X X X X X X X X X X X X - O   ; 7   -   K.PX4X: 1 -.A :.P P P P P P P P P P P P P P P P P P P P P P P P v 2.,.M 4 iXGXg.  -   6     O -                                                 . 5XnXnXMXNXNXbX",
"# 8 q O . o   6                                                   , @   @ 6 . ^ JXiX, =.&.K A ;.P P P P P P P P P P P P P P P P P P P P P P P P &.t K ,.=.s 4XJXK.  w X   a   > X X X X X X X X X X X X X X X X X X X X X X X X 7 yXFX_ ( ` q. .] c ;.;.I b iXDX@ @ @ X X X X X X X X X X X X X @ @ X X X X @ @   > t   X  .. N.GXiXX =.#.P B ;.P P P P P P P P P P P P P P P P P P P P P P P P #.K K ;.t., yXZXH.  u >   V = X > > > > > > > > > > > > > > > > > > > > > > > > 9 @ , > @ u t < < r u @ = < @ 9 > > > > > > > > > > > > > > > > > > > > > > > > X , s   > o.  N.GXtX, p ;.V K -.P P P P P P P P P P P P P P P P P P P P P P P P #.P V ;.f 4 tXJXN.   .    t @   @ @ X X X X X X X X X X X X X X X X X X X X X X 7 iXNX_ 8.I I t.R M :.2.4.G dXbXX X X X X X X X X X X X X X X X X X X X X X X X     #   X y   B.GXyX, ;.;.K P #.P P P P P P P P P P P P P P P P P P P P P P P P ;.V K &.$., iXZXN.  u     u                                                     6 O o . . 0 8 # ",
"    X         @                                                 O     # X   z.ZXqX: $.*.;.c K ;.P P P P P P P P P P P P P P P P P P P P P P P P A T H A 3.| - 6XAXx.O w u   - X X X X X X X X X X X X X X X X X X X X X X X X X   7XSXnXBXCXkXGXmXBXBXNXHXmXVXlX> @ @ X X X @ X X X X X X X X X X X X X X X @ @ w ;   < =   z.HX6X: =.*.&.H P #.P P P P P P P P P P P P P P P P P P P P P P P P { :.H %.*.;.= 6XHXr.  f i   ; 9 > > > > > > > > > > > > > > > > > > > > > > > > > = ; = < 1   X =   t 1 = ; = > > > > > > > > > > > > > > > > > > > > > > > > > y ;   u e   z.HX6X- #.3.#.I P #.P P P P P P P P P P P P P P P P P P P P P P P P #.P H P 3.| - 6XHXr.  > >   ; 9 @ X X X X X X X X X X X X X X X X X X X X X X X   9XAXnXBXmXmXBXnXZXVXnXAXnXAXfXX X X X X X X X X X X X X X X X X X X X X X X X 7 -   , X   x.HX6X- #.t.t :.&.o.P P P P P P P P P P P P P P P P P P P P P P P P 3.H V 3.#.$.- qXZXz.  X @     O                                                 @         X     ",
"#     + . . #                                                   8 O @ #   ' GXtX= K ,.#.V :.K #.P P P P P P P P P P P P P P P P P P P P P P P P K :.H V p y.P = 4XLXJ.+ @ X 8   X X X X X X X X X X X X X X X X X X X X X X X X q . I.}.I.H.I.H.I.P.P.U.J.J.{.0.> @ X X X X X X X X X X X X X X X X X X X X X X @ 7 > =   ' LXrX< F ,.P V H F &.P P P P P P P P P P P P P P P P P P P P P P P P %.K I < #.,.K = rXJXb.O p ; > 7 > > > > > > > > > > > > > > > > > > > > > > > > X t , X , @ X s a X # # o , t X > > > > > > > > > > > > > > > > > > > > > > > > 9 > ; w O g.KXyX: t w.#.A F P P P P P P P P P P P P P P P P P P P P P P P P P P %.P F A K w.1 : rXLX'   X > 7 @ @ @ X X X X X X X X X X X X X X X X X X X X X @ 0 * P.I.I.U.H.K.I.P.x.U.N.N.{.9.X X X X X X X X X X X X X X X X X X X X X X X X O 7 >     H.HXyX; V y.t A H &.P P P P P P P P P P P P P P P P P P P P P P P P P K #.T v *.w.H = tXLX'   ,   O 8                                                   + . . + .   # ",
"  o     #                                                         O q O ' GX6X, 3.;.r H T 1 &.K P P P P P P P P P P P P P P P P P P P P P P P P P V P H T V ;.3.@ 4XKXN.  w @ + X X X X X X X X X X X X X X X X X X X X X X X X   u       O 6   O . .     o   O @ @ X X X X X X X X X X X X X X X X X X X X X X      .  J.JX7X. 6.-.V H q.; :.P P P P P P P P P P P P P P P P P P P P P P P P P %.K < e.T < ;.3.o 6XJX' O f @ > > > > > > > > > > > > > > > > > > > > > > > > > < > = < = = < = > < = = < = = < > > > > > > > > > > > > > > > > > > > > > > > > X X o.O z.HX7X  t.;.< :.H 1 &.P P P P P P P P P P P P P P P P P P P P P P P P P P P V P :.< ;.6.  6XJXN.   .O   @ @ X X X X X X X X X X X X X X X X X X X X X @ >         O 6   . O + .   o   O X X X X X X X X X X X X X X X X X X X X X X X X     {   J.KX2X> 3.;.< T q.< K P P P P P P P P P P P P P P P P P P P P P P P P P P &.< T P t ;.3.# 6XJX'   q                                                     #     o o   #   ",
"@ @     7 O                                                     X o   0.JXiX= ,.p ,.B P V :.V P P P P P P P P P P P P P P P P P P P P P P P P P A ,.P V A r y.i 3.o 2XLXI.  - 7 X X X X X X X X X X X X X X X X X X X X X X X X =   =   G @   > > = = = < X > < X X X X X X X X X X X X X X X X @ X X X X X X X < : . z.LX6X: w.w ,.P P A w.P A P P P P P P P P P P P P P P P P P P P P P P P P %.P :.1 F V ,.{ &., 6XLXP.  : > > > > > > > > > > > > > > > > > > > > > > > > > > @ w p > X r w w r X > p w @ > > > > > > > > > > > > > > > > > > > > > > > > > 1 :   x.LX6X1 :.r ;.P K A :.%.A P P P P P P P P P P P P P P P P P P P P P P P P V K w.K K P ,.w ,.- 6XLXz.. 3 e @ X X X X @ @ X X X X X X X X X X X X X X X X @ X = <   1 p   > = > > = ; @ > v X X X X X X X X X X X X X X X X X X X X X X X X e -   x.LX4X- w.p ;.P V V &.P P P P P P P P P P P P P P P P P P P P P P P P P P %.M ,.o.H V 4.t ;.: 7XLX0.  3                                                       O 7     7 7 ",
". . .     . . .                                                 X   ^ ZXuX  ,.o.R V ;.o.&.K P %.P P P P P P P P P P P P P P P P P P P P P P P P #.#.P P -.w.< T V y.X eXHXK.  ; X X X X X X X X X X X X X X X X X X X X X X X X O @ @     ,   X     X 8 6 O ,   X X X X X X X X X X X X X X X X @ X X X X X X X >   N.HXrX# -.O.R A ;.#.P K A ;.P P P P P P P P P P P P P P P P P P P P P P P P o.%.K P #.w.r T D 6.O 5XSXH.  < > > > > > > > > > > > > > > > > > > > > > > > > - > > X > ; > > > X ; > X > > = > > > > > > > > > > > > > > > > > > > > > > > > ;   H.AX6Xw 6.A R V ;.#.%.A A -.P P P P P P P P P P P P P P P P P P P P P P P P ;.V V &.{ ;.F R O.-.# rXHXN.  @ X X X X @ @ @ @ X X X X X X X X X X X X X X X X @ O X # o   o   # O o o   [ 9 X X X X X X X X X X X X X X X X X X X X X X X X X >   N.KX4X  y.A R B ;.;.p P %.#.P P P P P P P P P P P P P P P P P P P P P P P P P #.F I *.,.c T O.%.# tXZX'   @                                                 . . +     . . . ",
"                                                6 -   6 @   e   & _ ZXqX= 4.K H P P P P P P P P P P P P P P P P P P P P P P P P P P P P P P P P P P P P P P P P H { 6.; :XKXK.& < @     O   3 6 X X X X X X X X X X X X X X X X X X X X X X X X X X X X X X X X X X X X X X X X X X X X X X X X 6 = = y #   t > & g.JX6X; 3.o.H P P P P P P P P P P P P P P P P P P P P P P P P P P P P P P P P P P P P P P P P R p t.: :XJXH.. B 7 @ ; > = 1 6 > > > > > > > > > > > > > > > > > > > > > > > > > > > > > > > > > > > > > > > > > > > > > > > > 7 = = > =   { = & d.JX6X1 3.p E P P P P P P P P P P P P P P P P P P P P P P P P P P P P P P P P P P P P P P P P R A 3.= 6XJXd.& < @   X 7 X - 6 X X X X X X X X X X X X X X X X X X X X X X X X X X X X X X X X X X X X X X X X X X X X X X X X O : X 6 8   , = $ H.LX;X< 6.V R P P P P P P P P P P P P P P P P P P P P P P P P P P P P P P P P P P P P P P P P R #.*.= qXJX' &   8   O 0   - 6                                                 ",
"                                                4 O     O +     _ DXiX3 M ,.4.c P P P P P P P P P P P P P P P P P P P P P P P P P P P P P P P P P P P P P P P P H :.*.#.: oXLXB.  - @ u -   O ; X X X X X X X X X X X X X X X X X X X X X X X X X X X X X X X X X X X X X X X X X X X X X X X X : O X ; 7 @ 3   N.PXeX3 V ;.#.K P P P P P P P P P P P P P P P P P P P P P P P P P P P P P P P P P P P P P P P P H K -.K : eXIXN.  : w i ; , 7 = > > > > > > > > > > > > > > > > > > > > > > > > > > > > > > > > > > > > > > > > > > > > > > > > ; 7 > ; w w 4   N.PXeX: F ,.K P P P P P P P P P P P P P P P P P P P P P P P P P P P P P P P P P P P P P P P P P F P ;.F : yXIXz.  - @ 9 = X 7 - X X X X X X X X X X X X X X X X X X X X X X X X X X X X X X X X X X X X X X X X X X X X X X X X = O   : , @ -   H.PX>X4 M #.*.H P P P P P P P P P P P P P P P P P P P P P P P P P P P P P P P P P P P P P P P P 1 %.,.F 3 tXIXg.  2 O 6     O -                                                 ",
"                                                  @ @     q . ' ZXiX, $.%.A V 3.P P P P P P P P P P P P P P P P P P P P P P P P P P P P P P P P P P P P P P P P I < P 3.4.f 4XJXK.  w     a   = X X X X X X X X X X X X X X X X X X X X X X X X X X X X X X X X X X X X X X X X X X X X X X X X X X a   X {   B.JXtX: f ;.A P -.P P P P P P P P P P P P P P P P P P P P P P P P P P P P P P P P P P P P P P P P -.K A %.;.- yXJXH.  w >   a = = > > > > > > > > > > > > > > > > > > > > > > > > > > > > > > > > > > > > > > > > > > > > > > > > X > s   > o.  N.JXiX, p ,.A P ;.P P P P P P P P P P P P P P P P P P P P P P P P P P P P P P P P P P P P P P P P %.A K %.$., iXGXN.. 8 ,   t <   X X X X X X X X X X X X X X X X X X X X X X X X X X X X X X X X X X X X X X X X X X X X X X X X >   ,     u   K.KXeX, $.%.P t ;.P P P P P P P P P P P P P P P P P P P P P P P P P P P P P P P P P P P P P P P P ;.V K &.=., iXJXN.. u     u                                                     ",
"                                                O     #   + r.ZXqX- L #.6.V M *.P P P P P P P P P P P P P P P P P P P P P P P P P P P P P P P P P P P P P P P P *.P H 1 ;.=.- 6XHXx.  = ,   - X X X X X X X X X X X X X X X X X X X X X X X X X X X X X X X X X X X X X X X X X X X X X X X X X w ;   , ,   r.HX6X: #.3.P T P #.P P P P P P P P P P P P P P P P P P P P P P P P P P P P P P P P P P P P P P P P p :.H %.4.;.= 6XHXJ.  t u   ; y > > > > > > > > > > > > > > > > > > > > > > > > > > > > > > > > > > > > > > > > > > > > > > > > y ;   u w   z.LX6X: #.3.%.I P #.P P P P P P P P P P P P P P P P P P P P P P P P P P P P P P P P P P P P P P P P #.I H &.*.=.- 6XHXx.  , >   < 7 X X X X X X X X X X X X X X X X X X X X X X X X X X X X X X X X X X X X X X X X X X X X X X X X X -   8 @ 6 x.AX8X- f y.#.T T { P P P P P P P P P P P P P P P P P P P P P P P P P P P P P P P P P P P P P P P P ;.P c ,.*.$.- qXZXx.O X #     O                                                 ",
"                                                8 O @ o   ' HXtX= M ;.#.v q.#.F P P P P P P P P P P P P P P P P P P P P P P P P P P P P P P P P P P P P P P P P #.&.T v < y.K w 4XLXK.. = X w   X X   X X X X X X X X X X X X X X X X X X X X X X X X X X X X X X X X X X X X X X X X X X X X X # 7 > ; . d.LXtX: 1 w.P A F P #.P P P P P P P P P P P P P P P P P P P P P P P P P P P P P P P P P P P P P P P P P F I < %.w.K = yXJXN.O w ; > 7 > > > > > > > > > > > > > > > > > > > > > > > > > > > > > > > > > > > > > > > > = > > > > > > > 9 > ; w O g.KXyX: t w.#.A F P #.P P P P P P P P P P P P P P P P P P P P P P P P P P P P P P P P P P P P P P P P &.K H < &.;.V : tXHXN.  , , 7 @ X X X X X X X X X X X X X X X X X X X X X X X X X X X X X X X X X X X X X X X X X X X X X X X X   8 > X O H.LX4X= M y.p M H ;.V P P P P P P P P P P P P P P P P P P P P P P P P P P P P P P P P P P P P P P P P P K T V P w.P = tXLX'   ,   O 7                                                 ",
"                                                  O 0   ' CXiX# 3.,.B T T < &.P P P P P P P P P P P P P P P P P P P P P P P P P P P P P P P P P P P P P P P P P H 1 &.&.&.A -.6.X 8XKXH.  y @   X X   X X X X X X X X X X X X X X X X X X X X X X X X X X X X X X X X X X X X X X X X X X X X @     {   f.HX7XX 6.;.< T H V &.P P P P P P P P P P P P P P P P P P P P P P P P P P P P P P P P P P P P P P P P P &.P ; :.H < ;.[., 2XKX' O o.> o > > > > > > > > > > > > > > > > > > > > > > > > > > > > > > > > > > > > > > > > = > > > > > > > X @ o.O H.HX7X  [.;.< q.H V &.P P P P P P P P P P P P P P P P P P P P P P P P P P P P P P P P P P P P P P P P P P &.< T T t -.6.o 6XKX' O  .    X X X X X X X X X X X X X X X X X X X X X X X X X X X X X X X X X X X X X X X X X X X X X X X X O @ y   N.AX6X@ [.%.A F J F A &.P P P P P P P P P P P P P P P P P P P P P P P P P P P P P P P P P P P P P P P P K &.1 :.H 1 ;.6., 7XJX'   0                                                     ",
"                                                X o . 0.HXiX- y.r 3.V J A &.c #.P P P P P P P P P P P P P P P P P P P P P P P P P P P P P P P P P P P P P P P P F :.A p #.p y.< ;.- 2XLXP.  : @ X X X X X X X X X X X X X X X X X X X X X X X X X X X X X X X X X X X X X X X X X X X X X X X X e :   r.LX6X, w.w ,.P K F q.P K P P P P P P P P P P P P P P P P P P P P P P P P P P P P P P P P P P P P P P P P P A q.V I V ;.i &.; 6XLXP.  : , > > > > > > > > > > > > > > > > > > > > > > > > > > > > > > > > > > > > > > > > = > > > > > > > 1 1   z.LX6X, ,.i ;.P K V w.%.A P P P P P P P P P P P P P P P P P P P P P P P P P P P P P P P P P P P P P P P P A K w.V P P ,.w ,.1 6XHXx.  - w X X X X X X X X X X X X X X X X X X X X X X X X X X X X X X X X X X X X X X X X X X X X X X X X w -   P.LX8X- 2.r t.V M %.P T p P P P P P P P P P P P P P P P P P P P P P P P P P P P P P P P P P P P P P P P P P A :.V P B ;.p &.- 7XLXr.. 5 X                                                 ",
"                                                X   ^ HXtX# ;.o.T v ;.{ I P %.P P P P P P P P P P P P P P P P P P P P P P P P P P P P P P P P P P P P P P P P P { -.P I I &.r :.p y.X 4XHXK.  > X X X X X X X X X X X X X X X X X X X X X X X X X X X X X X X X X X X X X X X X X X X X X X X X >   h.HXtX, %.o.R F ;.#.;.F V ;.P P P P P P P P P P P P P P P P P P P P P P P P P P P P P P P P P P P P P P P P o.&.K K #.w.< R V [.  4XAXz.  ; > > > > > > > = > > > > > > > > > > > > > > > > > > > > > > > > > > > > > > > > = > > > > > > > = O f.AX7Xe 2.P T t ;.#.%.V A -.P P P P P P P P P P P P P P P P P P P P P P P P P P P P P P P P P P P P P P P P ;.V V -.{ ;.A R X.y.  rXHXN.  X X X X X X X X X X X X X X X X X X X X X X X X X X X X X X X X X X X X X X X X X X X X X X X X X =   K.LX4X@ w.K :.; ;.;.V P #.#.P P P P P P P P P P P P P P P P P P P P P P P P P P P P P P P P P P P P P P P P #.P K &.#.,.V R O.&.o uXZXd.  X                                                 ",
"                                6 o   +     @ O & ~ GXqX= 3.#.R P P P P P P P P P P P P P P P P P P P P P P P P P P P P P P P P P P P P P P P P P P P P P P P P P P P P P P P P M #.4.; :XJXL.$ B   o     ;   6 X X X X X X X X X X X X X X X X X X X X X X X X X X X X X X X X 6 X   X X   p ; & g.JX6X; 4.#.H P P P P P P P P P P P P P P P P P P P P P P P P P P P P P P P P P P P P P P P P P P P P P P P P P P P P P P P P H V ,.< 6XJXN.+ < < X e > = v 6 > > > > > > > > > > > > > > > > > > > > > > > > > > > > > > > > 9 ; = > w   t r + N.JXyXt ,.t H P P P P P P P P P P P P P P P P P P P P P P P P P P P P P P P P P P P P P P P P P P P P P P P P P P P P P P P P H #.2.= 6XJXd.& < w X X @   = O X X X X X X X X X X X X X X X X X X X X X X X X X X X X X X X X O 1     o   9 = & N.LX:X: 3.p T P P P P P P P P P P P P P P P P P P P P P P P P P P P P P P P P P P P P P P P P P P P P P P P P P P P P P P P P R P *.= qXJX' & X @   O 6     6                                 ",
"                                3 O     O O     ^ IXiXb K ;.&.t P P P P P P P P P P P P P P P P P P P P P P P P P P P P P P P P P P P P P P P P P P P P P P P P P P P P P P P P H %.;.F - >XPXK.  4 @ u -   O X X X X X X X X X X X X X X X X X X X X X X X X X X X X X X X X X = O @ : w @ -   H.PXeX: t ;.P K P P P P P P P P P P P P P P P P P P P P P P P P P P P P P P P P P P P P P P P P P P P P P P P P P P P P P P P P :.V &.t : 4XPXK.  : @ y < > @ ; > > > > > > > > > > > > > > > > > > > > > > > > > > > > > > > > = @ > ; i w :   H.PX6X= F &.P &.P P P P P P P P P P P P P P P P P P P P P P P P P P P P P P P P P P P P P P P P P P P P P P P P P P P P P P P P K P ,.V : eXPXf.  - @ 7 = @ 9 ; X X X X X X X X X X X X X X X X X X X X X X X X X X X X X X X X - O X : w @ -   N.PX>Xb K #.%.P P P P P P P P P P P P P P P P P P P P P P P P P P P P P P P P P P P P P P P P P P P P P P P P P P P P P P P P P 1 &.,.F 3 iXIX'   -   O     O 2                                 ",
"                                  # O   @ 6 . ^ ZXiX, $.%.K A ;.P P P P P P P P P P P P P P P P P P P P P P P P P P P P P P P P P P P P P P P P P P P P P P P P P P P P P P P P ;.< &.;.*.L >XKXK.. O >   . X = X X X X X X X X X X X X X X X X X X X X X X X X X X X X X X X X X > <     a . H.JXtX, p ;.V P -.P P P P P P P P P P P P P P P P P P P P P P P P P P P P P P P P P P P P P P P P P P P P P P P P P P P P P P P P &.A V y.#., yXZXB.  y = X f X = > > > > > > > > > > > > > > > > > > > > > > > > > > > > > > > > = < t   = o.  K.ZXiX, #.:.%.A &.P P P P P P P P P P P P P P P P P P P P P P P P P P P P P P P P P P P P P P P P P P P P P P P P P P P P P P P P -.P V ;.p , yXGXN.. 8 ,   t ,   X X X X X X X X X X X X X X X X X X X X X X X X X X X X X X X X =   #     u   K.KXeX, #.P P V ;.P P P P P P P P P P P P P P P P P P P P P P P P P P P P P P P P P P P P P P P P P P P P P P P P P P P P P P P P ;.V K &.$., iXGXd.. 0     e                                     ",
"                                O     # o   z.ZXqX; | *.,.F P -.P P P P P P P P P P P P P P P P P P P P P P P P P P P P P P P P P P P P P P P P P P P P P P P P P P P P P P P P K :.H A t.*.: 6XHXP.  = >   - O X X X X X X X X X X X X X X X X X X X X X X X X X X X X X X X X 9 =   w e   z.KX6X- #.3.#.I P #.P P P P P P P P P P P P P P P P P P P P P P P P P P P P P P P P P P P P P P P P P P P P P P P P P P P P P P P P K %.&.F ;.*.: 8XHXP.  = >   ; w > > > > > > > > > > > > > > > > > > > > > > > > > > > > > > > > w ;   1 1 @ z.HX8X- *.#.I P ;.K P P P P P P P P P P P P P P P P P P P P P P P P P P P P P P P P P P P P P P P P P P P P P P P P P P P P P P P P #.P I P 4.#.: 6XHXz.  u 7   ; 9 X X X X X X X X X X X X X X X X X X X X X X X X X X X X X X X X 9 -   8 #   z.HX6X: { t.A T :.p P P P P P P P P P P P P P P P P P P P P P P P P P P P P P P P P P P P P P P P P P P P P P P P P P P P P P P P P ;.P c ,.*.=.: qXZXx.  o #     O                                 ",
"                                8 O @ #   ' GXtX; P ,.#.V :.K A P P P P P P P P P P P P P P P P P P P P P P P P P P P P P P P P P P P P P P P P P P P P P P P P P P P P P P P P V :.H A t ,.P ; 4XHXK.. X > 7   X X X X X X X X X X X X X X X X X X X X X X X X X X X X X X X X 7 @ - , O ' KXrX; 1 w.P A F P #.P P P P P P P P P P P P P P P P P P P P P P P P P P P P P P P P P P P P P P P P P P P P P P P P P P P P P P P P H ;.K v V y.p ; 5XLXH.  > < i @ > > > > > > > > > > > > > > > > > > > > > > > > > > > > > > > > @ w < <   d.LXrX: p ;.H ; %.#.P P P P P P P P P P P P P P P P P P P P P P P P P P P P P P P P P P P P P P P P P P P P P P P P P P P P P P P P P #.P F V K w.t 1 yXJXN.O 8 ; X 7 X X X X X X X X X X X X X X X X X X X X X X X X X X X X X X X X O @ = X + N.KXeX= V w.A P F T A P P P P P P P P P P P P P P P P P P P P P P P P P P P P P P P P P P P P P P P P P P P P P P P P P P P P P P P P P F T 1 %.w.P = tXJX'   #   O 8                                 ",
"                                  O q O ' JX7X# 3.;.t I T < &.P P P P P P P P P P P P P P P P P P P P P P P P P P P P P P P P P P P P P P P P P P P P P P P P P P P P P P P P P &.< :.H H P *.6.> 2XHXK.O 7 X o X X X X X X X X X X X X X X X X X X X X X X X X X X X X X X X X X X u O r.JX7X# t.;.< :.H V &.P P P P P P P P P P P P P P P P P P P P P P P P P P P P P P P P P P P P P P P P P P P P P P P P P P P P P P P P P P P r J e.> *.t.X 2XKXH.O i >   > > > > > > > > > > > > > > > > > > > > > > > > > > > > > > > > - X o.  d.HX7XX 6.*.t T T < &.V P P P P P P P P P P P P P P P P P P P P P P P P P P P P P P P P P P P P P P P P P P P P P P P P P P P P P P P P K P V H :.< ,.3.# 8XKX' O  .    X X X X X X X X X X X X X X X X X X X X X X X X X X X X X X X X   X w O J.AX8X> [.#.t H T V V :.P P P P P P P P P P P P P P P P P P P P P P P P P P P P P P P P P P P P P P P P P P P P P P P P P P P P P P P P K &.< T I t ;.6., 6XKX'   u                                     ",
"                                X o . 0.JXiX- w.p ;.A %.V :.V %.P P P P P P P P P P P P P P P P P P P P P P P P P P P P P P P P P P P P P P P P P P P P P P P P P P P P P P P P %.&.P c F A y.i %.- 8XLXP.  3   X X X X X X X X X X X X X X X X X X X X X X X X X X X X X X X X > - . x.LX6X, &.w ,.P A K w.P A P P P P P P P P P P P P P P P P P P P P P P P P P P P P P P P P P P P P P P P P P P P P P P P P P P P P P P P P %.H T V A A &.{ ,.- 8XLXx.  : t > > > > > > > > > > > > > > > > > > > > > > > > > > > > > > > > , :   P.LX6X: %.{ ,.V K < q.P #.P P P P P P P P P P P P P P P P P P P P P P P P P P P P P P P P P P P P P P P P P P P P P P P P P P P P P P P P B K w.K K %.,.w ,.1 6XHXz.. - < X X X X X X X X X X X X X X X X X X X X X X X X X X X X X X X X > - . P.LX6X; :.r ,.t P P P &.A P P P P P P P P P P P P P P P P P P P P P P P P P P P P P P P P P P P P P P P P P P P P P P P P P P P P P P P P P A :.A &.B ;.p ;.- 7XLXr.. 2 O                                 ",
"                                X   ^ ZXuX. w.o.T V ;.{ &.P P #.P P P P P P P P P P P P P P P P P P P P P P P P P P P P P P P P P P P P P P P P P P P P P P P P P P P P P P P P p ;.V &.-.#.B T o.,.X 4XHXK.  r X X X X X X X X X X X X X X X X X X X X X X X X X X X X X X X X =   d.AX7Xa 2.S R K ;.#.&.V t ;.P P P P P P P P P P P P P P P P P P P P P P P P P P P P P P P P P P P P P P P P P P P P P P P P P P P P P P P P *.H H -.*.:.c &.Z y.X 4XHXK.  = > > > > > > > > > > > > > > > > > > > > > > > > > > > > > > > > <   N.HXrX> ,.#.:.1 :.*.-.v V *.P P P P P P P P P P P P P P P P P P P P P P P P P P P P P P P P P P P P P P P P P P P P P P P P P P P P P P P P ,.V A %.{ ;.K T D y.O 7XHXH.  = X X X X X X X X X X X X X X X X X X X X X X X X X X X X X X X X ;   K.KX2X@ y.A R 1 ;.=.p %.P #.P P P P P P P P P P P P P P P P P P P P P P P P P P P P P P P P P P P P P P P P P P P P P P P P P P P P P P P P #.P K &.#.,.V R Z &.. uXHXg.  X                                 ",
"                6 o   +     @   $ _ JXqX= 2.A T P P P P P P P P P P P P P P P P P P P P P P P P P #.%.%.#.P P L P P K K P P P P P P P P P K K K P P P P P P P P P P P P P P P P P P P P P P P P M p 3.; :XKXK.$ r   o   O = - 6 X X X X X X X X X X X X X X X X 6 =   u X   t X & g.JX6X= 3.#.H P P P P P P P P P P P P P P P P P P P P P P P P P H K &.#.K I H C 3.L b b.>.p 9.H ;.K J F ;.o.H P P P P P P P P P P P P P P P P P P P P P P P P R p 3.: :XJXH.$ < < X w 9 X M O > > > > > > > > > > > > > > > > 7 ; = 6 y X > 1 & d.JX6X1 4.p H P P P P P P P P P P P P P P P P P P P P P P P P P P %.%.#.#.P P P P P P P P P %.K P P P P K K K P P P P P P P P P P P P P P P P P P P P P P P P R p 3.; 6XJXd.& = >   6 9   : O X X X X X X X X X X X X X X X X O 1     o   9 = $ K.JX:Xc 2.o.M P P P P P P P P P P P P P P P P P P P P P P P P H V -.-.K I P K A $.J b ,.>.P / K &.V F :.V %.%.P P P P P P P P P P P P P P P P P P P P P P P P R #.2.= qXJX' &   8   O +   : 6                 ",
"                3 O     O O     ' DXtX3 n ,.4.v P P P P P P P P P P P P P P P P P P P P P P P P &.P K A K P K K P P P P P P P P P K V K P &.P P P P P P P P P P P P P P P P P P P P P P P P P P P ;.*.K : oXPXK.  : @ u -   O - X X X X X X X X X X X X X X X X ; O X ; 9 # :   N.PXeX: t ;.#.K P P P P P P P P P P P P P P P P P P P P P P P P A P H K #.&.P I %.T  .e.ZX:Xp ;.p ,.t ,.%.t w.A P P P P P P P P P P P P P P P P P P P P P P P P H A ;.F : 4XIXN.  : > r v = O = > > > > > > > > > > > > > > > > = 7 = v r > 4   N.PXeX: F 3.A P P P P P P P P P P P P P P P P P P P P P P P P P K K K K P I &.%.K P P P P P P P P K A K P %.P K P P P P P P P P P P P P P P P P P P P P P P P P K A ;.K - yXPXf.  - # e ; = O X X X X X X X X X X X X X X X X X - O X : w @ -   K.PX4X: t *.#.:.P P P P P P P P P P P P P P P P P P P P P P P P H P %.P P %.P %.%.&.{ r.CX>Xu T A ,.r w.V P P P P P P P P P P P P P P P P P P P P P P P P P P P 1 %.,.F b tXFXg..   + O     O :                 ",
"                  #     X O . ^ ZXiX- $.&.K V ;.P P P P P P P P P P P P P P P P P P P P P P P P F P I &.K K P P K P P P P P P P &.P P P P P P A P P P P P P P P P P P P P P P P P P P P P P P P ;.r K ;.=.G 4XJXK.. 7 X   # X = X X X X X X X X X X X X X X X X   X p   @ |   N.JXtX: p &.V P -.P P P P P P P P P P P P P P P P P P P P P P P P #.K P A %.;.p A %.i I NXvXAX~.r y.V T i ;.H F -.P P P P P P P P P P P P P P P P P P P P P P P P &.P t ;.$., yXJXY.  u =   B X > > > > > > > > > > > > > > > > > = < < X X u   H.JXtX, p ,.A P ;.P P P P P P P P P P P P P P P P P P P P P P P P P I :.I K A A P P P P P P P P P %.P P P P P P A P P P P P P P P P P P P P P P P P P P P P P P P -.V K %.| - iXGXJ.  u X   t @   X X X X X X X X X X X X X X X X =   #     u   K.GXyX, ;.;.P A #.P P P P P P P P P P P P P P P P P P P P P P P P P &.K A &.%.A o.P } q.NXnXZX~.< w.A w.r P :.t &.P P P P P P P P P P P P P P P P P P P P P P P P ;.V K &.=., iXJXg.. 0     # o                   ",
"                O     @ o   z.ZXqX- $.#.3.V M 2.P P P P P P P P P P P P P P P P P P P P P P P P K P K A A P &.,.K P P P P K P P P %.P K A P %.,.P P P P P P P P P P P P P P P P P P P P P P P P #.H H t 3.;.; 6XHXx.  = @   X @ X X X X X X X X X X X X X X X X w =   @ ,   z.HX6X- #.3.P T P #.P P P P P P P P P P P P P P P P P P P P P P P P -.K H H P o.#.#.P K pXnXx .XJXm.t P K %.#.:.V &.P P P P P P P P P P P P P P P P P P P P P P P P p I T K t.*.; 6XSXx.O e w   ; > > > > > > > > > > > > > > > > > < =   i w 8 r.AX6X; | 3.#.T P #.P P P P P P P P P P P P P P P P P P P P P P P P F K K K A P %.,.P P P P P P P P P %.P K K P &.,.P P P P P P P P P P P P P P P P P P P P P P P P o.P H ;.*.=.; 6XAXr.O e w   = @ X X X X X X X X X X X X X X X X 9 -   8 #   z.HX6X- =.3.t q.P A P P P P P P P P P P P P P P P P P P P P P P P P #.&.A K P A #.;.#.I dXnX& &XCXm., :.%.%.%.P P K P P P P P P P P P P P P P P P P P P P P P P P P ;.P c ,.*.$.- qXZXr.O   X     O                 ",
"                8 O X #   ' GXtXX n ,.*.v T #.P P P P P P P P P P P P P P P P P P P P P P P P P ;.%.P &.&.&.A r P P P P K P P P B A P P P P A A P P P P P P P P P P P P P P P P P P P P P P P P K I T V t y.F ; 4XHXK.. X X 7   X X X X X X X X X X X X X X X X @ 7 X >   ' LXrX; 1 w.P A F P P P P P P P P P P P P P P P P P P P P P P P P P P #.%.H P B A w.%.= 8XJXW     eXZX` , ,.P &.o.%.H P P P P P P P P P P P P P P P P P P P P P P P P P P H A A y.t = 5XJXJ.O w < i = > > > > > > > > > > > > > > > > = > t , O J.GX7X1 1 w.P A H P P P P P P P P P P P P P P P P P P P P P P P P P P #.P P P :.&.#.p P P K K K P P P A K P P P K A p P P P P P P P P P P P P P P P P P P P P P P P P #.K I < &.;.t ; 5XJX' O e > 7   X X X X X X X X X X X X X X X X O @ = X O N.KXeX< t y.r A I P P P P P P P P P P P P P P P P P P P P P P P P P P #.%.H H A #.,.&.# qXZXz     cXMX( 1 &.;.%.A &.F P P P P P P P P P P P P P P P P P P P P P P P P P K T c #.w.P = uXLX'   o   O #                 ",
"                    q O ' ZX7X# 3.;.r P T 1 &.P P P P P P P P P P P P P P P P P P P P P P P P P o.#.P I I I ;.;.P P P P P P P P :.&.P P I &.%.#.P P P P P P P P P P P P P P P P P P P P P P P P &.1 H H T V *.3.  6XAXH.  7 w   X X X X X X X X X X X X X X X X   X |   ' KX6Xo 6.,.< T H V &.P P P P P P P P P P P P P P P P P P P P P P P P P #.%.A K %.%.K =  XJXd.O V X # fXNX( F 1 :.*.#.J P P P P P P P P P P P P P P P P P P P P P P P P :.K < I T = ,.t.8 6XJXN.  u w @ > > > > > > > > > > > > > > > > @ u u   N.ZX6X# [.;.> :.H c &.P P P P P P P P P P P P P P P P P P P P P P P P P #.#.%.I P P &.&.%.P P P P P P P ;.I K P I &.&.&.P P P P P P P P P P P P P P P P P P P P P P P P P :.< I T r -.t.8 6XJX^   a O O X X X X X X X X X X X X X X X X   X w O J.AX8X> 3.;.< T q.c K P P P P P P P P P P P P P P P P P P P P P P P P P #.P H C %.;.t ; XXZXz.O = < + fXNXN J , ,.%.V P P P P P P P P P P P P P P P P P P P P P P P P P K I 1 :.H t ;.6.o qXZX' O 6 +                   ",
"                X o . 0.JXiX- w.B 3.B H A :.v #.P P P P P P P P P P P P P P P P P P P P P P P P ,.&.F : - - - : P K K P P P P K K V 1 < 1 t P &.P P P P P P P P P P P P P P P P P P P P P P P P #.,.V V K t y.w ,.- 2XLX{.  : X X X X X X X X X X X X X X X X X , 2   z.LX6X- w.w ,.P V F w.P A P P P P P P P P P P P P P P P P P P P P P P P P I P K A ,.I : Y.HXXX  > > X , 2 NXcX3 I K %.%.P P P P P P P P P P P P P P P P P P P P P P P P P A P :.F P K ;.p 3.; 8XLXJ.  - y > > > > > > > > > > > > > > > > w 4   J.LX8X1 *.i ;.P F V :.%.A P P P P P P P P P P P P P P P P P P P P P P P P %.P V : ; - : 4 P P P P %.%.P P V t 1 < 1 V &.;.P P P P P P P P P P P P P P P P P P P P P P P P V P w.t %.P ;.y 2., 6XKXJ.. - 7 X X X X X X X X X X X X X X X X > - . P.LX6X= :.p ,.A V A &.&.#.P P P P P P P P P P P P P P P P P P P P P P P P &.K H A ,.$.4 Y.KX}.    =     5 MXiXb F %.%.P P P P P P P P P P P P P P P P P P P P P P P P P P P V :.A P t ;.p ;.- qXJX0.. - @                 ",
"                X . ^ ZXuX. w.Z H v 3.*.I K #.P P P P P P P P P P P P P P P P P P P P P P P P P < V e.|.yXyX+X{.K V V K %.P K t I m.|.|.{.e.F w P P P P P P P P P P P P P P P P P P P P P P P P { %.P &.;.;.r T #.,.> 4XHXR.  r X X X X X X X X X X X X X X X X X   N.GXtXo ;.o.R F ;.| &.K B -.P P P P P P P P P P P P P P P P P P P P P P P P K K ,.Z ;.t ( IX9X. t = O 8 ,   ^ GXeX, -.A H #.P P P P P P P P P P P P P P P P P P P P P P P P o.%.K K #.;.1 T D y.  *XHXK.  < > > > > > > > > > > > > > > > > 1   J.LXeX, ,.S T V -.#.%.V A *.P P P P P P P P P P P P P P P P P P P P P P P P < A m.|.yXyXoXU.V A K P P P A V &.m.|.|.{.e.A > P P P P P P P P P P P P P P P P P P P P P P P P &.K V &.#.3.V T S ,.  rXGXN.  - X X X X X X X X X X X X X X X X ; O K.KX2X@ y.A H A -.;.K K ;.{ P P P P P P P P P P P P P P P P P P P P P P P P P F T A ;.e r.PX&X. # = O   ; O a.PXoX1 P P %.K P P P P P P P P P P P P P P P P P P P P P P P P #.K K &.#.,.V R O.&.o uXGX'   O                 ",
"6     O O   @ X $ _ JXqX= 2.K T P P P P P P P P P P P P P P P P P P P P P P P P +.M *.P N ,.$.e R.vXPXNXvXdXgXZXFX XF | q.r G rXFXBXmXnXBXAXfX#Xm | #.R P #.P &.P P P P P P P P P P P P P P P P P P P P P P P P H o.6.= :XLXK.$ e X     O X : 6 6 X X 8 #   t X . g.JX6X; 2.o.H P P P P P P P P P P P P P P P P P P P P P P P P K P P P P P P P L F -.:.A n bXsXX X X > > > @ >   Y.LX|.{ E H 3.F &.&.#.-.%.t :.P P P P P P P P P P P P P P P P P P P P P P P P H p 4.1 6XJXK.. < >   w w ; c 6 8 ; = y y   t ; + H.KX:Xc 3.{ H P P P P P P P P P P P P P P P P P P P P P P P P I t t.: R 2.F t Q.vXPXMXvXdXkXZXFXOXp M q.} ) 9XBXBXmXbXBXGXfX#X5 f [.Z T K { P P P P P P P P P P P P P P P P P P P P P P P P P H #.4.; 6XJXg.& = >   9 u   : O O 3   6 9   < = $ K.JX:X1 3.p H P P P P P P P P P P P P P P P P P P P P P P P P K P P P P P P P L F #.<.A J NXdX            X X   U.AXU.} %.<.K F I P #.#.%.r :.P P P P P P P P P P P P P P P P P P P P P P P P R #.2.= qXJX^ &   @   O 6   o 6 ",
"5 O     O @     g.FXyX3 M ,.2.v P P P P P P P P P P P P P P P P P P P P P P P P -.M #.;.;.#.N yXGX7X^ . . . O g ).JXiXt { n.bXDX^.~ . + g r.4XMXNXn.p #.c :.&.A P P P P P P P P P P P P P P P P P P P P P P P P :.%.o.I 3 XXPXL.  3 X u -   O ; - O X - O @ 3   N.PXeX: V ;.#.K P P P P P P P P P P P P P P P P P P P P P P P P P P P P P K P P L *.C #., dXDX- X X X > @ > > > , . XXLX` 4.V K &.P P K P &.P A P P P P P P P P P P P P P P P P P P P P P P P P T #.-.t : 4XPXK.  : @ y ; > @ ; = 7 = v r r :   C.PXeX3 #.3.A J P P P P P P P P P P P P P P P P P P P P P P P P K K #.T %.*.N cXZX7X^ o .   0  ..XKX6X#.{ ] CXNX}.) . o d J.5XBXDX` , %.A #.&.F P P P P P P P P P P P P P P P P P P P P P P P P K #.,.t : eXPXH.  - X @ X   6 - = O   : e @ -   H.PX>X: F o.;.P P P P P P P P P P P P P P P P P P P P P P P P P P P P P P P P P G -.C Z g sXMXo                 o   oXKX` 2.A %.&.&.P #.A &.K A P P P P P P P P P P P P P P P P P P P P P P P P < %.,.F 3 tXFX'   o   O     O 5 ",
"  #       0 . ^ ZXiX- $.&.K V ;.P P P P P P P P P P P P P P P P P P P P P P P P p M T #.9 G dXGXe.#   # # # #     ^ CX:X, vXkX  6 O # o     @ u pXGXJ.p ;.&.p F P P P P P P P P P P P P P P P P P P P P P P P P #.B P %.| L 4XGXK.. 6     e X     X t      .. N.JXtX4 p ;.V P -.P P P P P P P P P P P P P P P P P P P P P P P P P P P P K K P P #.Y S @ 7XHX/ X @ @ @ @ > @ @ @ u X   7XZX9.4.E K A K P H H I K P P P P P P P P P P P P P P P P P P P P P P P P #.K V ,.=.4 eXJXB.  i = X f X ; = r s   = o.  K.JXyX, 4.*.K P I P P P P P P P P P P P P P P P P P P P P P P P P K K :.V *.L dXMXq.    e # > , X   ^ SXOX4 mXpX,     e w X   # g pXIXb.F t.#.V H P P P P P P P P P P P P P P P P P P P P P P P P -.P V &.p , tXJXH.. a -   t @   X X ,     a . Y.JX4XL $.;.P B %.P P P P P P P P P P P P P P P P P P P P P P P P P P P P P P P P ;.C S e 7XBXz                   # o   pXCX/  .H #.A A &.A P &.K P P P P P P P P P P P P P P P P P P P P P P P P ;.V K &.=.- iXJXN.. u     u     ",
"6     #   O r.ZXqX- #.#.3.V H 3.P P P P P P P P P P P P P P P P P P P P P P P P w.I M -. .eXmXj O O 8 #     -   6 . ).kX(.PXj   e #     X X @ X . 7XmX] { *.:.M P P P P P P P P P P P P P P P P P P P P P P P P #.P H A t.=.X 6XKXx.O o > X X @ 7 =   > - . z.HX6X: #.3.P I P #.P P P P P P P P P P P P P P P P P P P P P P P P P P P P P P P P #.Y u OXAXx.6 ; @ @ @ @ @ X X X O 1 X   fXbXa Y %.P K Y H V &.&.P P P P P P P P P P P P P P P P P P P P P P P P #.P T V 3.;.= 6XHXP.X < >   ; r < ;   p t @ z.AX6X- #.w.c T &.{ P P P P P P P P P P P P P P P P P P P P P P P P I %.V P u eXMX~ @ @ t r     ; = [   &XbX^.LX* O t , X X = > 7 6 o dXNXb 4.#.H P P P P P P P P P P P P P P P P P P P P P P P P P #.P H P 3.$.- 6XAXz.O e 8   ; @ @ -   w @ + x.AX6X; =.3.A T &.A P P P P P P P P P P P P P P P P P P P P P P P P P P P P P P P P S T u OXKXc.O = X X             O >     nXfXg P -.#.A :.K V %.&.P P P P P P P P P P P P P P P P P P P P P P P P ;.K c ,.*.#.- qXZXz.    @     O ",
"a O # o   ' GXuX= M ,.*.v T #.K P P P P P P P P P P P P P P P P P P P P P P P P s #.C o.L NX`.+ -       X @ # X -   9.vXVXrX  2 X     8 8     X O . mX2X9 *.R #.P P P P P P P P P P P P P P P P P P P P P P P P P P I A t y.t < 5XJXY.  o > 7 X X 7 = =   ' LXrX; 1 w.P A F P #.P P P P P P P P P P P P P P P P P P P P P P P P P P P P P P P P Y u P.AX.XO ; @ > > X @ @ X X X X 9 = o z mXpX> &.,.P A P P %.#.P P P P P P P P P P P P P P P P P P P P P P P P %.F H c t y.t ; rXLXH.  = < i @ = > < r O d.KX7X, t y.c M H &.#.P P P P P P P P P P P P P P P P P P P P P P P P H #.S P ` GX^.. : = X = < < > @ ; 6 ) VXnX*X6 - =   X y t = X =   2 GXXXu ;.R | P P P P P P P P P P P P P P P P P P P P P P P P P P H A #.w.t < 5XJX' O e > # X   8 , # 6 J.LX5X; V y.p V H P P P P P P P P P P P P P P P P P P P P P P P P P P P P P P P P P P Y y P.KX(.O -   X X             o 6 = # * HX7X> %.:.P A P P %.#.P P P P P P P P P P P P P P P P P P P P P P P P P F T 1 P ,.P = tXJX'   ,   O 8 ",
"    u   ' ZX7X# 3.;.r H T < &.K P P P P P P P P P P P P P P P P P P P P P P P P I ;.<.p  XMX. [ O O O O O         X o NXKX:X  . O # X       # + e ..).MXF H v [.P P P P P P P P P P P P P P P P P P P P P P P P K V :.H H K 3.2.o 6XJXJ.  8 8       |   N.JX7Xo t.;.> T H V P P P P P P P P P P P P P P P P P P P P P P P P P P P P P P P P P P v 8.ZX7X  = = # > > X @ @ X X X X >   - 6 9.LX>X1 t &.P A ;.%.#.P P P P P P P P P P P P P P P P P P P P P P P P &.V c T q.< ;.3.X 2XHXH.X { >   , @ o.  g.AX7X@ y.;.> &.w.< H T P P P P P P P P P P P P P P P P P P P P P P P P H o.6.> _.mX% 4.X > X > w X   X = w b nXKXoX  - X , , X   X > =  .. &XNXF &.M *.P P P P P P P P P P P P P P P P P P P P P P P P P I 1 H :.< 3.6.+ 6XJX^   u O   @ @ u   N.JX6X# 6.*.B T T P < &.P P P P P P P P P P P P P P P P P P P P P P P P P P P P P P P P v r.GX5X  >   +                 -   8   + _ JXoX- 1 &.K P %.%.P P P P P P P P P P P P P P P P P P P P P P P P P K &.< T H t ;.6.o 6XJX'   u     ",
"8   . 0.JXiXX w.t 4.t H o.,.v #.P P P P P P P P P P P P P P P P P P P P P P P P J o.P X 4XfX. 8   o X     @ 9 9   >   5XMX^   0       @ # X   O   6 z.MXe.C v 4.P P P P P P P P P P P P P P P P P P P P P P P P &.&.t F P < w.p ;.- :XLXI.  3 X , :   r.LX6X: y.y ,.P V F :.K A P P P P P P P P P P P P P P P P P P P P P P P P P P P P P P K A 3 DXdX. @ X 7 - > > > > @ @ @ X @ = f   X 9 J.KX{.b H &.A %.P I P P P P P P P P P P P P P P P P P P P P P P P P %.%.I V F V ,.p ,.; 2XLXP.  : t u :   J.LX6X, *.t &.P P #.,.K A P P P P P P P P P P P P P P P P P P P P P P P P I #.o.e 7XsXO @ X , > X @ w u { @ >   tXmX] - 7 @ X X ; < @ 6 [ > O K.MX( A T =.P P P P P P P P P P P P P P P P P P P P P P P P K P w.K K P ,.w t.1 8XJXz.  - u 9 -   P.LX6X= 2.p y.< K F P ,.A P P P P P P P P P P P P P P P P P P P P P P P P P P P P P P K F m DXdX.     9                     ; O     6 U.LXU.: I &.%.%.P P P P P P P P P P P P P P P P P P P P P P P P P P P V :.A P t ;.p ;.- 7XLXr.. 2 X ",
"@   ^ HXuXo &.o.T c 3.*.I F #.P P P P P P P P P P P P P P P P P P P P P P P P P I #.:.e rXvX  = @     X   X X   = 6 . o , + #               X   =   ~ FXm.o.B J P P P P P P P P P P P P P P P P P P P P P P P P { ;.P P %.;.V T o.w.# 4XHXL.  , X   N.HXtX, &.Z R F ;.#.&.V B ,.P P P P P P P P P P P P P P P P P P P P P P P P P P P P P P A V dXNX5   > 7 = X > > > @ @ @ > > > @   @ r ;   &XPXn.4 &.A P F J P P P P P P P P P P P P P P P P P P P P P P P P { &.V P -.;.V R p y.X 4XHXK.  < ;   N.KXeX> ,.A :.V ;.I v H %.2.P P P P P P P P P P P P P P P P P P P P P P P P K &.%.e pXtX0 v > X > < = = X X > o 6   n .   w > > > @ @ > = = ; 8 ' GXe.Z H $.P P P P P P P P P P P P P P P P P P P P P P P P ;.t A -.o.;.A R D ,.o yXHXN.  X o   J.LXeX# y.S R V ,.%.P P &.{ P P P P P P P P P P P P P P P P P P P P P P P P P P P P I P K V sXbX-   @ 7   X             X X 9 #     y X . #XPX' n %.#.%.K H P P P P P P P P P P P P P P P P P P P P P P P P #.K K &.o.,.V R %.L # uXZXd.  , ",
"  0.AX7X> <.C P P P P P P P P P P P P P P P P P P P P P P P P P P P P P P P P P P :.B u 4XkX. @       @   =   X                 @     X   X @   # X ' BX^ @.S L P P P P P P P P P P P P P P P P P P P P P P P P P P P P P P P P L H C r 2XAXI..   z.AX7X> %.P L P P P P P P P P P P P P P P P P P P P P P P P P P P P P P P P P #.I H K #.F 3 6XPX] O w X w -   @ @ @ @ > @ @ @ 7 ; o 6 r = =   9XDXe.L n :. .T P P P P P P P P P P P P P P P P P P P P P P P P P P P P P P P P H J :.w 2XAXI.    x.AX8X> I I P P P P P P P P P P P P P P P P P P P P P P P P P P P P P P P P P F -.C y yXsX  r X = > @ w   X > @ @ > X > > > > w X > >   , > X <   I.mX] *.R #.P P P P P P P P P P P P P P P P P P P P P P P P P P P P P P P P K P I > 7XAXc.    I.AX2Xr P H P P P P P P P P P P P P P P P P P P P P P P P P P P P P P P P P P K :.c A ;.F 3 7XPXj   7 @   @                   X   # O   = X   pXMX/ $.v &.4.F P P P P P P P P P P P P P P P P P P P P P P P P P P P P P P P P L H P , pXZXr.  ",
"r.SXyXu J A ;.#.P P P P P P P P P P P P P P P P P P P P P P P P P P P P P P P P $.H C {  XMXj   o X   X   X   X                   @ X       X @   O W.BX/ Z S &.P P P P P P P P P P P P P P P P P P P P P P P P P P P P P P P P #.Z <.H | eXKX' ' SXyXa ;.A T *.P P P P P P P P P P P P P P P P P P P P P P P P P P P P P P P P A P c P ;.L n.LXL.o - @ w X 9 ; X @ @ X > @ > >   @ - X X r X  .% mXxXF A P %.H P P P P P P P P P P P P P P P P P P P P P P P P P P P P P P P P %.P P H ..eXSX' b.SXeX .H P #.#.P P P P P P P P P P P P P P P P P P P P P P P P P P P P P P P P L P R y OXbX2 X < > > X @ < < X @ @ X @ > > X X > > > > > X X t X O ).MXL o.H $.P P P P P P P P P P P P P P P P P P P P P P P P P P P P P P P P *.I K %.e yXZX' ' SXeXu T P #.#.P P P P P P P P P P P P P P P P P P P P P P P P P P P P P P P P #.P H P #.&.Y.LXB.. # w   O @                     w o   O O # O $ GXiX< w.A p J P P P P P P P P P P P P P P P P P P P P P P P P P P P P P P P P $.;.A J  .yXSXr.",
"ZXyXu c H 4.A &.P P P P P P P P P P P P P P P P P P P P P P P P P P P P P P P P =.C H %.` PXC.6 X O   X     X O                   X     @ X     > . aXpX[ %.F P P P P P P P P P P P P P P P P P P P P P P P P P P P P P P P P P A &.4.F T u >XJXZXtXu P M 3.{ R P P P P P P P P P P P P P P P P P P P P P P P P P P P P P P P P P :.H K #.F ( cXkX5     u   w > > @ X @ X X > X ; O X = < X a O  XLXJ.1 ,.&.P H P P P P P P P P P P P P P P P P P P P P P P P P P P P P P P P P F ,.} F T { >XAXSXeX} F &.*.A &.P P P P P P P P P P P P P P P P P P P P P P P P P P P P P P P P #.P H f r.GX^ 8 > X > > X < @ @ @ @ @ @ @ @ X @ X , X X < > X X , . dXtX| P P P P P P P P P P P P P P P P P P P P P P P P P P P P P P P P P P P J { 4.M L } 6XZXKX>X{ H I 1.,.s P P P P P P P P P P P P P P P P P P P P P P P P P P P P P P P P %.K H &.o.F e.cXkX%       O =                   #     ; O 6 # O .XMXY.1 P :.P H P P P P P P P P P P P P P P P P P P P P P P P P P P P P P P P P &.t 4.H c u yXSX",
"*Xf v U &.G 8.v P P P P P P P P P P P P P P P P P P P P P P P P P P P P P P P P *.H P P a xXqX. @ @   X -     O                 X       @ X   # @ j ZXY.y y.L S P P P P P P P P P P P P P P P P P P P P P P P P P P P P P P P P E P d ;.S H f *XrXu H Y #.L &.v P P P P P P P P P P P P P P P P P P P P P P P P P P P P P P P P P F I &.A ;.4 m MXdX  a   > = [ > X @ @ X @ @ X   t X = = u + H.LXOX> I R F %.P P P P P P P P P P P P P P P P P P P P P P P P P P P P P P P P P J O.H $.H D p -XrXe U :.f P ,.b P P P P P P P P P P P P P P P P P P P P P P P P P P P P P P P P #.R C &.# NX8X  > > = = = X X w @ @ @ @ @ @ @ @ X >   X > @ , @ # Q GXP.e &.#.H P P P P P P P P P P P P P P P P P P P P P P P P P P P P P P P P M <.K =.Y U u rX*Xp U K 9.K A J P P P P P P P P P P P P P P P P P P P P P P P P P P P P P P P P P A F P %.;., ` MXtX  O ,   = 6                 6   =     O . U.LXU.s F M :.p I P P P P P P P P P P P P P P P P P P P P P P P P P P P P P P P P v &.L %.C H g *X",
"*Xd v U &.G 8.v P P P P P P P P P P P P P P P P P P P P P P P P P P P P P P P P | T K A | Y.JXz   # O   X     @                 X   X X     # e   2XNXI B t.L C P P P P P P P P P P P P P P P P P P P P P P P P P P P P P P P P E P d ;.S H g *XrXg H Y #.L &.v P P P P P P P P P P P P P P P P P P P P P P P P P P P P P P P P &.t P &.A ,.P F r.mXyXO - - X y @ @ @ X X @ @ @ 8   < > = 8 Q SXyX  y.&.V A A ;.P P P P P P P P P P P P P P P P P P P P P P P P P P P P P P P P J o.P L H v p -XrXe U :.f P ,.b P P P P P P P P P P P P P P P P P P P P P P P P P P P P P P P P #.M A I e {.KX5   t = = < > > @ @ @ @ @ X @ @ > ,   X t @   , s . 8XNXL F #.#.H P P P P P P P P P P P P P P P P P P P P P P P P P P P P P P P P N <.P =.Y U e rX*Xp U K =.K A N P P P P P P P P P P P P P P P P P P P P P P P P P P P P P P P P P K P K A w.K G r.ZX>XO   3   w                 O X   w   . Q JX>X, w.F H A A &.P P P P P P P P P P P P P P P P P P P P P P P P P P P P P P P P v &.L %.C H g 4X",
"ZXiXu c H 4.A &.P P P P P P P P P P P P P P P P P P P P P P P P P P P P P P P P #.I F K #.4 xXxX    #   X X                     X   @     ,     _ ZX|.p R $.-.H P P P P P P P P P P P P P P P P P P P P P P P P P P P P P P P P A &.4.F T u >XJXZXtXu P M 4.{ H P P P P P P P P P P P P P P P P P P P P P P P P P P P P P P P P K P P V A P A &.f U.JXW.0   , X @ @ @ X @ @ @ @ , @   : @ o MXwXg q.v V 2.;.V -.P P P P P P P P P P P P P P P P P P P P P P P P P P P P P P P P K ,.} F I { >XKXSXeXi F &.*.A I P P P P P P P P P P P P P P P P P P P P P P P P P P P P P P P P -.c &.P $.s jXcX  X ; X > X w X > @ @ @ @ @ > > =   < > @ <     z.SX{.p R #.*.H P P P P P P P P P P P P P P P P P P P P P P P P P P P P P P P P J { 4.J L } 6XZXKXoX{ H I 1.:.F P P P P P P P P P P P P P P P P P P P P P P P P P P P P P P P P &.K P K t P P &.| ~.KXY.0   X X                   @     # % BXiXe q.b P } ;.T A P P P P P P P P P P P P P P P P P P P P P P P P P P P P P P P P &.t 4.F c u iXSX",
"r.SXyXu J A ;.#.P P P P P P P P P P P P P P P P P P P P P P P P P P P P P P P P I %.P %.P F n.JXU..   @ @ > X                       X   # ,   - pXxXs #.R A 3.F P P P P P P P P P P P P P P P P P P P P P P P P P P P P P P P P #.A :.H | eXKX' ' SXyXa ;.A T *.P P P P P P P P P P P P P P P P P P P P P P P P P P P P P P P P V &.&.F P &.K A P 9 _.KXx.o o @ @ @ X X > > > > = @ P   . cXNXm #.%.M H 4.-.M A P P P P P P P P P P P P P P P P P P P P P P P P P P P P P P P P %.P P H ..eXSXb.b.SXeX .H P #.#.P P P P P P P P P P P P P P P P P P P P P P P P P P P P P P P P &.V &.P P #.n.LXP.  : > > X , X > > X X @ X > >   X y   > s   2 dXxXt A R P -.K P P P P P P P P P P P P P P P P P P P P P P P P P P P P P P P P *.I K %.e yXZX' ' SXeXu T P #.#.P P P P P P P P P P P P P P P P P P P P P P P P P P P P P P P P P t P &.I P P %.K 9 XXJXr.  o                     O p   . vXNXb o.P R H 4.,.v #.P P P P P P P P P P P P P P P P P P P P P P P P P P P P P P P P $.;.A J  .yXSXr.",
"  0.AX7X> <.C P P P P P P P P P P P P P P P P P P P P P P P P P P P P P P P P P J p :.#.Y P  .<XFXj   9 O X X                     X X   #     |.AXe.A ;.J v 2.L P P P P P P P P P P P P P P P P P P P P P P P P P P P P P P P P L H C r 2XAXI..   z.ZX7X> %.P L P P P P P P P P P P P P P P P P P P P P P P P P P P P P P P P P &.t #.;.V V &.#.O.I  .4XSX5 6 1 @ @ X > > > > > > = y O 7XGX`  .E *.-.M V P c -.P P P P P P P P P P P P P P P P P P P P P P P P P P P P P P P P H J &.w :XAXI.X   x.AX8X< I J P P P P P P P P P P P P P P P P P P P P P P P P P P P P P P P P P K F #.P H 3., 7XDX2 - @ w @ > = > > X @ @ X > > > X w X w     oXSX9.K :.A M #.-.P P P P P P P P P P P P P P P P P P P P P P P P P P P P P P P P K P I > 7XAXc.    I.AX2Xr P H P P P P P P P P P P P P P P P P P P P P P P P P P P P P P P P P P I F %.P F F P #.:.f g tXCX2 6                   o X O   uXFX` P R 2.o.J F K F ,.P P P P P P P P P P P P P P P P P P P P P P P P P P P P P P P P P H P , pXZXr.  ",
"@   ^ ZXuX# $.O.R V ;.o.&.P P %.P P P P P P P P P P P P P P P P P P P P P P P P K P P %.P P K K hXvX    . 2   9 X X   @ O     X @     0 8   ' AX|.P < &.P K &.K P P P P P P P P P P P P P P P P P P P P P P P P { ,.V &.-.%.A R o.,., 4XHXR.  < >   N.ZXrXo ;.O.R A -.{ &.V t ;.P P P P P P P P P P P P P P P P P P P P P P P P P P P P P P P P F <.*.; sXNX%   7 v X X ..@ , = 7 u   '.JXP.{ H P P P P P P P P P P P P P P P P P P P P P P P P P P P P P P P P p :.V P ,.#.K H A y.X 4XHXK.  < <   N.KX4X> ,.Z :.v F ;.-.< q.*.P P P P P P P P P P P P P P P P P P P P P P P P P P P P P P K K lXxX  ,   - @ 9 >   @ 7 7 @ X , @ X X # e   J.AX{.P < &.&.P &.P P P P P P P P P P P P P P P P P P P P P P P P P ;.t P %.#.-.K T Z ;.o 5XKXN.  X =   K.HXeX, ,.A M H %.3.&.t w.p P P P P P P P P P P P P P P P P P P P P P P P P P P P P P P P P <.o.*.3 jXNX. + 6 =   7 0 + # X @ @   `.JXP.9 T P P P P P P P P P P P P P P P P P P P P P P P P P P P P P P P P %.K K &.#.;.V R O.#.# tXAX^   @ ",
"@   . 0.JXiXo y.p ,.A &.V &.V P P P P P P P P P P P P P P P P P P P P P P P P P P P P P P P P K ` mXuX  o   a @           , X     |   X   z FX6XP V &.:.V K &.K P P P P P P P P P P P P P P P P P P P P P P P P ;.P V A P t ;.p ,.- 2XLXI.  : X @ : . x.LX6X- ,.w ,.P K K w.K V P P P P P P P P P P P P P P P P P P P P P P P P P P P P P P P P H A P 8.d MXdX  e X w {   X @ @ u   N.LX X; :.F P P P P P P P P P P P P P P P P P P P P P P P P P P P P P P P P P K :.V V K %.o.%.- 6XLXP.  : < r :   x.LX6X: ,.u &.H P V e.A A P P P P P P P P P P P P P P P P P P P P P P P P P P P P P P K K ' ZXrX  < u   i X 1 > X   X , X X |   >   ^ GXeXK V &.:.K K &.K P P P P P P P P P P P P P P P P P P P P P P P P V K w.P K %.,.w ,.1 6XJXz.. - e u ,   J.LX2X1 3.o.%.P V V ,.P %.P P P P P P P P P P P P P P P P P P P P P P P P P P P P P P P P V %.&.J ) DXpX. 4   w       o 6 ,   B.LX{.> q.L P P P P P P P P P P P P P P P P P P P P P P P P P P P P P P P P K V I K P P ;.A ;.- 7XLX0.. - # ",
"  O 6   ' ZX7X# 3.;.V T T < &.P P P P P P P P P P P P P P P P P P P P P P P P P P P P P P P P P Z r.AXeX        ,   X X       @     ,   5 MXxXA t K &.P V P &.A P P P P P P P P P P P P P P P P P P P P P P P P P t q.F H P -.3.X 6XAXH.  7 e     X u   ' KX7Xo 6.;.< :.H V P P P P P P P P P P P P P P P P P P P P P P P P P P P P P P P P P P H I F K #.] JX2X  8 , = <   , X @ Q ZX4Xu >.v 9.P P P P P P P P P P P P P P P P P P P P P P P P P P P P P P P P &.t V q.I B #.t.= 8XKXH.  i w X   > o.  H.HX8XX t.*.A M T V A I P P P P P P P P P P P P P P P P P P P P P P P P P P P P P P P K r P.AXXXX   8   X X X , 1 X X > X   w # 3 BXdXr t P &.K A %.&.K P P P P P P P P P P P P P P P P P P P P P P P P P &.< I T t ;.t.  7XJX'    .      8 7   N.HX6XO 6.-.t :.T F t &.P P P P P P P P P P P P P P P P P P P P P P P P P P P P P P P P V %.P p $.b.LXXX. 8 X   ;   # #   ! HX4Xu >.n g P P P P P P P P P P P P P P P P P P P P P P P P P P P P P P P P P P V H :.< ,.3.# 6XKX' .  .    ",
"8 O   o   ' GXtX= K ,.P V q.K P P P P P P P P P P P P P P P P P P P P P P P P P P P P P P P P P #.A Y.HX*X  - *     X           # X   % nXjXG p ,.&.K A P %.P P P P P P P P P P P P P P P P P P P P P P P P P P P :.H K A ;.F ; 4XLXK.. X X 9 O > 9 X o   ' LXuX: 1 w.P A F P %.P P P P P P P P P P P P P P P P P P P P P P P P P P P P P P P P &.1 8.&.C A P.HX(.O 4   7 y   # % bXsXf o.<.K L P P P P P P P P P P P P P P P P P P P P P P P P P P P P P P P P P I F A t y.V ; 4XLXH.  < < i @ > y < =   d.LXtX; #.3.P v P K I P P P P P P P P P P P P P P P P P P P P P P P P P P P P P P P P %.> (.HX}.  c o e X >     , X @ , > X j mXxXt V :.&.V t P &.K P P P P P P P P P P P P P P P P P P P P P P P P P %.I V F P y.t : rXLX'   - = 7 X   @ > X O K.HX5X= F y.p V H H %.P P P P P P P P P P P P P P P P P P P P P P P P P P P P P P P P q.< -.-.K f P.KXU.. #     9   o j mXdXa { <.&.F P P P P P P P P P P P P P P P P P P P P P P P P P P P P P P P P P P I F p y.V = tXJX'   o o O 8 ",
"6     #   O r.ZXqX: #.*.,.V K *.P P P P P P P P P P P P P P P P P P P P P P P P P P P P P P P P $.Y w J.LX4X    8 #     X   ,     O 5 mXvXI K J K P K P &.K V &.P P P P P P P P P P P P P P P P P P P P P P P P #.I c K t.| - 6XHXx.O = @   = @ 7 =   > , . z.HX6X: #.3.P H P #.P P P P P P P P P P P P P P P P P P P P P P P P P P P P P P P P #.F I F C -. ..XSXz.O @ > >   . dXNXM ,.K F -.K P P P P P P P P P P P P P P P P P P P P P P P P P P P P P P P P o.:.T p t.#.: 6XHXP.X < <   ; w r ;   1 = X z.HX8XX 4.-.I K ;.F P P P P P P P P P P P P P P P P P P P P P P P P P P P P P P P P P Y > W.LXXX  , @ @ < < , , @ @ X X Q mXxXt C ( K P K P :.P V &.P P P P P P P P P P P P P P P P P P P P P P P P #.P T P t.| - 6XHXr.. - ,   ; 8 > X   @ @ 7 z.AX6X; $.3.A T :.A P P P P P P P P P P P P P P P P P P P P P P P P P P P P P P P P $.I A V :.*.e >XSX_ +   y     . vXNX; 3.I 1 ;.P P P P P P P P P P P P P P P P P P P P P P P P P P P P P P P P P ;.V H %.2.f : qXZXx..   #     O ",
"    8   o 0 . ' ZXiX- $.%.A V ;.P P P P P P P P P P P P P P P P P P P P P P P P P P P P P P P P V *.:.i Y.AXuX    o X X O       O ~ nXxX&.*.K M V P P K P K P %.P P P P P P P P P P P P P P P P P P P P P P P P %.r :.%.| L >XJXB.. 7 X   # X =     t   = u . N.JXtX, f ;.A P -.P P P P P P P P P P P P P P P P P P P P P P P P P P P P P P P P *.&.b H o.,.I 8 6XCXz 0 ; @ O 5XGXe.r B L q.F >.P P P P P P P P P P P P P P P P P P P P P P P P P P P P P P P P %.V P -.=.4 4XJXK.  y =   f X ; = > s X = o.  N.JXeXs #.P &.A &.P P P P P P P P P P P P P P P P P P P P P P P P P P P P P P P P V #.y.@ U.AXrX    ,   @ X   e , @ ^ BXdXP p I V V &.%.P %.P A P P P P P P P P P P P P P P P P P P P P P P P P P -.K K &.=., tXZXN..  .    t >     X ,   = @   f.JX4Xs $.,.P V #.P P P P P P P P P P P P P P P P P P P P P P P P P P P P P P P P #.:.b H 1.;.F u iXMX2 + X X 8 5XBX0.r C &.8.n O.P P P P P P P P P P P P P P P P P P P P P P P P P P P P P P P P -.K V ,.f , tXJXN.. u     8 O   ",
"d O     O +     ~ DXtX3 F ,.;.A P P P P P P P P P P P P P P P P P P P P P P P P P P P P P P P P <.F *.H V J.mXcX2   #     8   o x.ZXpXp o.&.L :.&.%.K A K %.%.K P P P P P P P P P P P P P P P P P P P P P P P P :.A *.P : XXPXL.  : @ u -   O - : O   X O @ 3   f.IXeX3 V ,.#.K P P P P P P P P P P P P P P P P P P P P P P P P P P P P P P P P &.%.M K t.t H 2.1 sXbX% a    XHXJ.#.>.H ;.t :.A P P P P P P P P P P P P P P P P P P P P P P P P P P P P P P P P T B ;.t - eXIXK.  : > i v > @ ; ; 7 > ; w w :   N.FXyX; P ,.A K P P P P P P P P P P P P P P P P P P P P P P P P P P P P P P P P P &.#.Y < Y.MXcX- - , > w ,     J.GXuX, C :.-.P &.&.P V P P P P P P P P P P P P P P P P P P P P P P P P P P P P F P ,.V 3 eXIXd.  : # 7 X   O - , 6   - >   4   K.FX4X; t 6.Z :.P P P P P P P P P P P P P P P P P P P P P P P P P P P P P P P P %.P H I 3.t H *.L jXdX.     +XAXn.#.,.C P t :.S P P P P P P P P P P P P P P P P P P P P P P P P P P P P P P P P c %.y.V 3 yXFX'   o   O     O 4 ",
"6 -   6 O   #   & ~ ZX6X= 3.#.H P P P P P P P P P P P P P P P P P P P P P P P P P P P P P P P K #.P H L %.r r.lXNXQ   O a      XSXeX} P n H ,. .P K P &.%.P P K P P P P P P P P P P P P P P P P P P P P P P P P v #.4.; :XJXK.$ r   o     ; - 6 6 o   u X   e X & g.JX6X= 3.#.R P P P P P P P P P P P P P P P P P P P P P P P P P P P P P P P P F V 2.#.m L ;.E P d MXpX  n.JX.Xw I K #.P %.#.J P P P P P P P P P P P P P P P P P P P P P P P P P P P P P P P P M %.*.F :XGXK.$ < < X w > = M 6 6 v = 7 p   w r . V.CX6Xt *.K I P P P P P P P P P P P P P P P P P P P P P P P P P P P P P P P P ;.V H &.,.r n.zXxX3   > t X   +XAXoXr T I C <.*.K K K P P K K %.P P P P P P P P P P P P P P P P P P P P P P P P H #.*.; 2XJX' & X e   , 7   - 6 O : X 6 6 o X ; & K.ZX2Xc 2.#.H P P P P P P P P P P P P P P P P P P P P P P P P P P P P P P P P H P ;.p M P #.R V 8.MX7X. J.JXQ.i F P F H ,.p H P P P P P P P P P P P P P P P P P P P P P P P P P P P P P P P P H #.*.= 6XJX~ &   O   + O     6 ",
"                    ^ BXtXo &.O.R A #.$.;.F &.#.P P P P P P P P P P P P P P P P P P P P P P P P P P P P P P P P gXFXP.    . rXAX|.P < &.P K &.K P P P P P P P P P P P P P P P P P P P P P P P P { %.H #.4.K M P o.;., 4XAXK.  > X X X X X X X X X X X X X X X X >   g.AXtX, p ;.H H -.| &.V #.%.P P P P P P P P P P P P P P P P P P P P P P P P P P P P P P P P P 1 n.DX3XBXeX< P P P P P P P P P P P P P P P P P P P P P P P P P P P P P P P P { w.V n &.P P P o.;.t oXHXL.  B > > > > > > > > > > > > > > > > B   K.AX2X@ 6.K n P -.#.%.t ,.o.P P P P P P P P P P P P P P P P P P P P P P P P P P P P P P P P gXBXr.O 7 % 9XAX{.K < &.%.P &.K P P P P P P P P P P P P P P P P P P P P P P P P ;.P t &.o.-.P H P A e eXHXf.  ; X X X X X X X X X X X X X X X X <   K.AX4X, ,.o.H H -.*.F 1 y.A P P P P P P P P P P P P P P P P P P P P P P P P P P P P P P P P &.1 r.FX3XBX>X1 P P P P P P P P P P P P P P P P P P P P P P P P P P P P P P P P #.&.K &.#.*.K H -.#.  uXZX^   X                 ",
"                8   . r.GX7X- -.p %.P I t q.1 &.P P P P P P P P P P P P P P P P P P P P P P P P P P P P P P P P : 2XGX*X~ sXMXn.P V &.:.V K &.K P P P P P P P P P P P P P P P P P P P P P P P P *.H V o.T c *.A %.4 2XGXI.. -   X X X X X X X X X X X X X X X X X 4   r.GX6X( #.A 2.V M #.w.: ;.P P P P P P P P P P P P P P P P P P P P P P P P P P P P P P P P &.,.< Y.LXuX4 %.P P P P P P P P P P P P P P P P P P P P P P P P P P P P P P P P I V &.#.#.A P P %.: 2XLXx.  n @ > > > > > > > > > > > > > > > > > G   z.JX6Xs %.A %.V K P &.t :.P P P P P P P P P P P P P P P P P P P P P P P P P P P P P P P P , 6XKX.X~ kXCXq.P V &.:.A K &.K P P P P P P P P P P P P P P P P P P P P P P P P %.t w.P P %.#.p *.L 2XZXJ.  - @ X X X X X X X X X X X X X X X X @ :   P.GX2XG %.P *.A M #.&.v ;.P P P P P P P P P P P P P P P P P P P P P P P P P P P P P P P P &.,.: U.LXtX3 #.P P P P P P P P P P P P P P P P P P P P P P P P P P P P P P P P P r &.V P %.%.o.%.4 qXBX0.. o O                 ",
"                  O O   ' CX6Xo 2.;.P F H F &.K P P P P P P P P P P P P P P P P P P P P P P P P P P P P P P P P v c W.VXBXxXe.v t K &.P V P &.A P P P P P P P P P P P P P P P P P P P P P P P P F A :.H H &.{ [., :XZXH.O 7 X o X X X X X X X X X X X X X X X X   X w   H.BX4X= 3.-.K P T P &.1 P P P P P P P P P P P P P P P P P P P P P P P P P P P P P P P P #.A %.c U.` I O.P P P P P P P P P P P P P P P P P P P P P P P P P P P P P P P P F V P :.P P ;.;., 2XmXJ.X w > o > > > > > > > > > > > > > > > > , > @ O J.ZX2X, 2.;.V I T I V K P P P P P P P P P P P P P P P P P P P P P P P P P P P P P P P P 7., U.VXAXuX;.D t P &.P V P &.A P P P P P P P P P P P P P P P P P P P P P P P P K P P V H B 6.6.w 6XVXg.  w @ @ X X X X X X X X X X X X X X X X   @ @ O H.BX2Xt 3.;.V T I I t K P P P P P P P P P P P P P P P P P P P P P P P P P P P P P P P P #.A %.n ~.` P o.P P P P P P P P P P P P P P P P P P P P P P P P P P P P P P P P K P K V I A ,.4., 6XCX' O O O                   ",
"                O O   o   _ GXtX= K #.&.F I P #.P P P P P P P P P P P P P P P P P P P P P P P P P P P P P P P P ,.p 4 n.OX- , ,.,.&.K A P %.P P P P P P P P P P P P P P P P P P P P P P P P P P J *.A E r 3.P < 4XBXU.+   > 9 O X X X X X X X X X X X X X X X X X 7 < X . d.BXrXt n #.3.v n &.I P P P P P P P P P P P P P P P P P P P P P P P P P P P P P P P P K %.o.%.1 F K >.P P P P P P P P P P P P P P P P P P P P P P P P P P P P P P P P -.P v M c w.t < 4XGXH.O = < y X > > > > > > > > > > > > > > > > 7 > ; w O N.ZXeX< V ,.A A H P &.P P P P P P P P P P P P P P P P P P P P P P P P P P P P P P P P A *.F b.~.f { &.:.%.A V P %.P P P P P P P P P P P P P P P P P P P P P P P P P P #.I 1 K %.;.t : 4XZXz.O X r w   X X X X X X X X X X X X X X X X   u >   . K.BX4X1 c w.{ v F #.I P P P P P P P P P P P P P P P P P P P P P P P P P P P P P P P P F %.#.&.1 F K -.P P P P P P P P P P P P P P P P P P P P P P P P P P P P P P P P #.P V :.#.&.s - rXGX'     o 6 O                 ",
"                +     #   . z.mX6X: | *.,.c &.#.P P P P P P P P P P P P P P P P P P P P P P P P P P P P P P P P 4.F K 2.} :.q. .K P K P &.K V &.P P P P P P P P P P P P P P P P P P P P P P P P %.H A A q. .e ;XBXx.8   @ o   7 X X X X X X X X X X X X X X X X w X   @   @ z.BX8X- #.-.3.1 R *.P P P P P P P P P P P P P P P P P P P P P P P P P P P P P P P P q.F A ,.&.&.P P P P P P P P P P P P P P P P P P P P P P P P P P P P P P P P P P *.&.R c w.L - 6XBXx.u = <   < w > > > > > > > > > > > > > > > > y = = w w > r.ZX6X- $.t.A H T #.P P P P P P P P P P P P P P P P P P P P P P P P P P P P P P P P 8.K A 2.y ;.&.L K K K %.&.K V &.P P P P P P P P P P P P P P P P P P P P P P P P #.P V %.t.p - 6XVXr.7 @ u   X > X X X X X X X X X X X X X X X X w     X   8 x.VX8X- #.;.o.H R *.P P P P P P P P P P P P P P P P P P P P P P P P P P P P P P P P ( F A ,.&.;.&.A P P P P P P P P P P P P P P P P P P P P P P P P P P P P P P P P %.P F &.3.u 3 6XmXx.O   #     +                 ",
"                  o #     0 . ^ CXtXd f F I V -.P P P P P P P P P P P P P P P P P P P P P P P P P P P P P P P P V #.%.v J P p P V P P K P K P %.P P P P P P P P P P P P P P P P P P P P P P P P A B w.A $.8.oXZXK.  @     a   = X X X X X X X X X X X X X X X X X X #   > y   h.MXyXs $.#.:.V #.P P P P P P P P P P P P P P P P P P P P P P P P P P P P P P P P F &.&.t A K P I P P P P P P P P P P P P P P P P P P P P P P P P P P P P P P P P K A :.*.4.s 4XCXK.  w = = # > ; > > > > > > > > > > > > > > > > ; = ,   > w   B.CX4XL $.&.P P A P P P P P P P P P P P P P P P P P P P P P P P P P P P P P P P P b P ;.; T #.A E V P &.P P P K P P P P P P P P P P P P P P P P P P P P P P P P P #.P P %.u d yXCXI.  7 X   # , X X X X X X X X X X X X X X X X X =   #   X @   B.CX4XG L ;.&.K #.P P P P P P P P P P P P P P P P P P P P P P P P P P P P P P P P s &.&.r K L I P P P P P P P P P P P P P P P P P P P P P P P P P P P P P P P P P -.K P &.p / tXMX^ . 6 o                         ",
"                : O     6 8     g.NXeXb I -.p &.P P P P P P P P P P P P P P P P P P P P P P P P P P P P P P P P %.w.1 ( F I K S &.%.K A K %.%.K P P P P P P P P P P P P P P P P P P P P P P P P H *.%.F 4 XXMXI.  : w u     8   X X X X X X X X X X X X X X X X = w   X w @ 3   K.NXeX- n ;.} T P P P P P P P P P P P P P P P P P P P P P P P P P P P P P P P P P K K w.#.%.K K P P P P P P P P P P P P P P P P P P P P P P P P P P P P P P P P ` r 3.#.: >XDXB.  n w w < > w = > > > > > > > > > > > > > > > > = y > = w w G   K.DX>X3 V -.p :.P P P P P P P P P P P P P P P P P P P P P P P P P P P P P P P P P q.c I I I H A &.&.P K K %.P K P P P P P P P P P P P P P P P P P P P P P P P P T r ,.F : 4XDXz.  - @ w X > {   X X X X X X X X X X X X X X X X   u   X u @ :   K.MX>X- M -.} ` P P P P P P P P P P P P P P P P P P P P P P P P P P P P P P P P I K A ,.$.$.F K P P P P P P P P P P P P P P P P P P P P P P P P P P P P P P P P I t ,.K N yXNXg.    8 O     O -                 ",
"                6 o   8     e   & ~ MX6X= 2.-.M P P P P P P P P P P P P P P P P P P P P P P P P P P P P P P P P L t ;.o.o.p &.L P K P &.%.P P K P P P P P P P P P P P P P P P P P P P P P P P P P V ;.p _.ZXK.& <       @ X X 0 X X X X X X X X X X X X X X X X 0   ; w     t > $ g.ZX8X; 3.%.A P P P P P P P P P P P P P P P P P P P P P P P P P P P P P P P P O.<.F F #.-.A P P P P P P P P P P P P P P P P P P P P P P P P P P P P P P P P P V *.2.c ;XCXK.& B X o e X ; = [ > > > > > > > > > > > > > > > > 8 < = > , O @ C $ H.CX:X: 4.;.v P P P P P P P P P P P P P P P P P P P P P P P P P P P P P P P P 4.t P *.o.V I  .P V K P P P P P P P P P P P P P P P P P P P P P P P P P P P P P n ;.3.= 2XCXg.& = ,   8 9 X   q X X X X X X X X X X X X X X X X 0 =   @ @   X > $ I.CX;X1 4.P v P P P P P P P P P P P P P P P P P P P P P P P P P P P P P P P P O.%.V P #.;.A <.P P P P P P P P P P P P P P P P P P P P P P P P P P P P P P P P v ,.2.= 6XZXg.&   e     8   o 6                 ",
"                                X   ^ nXrX5 -.-.H F %.#.;.V &.P P P P P P P P P P P P P P P P P P P P P P P P P P P P P P P P P P P P P P P P P P P P P P P P P P P P P P P P P o.&.K &.K #.P H #.#., *XVXK.  r X X X X X X X X X X X X X X X X X X X X X X X X X X X X X X X X r   h.VXrX, o.;.M H o.*.w.V *.A P P P P P P P P P P P P P P P P P P P P P P P P P P P P P P P P P P P P P P P P P P P P P P P P P P P P P P P P o.3.c I #.#.H K A ,.= 4XBXB.  B > > > > > > > > > > > > > > > > > > > > > > > > > > > > > > > > B   B.VX4X, #.-.M :.#.o.;.t %.A P P P P P P P P P P P P P P P P P P P P P P P P P P P P P P P P P P P P P P P P P P P P P P P P P P P P P P P P #.P t ,.#.#.I M ;.o.> rXVXg.  < X X X X X X X X X X X X X X X X X X X X X X X X X X X X X X X X =   K.VX2Xw 2.P K T P *.-.1 T { P P P P P P P P P P P P P P P P P P P P P P P P P P P P P P P P P P P P P P P P P P P P P P P P P P P P P P P P A %.K ;.#.#.F R >.A , rXmXg.. #                                 ",
"                                  - . 0.MX7X4 f A %.K P t w.t &.P P P P P P P P P P P P P P P P P P P P P P P P P P P P P P P P P P P P P P P P P P P P P P P P P P P P P P P P P P V V :.V %.#.-.: :XBXP.. - X X X X X X X X X X X X X X X X X X X X X X X X X X X X X X X X X   3   r.BX6XG #.A 2.A c p &.c y.P P P P P P P P P P P P P P P P P P P P P P P P P P P P P P P P P P P P P P P P P P P P P P P P P P P P P P P P K v &.{ I P *.I #.n :XGXP.  : > > > > > > > > > > > > > > > > > > > > > > > > > > > > > > > > > = b   z.ZX2XG #.#.A A P K &.A &.P P P P P P P P P P P P P P P P P P P P P P P P P P P P P P P P P P P P P P P P P P P P P P P P P P P P P P P P &.V :.K V A %.A #.G 2XBXr.  4   X X X X X X X X X X X X X X X X X X X X X X X X X X X X X X X X   -   x.GX2Xs %.*.A A &.V T P -.P P P P P P P P P P P P P P P P P P P P P P P P P P P P P P P P P P P P P P P P P P P P P P P P P P P P P P P P %.t :.F K I %.o.p G 6XGXz.. 5                                   ",
"                                  # O O ' kX6X5 3.;.K V H K :.K P P P P P P P P P P P P P P P P P P P P P P P P P P P P P P P P P P P P P P P P P P P P P P P P P P P P P P P P P F q.F T P p 4., :XVXH.  @ @ o X X X X X X X X X X X X X X X X X X X X X X X X X X X X X X X X o X 7   g.VX2X, 2.;.P T V I %.V P P P P P P P P P P P P P P P P P P P P P P P P P P P P P P P P P P P P P P P P P P P P P P P P P P P P P P P P M I &.P ,.A #.*.1 :XmXN.X w w X > > > > > > > > > > > > > > > > > > > > > > > > > > > > > > > > o r @   H.mX:Xt 3.;.A T H I K K P P P P P P P P P P P P P P P P P P P P P P P P P P P P P P P P P P P P P P P P P P P P P P P P P P P P P P P P K &.&.c H K ,.3., 2XmX' O 7 @ o X X X X X X X X X X X X X X X X X X X X X X X X X X X X X X X X   > @ O H.VX`.e 3.*.A T M &.#.F P P P P P P P P P P P P P P P P P P P P P P P P P P P P P P P P P P P P P P P P P P P P P P P P P P P P P P P P P H P c P K y.4.5 2XmX' O 6 O                                   ",
"                                + O o     ' MXrX= K #.&.F H P P P P P P P P P P P P P P P P P P P P P P P P P P P P P P P P P P P P P P P P P P P P P P P P P P P P P P P P P P P K H P t w.&.; XXBXK.+   > u   X X X X X X X X X X X X X X X X X X X X X X X X X X X X X X X X @ 7 > = . d.MX4X1 : w.#.n H -.K P P P P P P P P P P P P P P P P P P P P P P P P P P P P P P P P P P P P P P P P P P P P P P P P P P P P P P P P &.o.M v r y.I w 4XMXH.  = B i X > > > > > > > > > > > > > > > > > > > > > > > > > > > > > > > > X p ; > # d.MX4X= I w.r F H K &.P P P P P P P P P P P P P P P P P P P P P P P P P P P P P P P P P P P P P P P P P P P P P P P P P P P P P P P P K K V F %.y.t ; 4XMXd.. = > 7 @ X X X X X X X X X X X X X X X X X X X X X X X X X X X X X X X X O w ; X O N.MXeX= #.y.< n P #.I P P P P P P P P P P P P P P P P P P P P P P P P P P P P P P P P P P P P P P P P P P P P P P P P P P P P P P P P K H V P P ;.F - 5XMX'   o   O 7                                 ",
"                                0     #   + 0.nX6X: #.*.,.1 &.#.P P P P P P P P P P P P P P P P P P P P P P P P P P P P P P P P P P P P P P P P P P P P P P P P P P P P P P P P #.H c A 3.*.: :XVXx.@   ,     7 X X X X X X X X X X X X X X X X X X X X X X X X X X X X X X X X w   o @   8 r.VX8X- f -.#.P J *.P P P P P P P P P P P P P P P P P P P P P P P P P P P P P P P P P P P P P P P P P P P P P P P P P P P P P P P P *.M H P &.#., >XmXz.e = , X = r > > > > > > > > > > > > > > > > > > > > > > > > > > > > > > > > w = X , = u P.nX:X: #.2.P H P #.P P P P P P P P P P P P P P P P P P P P P P P P P P P P P P P P P P P P P P P P P P P P P P P P P P P P P P P P %.P H #.3.| - 6XVXr.# X @   X 7 X X X X X X X X X X X X X X X X X X X X X X X X X X X X X X X X 9     9 X o z.VX:X-  .-.F %.#.P P P P P P P P P P P P P P P P P P P P P P P P P P P P P P P P P P P P P P P P P P P P P P P P P P P P P P P P P #.H F %.3.| 3 6XnXz.+   ,     6                                 ",
"                                  #     o O . ' bXyXd | K &.A ;.P P P P P P P P P P P P P P P P P P P P P P P P P P P P P P P P P P P P P P P P P P P P P P P P P P P P P P P P %.P ,.#.$.L OXMXB.  O X   #   = X X X X X X X X X X X X X X X X X X X X X X X X X X X X X X X X = X a   X 7   h.mXeXL f -.&.K #.P P P P P P P P P P P P P P P P P P P P P P P P P P P P P P P P P P P P P P P P P P P P P P P P P P P P P P P P K T :.*.*.s oXmXB.  7 > X , X ; > > > > > > > > > > > > > > > > > > > > > > > > > > > > > > > > ; X , X = 7   N.CXoXG =.#.&.&.p P P P P P P P P P P P P P P P P P P P P P P P P P P P P P P P P P P P P P P P P P P P P P P P P P P P P P P P P %.P :.%.u d eXMXh.  7 =   8 @ X X X X X X X X X X X X X X X X X X X X X X X X X X X X X X X X X =   #     O   K.mXoXd =.%.&.&.A P P P P P P P P P P P P P P P P P P P P P P P P P P P P P P P P P P P P P P P P P P P P P P P P P P P P P P P P -.A P &.p L yXmXN.. 6     #                                     ",
"                                  O     8 8     ^ vXeXb &.;.p :.P P P P P P P P P P P P P P P P P P P P P P P P P P P P P P P P P P P P P P P P P P P P P P P P P P P P P P P P H %.#.P 3 OXDXI.  - w u     8   X X X X X X X X X X X X X X X X X X X X X X X X X X X X X X X X   7 X = u @ -   z.NX4X4 M -.{ T P P P P P P P P P P P P P P P P P P P P P P P P P P P P P P P P P P P P P P P P P P P P P P P P P P P P P P P P R i #.1 s oXNXK.  : > i = > p X > > > > > > > > > > > > > > > > > > > > > > > > > > > > > > > > = w > < { @ :   K.NXoXb t %.A :.P P P P P P P P P P P P P P P P P P P P P P P P P P P P P P P P P P P P P P P P P P P P P P P P P P P P P P P P H r ,.&.b >XNXg.  : @ u = X 9   X X X X X X X X X X X X X X X X X X X X X X X X X X X X X X X X   9 X X 8 O 4   K.NXXX3 p &.V w.P P P P P P P P P P P P P P P P P P P P P P P P P P P P P P P P P P P P P P P P P P P P P P P P P P P P P P P P &.i ,.P N 4XvX_   o   8     8                                   ",
"                                6     8     # X & ~ mX6X= 4.;.c P P P P P P P P P P P P P P P P P P P P P P P P P P P P P P P P P P P P P P P P P P P P P P P P P P P P P P P P R p 3.1 XXMXH.& r       @ =   0 X X X X X X X X X X X X X X X X X X X X X X X X X X X X X X X X [   X w     e > & d.mX2X, 2.&.v P P P P P P P P P P P P P P P P P P P P P P P P P P P P P P P P P P P P P P P P P P P P P P P P P P P P P P P P &.A 2.n ;XmXI.& r >   , w = ; 0 > > > > > > > > > > > > > > > > > > > > > > > > > > > > > > > > [ = ; w X , > < & H.mX:X1 2.o.M P P P P P P P P P P P P P P P P P P P P P P P P P P P P P P P P P P P P P P P P P P P P P P P P P P P P P P P P M ;.*.= :XMXg.& > e     y X   [ X X X X X X X X X X X X X X X X X X X X X X X X X X X X X X X X 0     @   O 7 = & B.mX:XF ;.V H P P P P P P P P P P P P P P P P P P P P P P P P P P P P P P P P P P P P P P P P P P P P P P P P P P P P P P P P c *.2.= 6XMX~ & X @     8     6                                 ",
"                                                X   ^ kXrX# f >.H H -.#.%.K &.#.P P P P P P P P P P P P P P P P P P P P P P P P P P P P P P P P P P P P P P P P #.&.F &.#.&.P H #.;., XXVXK.  r X X X X X X X X X X X X X X X X X X X X X X X X X X X X X X X X X X X X X X X X X X X X X X X X <   g.nXeX, A &.M :.#.#.w.V P #.P P P P P P P P P P P P P P P P P P P P P P P P P P P P P P P P P P P P P P P P #.&.V &.#.;.K n %.%.= XXVXB.  B > > > > > > > > > > > > > > > > > > > > > > > > > > > > > > > > > > > > > > > > > > > > > > > > B   B.mX*X, #.&.v :.o.#.&.K %.P P P P P P P P P P P P P P P P P P P P P P P P P P P P P P P P P P P P P P P P P A P V w.#.#.I M #.-., *XnXh.  r X X X X X X X X X X X X X X X X X X X X X X X X X X X X X X X X X X X X X X X X X X X X X X X X <   K.BXoX@ %.P B T P *.3.v I *.P P P P P P P P P P P P P P P P P P P P P P P P P P P P P P P P P P P P P P P P #.,.V &.#.#.P M O.%.o rXmXg.  X                                                 ",
"                                                  o . 0.MX6XG f Z #.P P F :.t P P P P P P P P P P P P P P P P P P P P P P P P P P P P P P P P P P P P P P P P P &.t P 1 I &.A ;.%.: `.MXx.  -   X X X X X X X X X X X X X X X X X X X X X X X X X X X X X X X X X X X X X X X X X X X X X X X X @ 4   ' MX2XL *.#.A K K 1 &.P &.P P P P P P P P P P P P P P P P P P P P P P P P P P P P P P P P P P P P P P P P P t &.t P P A ;.#.G 2XMXz.  3 @ > > > > > > > > > > > > > > > > > > > > > > > > > > > > > > > > > > > > > > > > > > > > > > > > X n   r.MX2Xs %.%.P P K F K V P P P P P P P P P P P P P P P P P P P P P P P P P P P P P P P P P P P P P P P P P &.K &.t K K #.#.#.G 2XMXr.  4 X X X X X X X X X X X X X X X X X X X X X X X X X X X X X X X X X X X X X X X X X X X X X X X X X O -   z.mX2XF *.2.P F P V I V %.P P P P P P P P P P P P P P P P P P P P P P P P P P P P P P P P P P P P P P P P P r P V K P ;.-.%.G 6XMX0.. 2                                                   ",
"                                                  O O O Q kX7X, 3.;.V I F P P K P P P P P P P P P P P P P P P P P P P P P P P P P P P P P P P P P P P P P P P P K P :.H T V #.3., XXnXf.O 7 w o X X X X X X X X X X X X X X X X X X X X X X X X X X X X X X X X X X X X X X X X X X X X X X X X 8 @ w   ^ mXXXe 2.%.K T c I &.t P P P P P P P P P P P P P P P P P P P P P P P P P P P P P P P P P P P P P P P P H P :.F T A #.3., `.nXH.@ 7 w o > > > > > > > > > > > > > > > > > > > > > > > > > > > > > > > > > > > > > > > > > > > > > > > > X y 7 O d.nX`.t *.#.K H P P &.P P P P P P P P P P P P P P P P P P P P P P P P P P P P P P P P P P P P P P P P P V P &.F T P ;.=.s _.nXd.  7 w o X X X X X X X X X X X X X X X X X X X X X X X X X X X X X X X X X X X X X X X X X X X X X X X X O 7 O   g.lXXXe 3.*.A R H &.%.K P P P P P P P P P P P P P P P P P P P P P P P P P P P P P P P P P P P P P P P P K K :.H T V %.*., 2XkX' O O 8                                                   ",
"                                                O O o     ' bXrX; F &.P &.F I #.P P P P P P P P P P P P P P P P P P P P P P P P P P P P P P P P P P P P P P P P P F H P r w.$.- XXMXd..   X u   X X X X X X X X X X X X X X X X X X X X X X X X X X X X X X X X X X X X X X X X X X X X X X X X X @ > w O ' nX4X; K w.t P H F &.P P P P P P P P P P P P P P P P P P P P P P P P P P P P P P P P P P P P P P P P &.V H F t y.&.; *XMX' # , > i X > > > > > > > > > > > > > > > > > > > > > > > > > > > > > > > > > > > > > > > > > > > > > > > > X i = > + ' MX4X; I ,.t A I V &.P P P P P P P P P P P P P P P P P P P P P P P P P P P P P P P P P P P P P P P P &.A H P t w.P ; 4XbXd.. X < w X X X X X X X X X X X X X X X X X X X X X X X X X X X X X X X X X X X X X X X X X X X X X X X X X   w X @ + ' mX2X= ;.y.< M P #.I P P P P P P P P P P P P P P P P P P P P P P P P P P P P P P P P P P P P P P P P %.K H P A w.t 1 4XbX'   X # O O                                                 ",
"                                                O     @ o + ) kX2X3 p 4.%.H &.#.P P P P P P P P P P P P P P P P P P P P P P P P P P P P P P P P P P P P P P P P %.H H P t.=.: :XmXz.    e     7 X X X X X X X X X X X X X X X X X X X X X X X X X X X X X X X X X X X X X X X X X X X X X X X @ >     7 @ 8 0.lX:X: f *.%.P V t.P P P P P P P P P P P P P P P P P P P P P P P P P P P P P P P P P P P P P P P P #.P H #.3.=.- :XnXx.@ X <   = w > > > > > > > > > > > > > > > > > > > > > > > > > > > > > > > > > > > > > > > > > > > > > > > > w =   , = # x.lX:X: | t.K T K #.P P P P P P P P P P P P P P P P P P P P P P P P P P P P P P P P P P P P P P P P -.P H P 4.| - 2XlXr.8   > -   w X X X X X X X X X X X X X X X X X X X X X X X X X X X X X X X X X X X X X X X X X X X X X X X X @ X   8 X O z.lX;X- =.;.F %.#.P P P P P P P P P P P P P P P P P P P P P P P P P P P P P P P P P P P P P P P P P #.K P K 4.| 3 6XnX_ 0   @     6                                                 ",
"                                                          O . ^ bXeXL u #.&.P #.P P P P P P P P P P P P P P P P P P P P P P P P P P P P P P P P P P P P P P P P #.:.P -.=.s OXbXK.  7 >   # X = X X X X X X X X X X X X X X X X X X X X X X X X X X X X X X X X X X X X X X X X X X X X X X X @ = X ,   = w   z.bX>X/ =.&.P P #.P P P P P P P P P P P P P P P P P P P P P P P P P P P P P P P P P P P P P P P P #.:.P %.=.s OXbXB.  7 = X , > ; > > > > > > > > > > > > > > > > > > > > > > > > > > > > > > > > > > > > > > > > > > > > > > > > ;   , X > 7   g.bXOXL =.%.K ,.#.P P P P P P P P P P P P P P P P P P P P P P P P P P P P P P P P P P P P P P P P p &.P K ;./ oXbXh.  7 >   ,   ; X X X X X X X X X X X X X X X X X X X X X X X X X X X X X X X X X X X X X X X X X X X X X X X X = X #   = @   f.bXOXs =.#.&.w.K P P P P P P P P P P P P P P P P P P P P P P P P P P P P P P P P P P P P P P P P #.P :.-.p / 4XkXa.. O X     #                                                   ",
"                                                o O     6 8 :   ~ vX4XN I w.t I P P P P P P P P P P P P P P P P P P P P P P P P P P P P P P P P P P P P P P P P P A -.F : OXNXK.  : w u     9   X X X X X X X X X X X X X X X X X X X X X X X X X X X X X X X X X X X X X X X X X X X X X X X @   9 = = t > -   g.vX>XN t -.A P P P P P P P P P P P P P P P P P P P P P P P P P P P P P P P P P P P P P P P P P &.Z o.V : XXNXK.  : w { = > u = > > > > > > > > > > > > > > > > > > > > > > > > > > > > > > > > > > > > > > > > > > > > > > > > = 7 > < p > :   K.NX>X: t o.A :.P P P P P P P P P P P P P P P P P P P P P P P P P P P P P P P P P P P P P P P P H A -.t b >XvXg.  - @ p ;   7 X X X X X X X X X X X X X X X X X X X X X X X X X X X X X X X X X X X X X X X X X X X X X X X X X   9   = p @ - O K.vXXX3 t #.t &.P P P P P P P P P P P P P P P P P P P P P P P P P P P P P P P P P P P P P P P P I t -.F 3 >XNXj.  o # 7   # O                                                   ",
"                                                6 -   6 @   X X & W bX:X- 2.;.n P P P P P P P P P P P P P P P P P P P P P P P P P P P P P P P P P P P P P P P P H *.4.V _.bXK.& <       @ = = 0 X X X X X X X X X X X X X X X X X X X X X X X X X X X X X X X X X X X X X X X X X X X X X X X X q   = [ O # , = & g.bX:X- 4.;.M P P P P P P P P P P P P P P P P P P P P P P P P P P P P P P P P P P P P P P P P H *.2.F _.bXK.& r > , X @ ; ; 0 > > > > > > > > > > > > > > > > > > > > > > > > > > > > > > > > > > > > > > > > > > > > > > > > 0 = ; w   = > < & H.bX:X1 [.*.H P P P P P P P P P P P P P P P P P P P P P P P P P P P P P P P P P P P P P P P P R #.3.c `.bXz.& < , o   @ = X 0 X X X X X X X X X X X X X X X X X X X X X X X X X X X X X X X X X X X X X X X X X X X X X X X X O X = 6 O #   = & N.lXXXt 3.P H P P P P P P P P P P P P P P P P P P P P P P P P P P P P P P P P P P P P P P P P v ,.*.; 2XbX~ & X e     9     0                                                 ",
".                                                               X   ~ kX4X# #.O.M I -.#.;.t :.A P P P P P P P P P P P P P P P P P P P P P P P P #.;.K &.#.%.H M o.-.1 XXnXB.  r X X X X X X X X X X X X X X X X X X X X X X X X > > X     @ w 7 > X X X X = = X X X X X X X X X X X X X X X X X @ X X X X X @ @ <   h.nXXX, -.o.n F %.#.&.V %.#.P P P P P P P P P P P P P P P P P P P P P P P P *.;.K I K %.F M #.%., XXlXB.  B > > > > > > > > > > > > > > > > > > > > > > > > > > > > , < = > > > , , X > > > > > > > > > > > > > > > > > > > > > > > > > > > <   B.lXXX1 #.#.v :.A #.&.K P A P P P P P P P P P P P P P P P P P P P P P P P P A P t &.;.A I H o.-., XXnXh.  r X X @ @ @ X X X X X X X X X X X X X X X X X X X > X     X X @ 8 X X X X X X = = X X X X X X X X X X X X X X X X X X X X X X X X r   B.nXXXe ;.#.M H #.p ,.P %.o.P P P P P P P P P P P P P P P P P P P P P P P P A :.t ;.-.%.I M O.#.# 4XkX^                                                                   . ",
"          #                                                     @ o . 0.bX2XF #.A &.A K 1 :.B :.P P P P P P P P P P P P P P P P P P P P P P P P %.t P 1 I &.A %.;.4 `.bXr.  3   X X X X X X X X X X X X X X X X X X X X X X X X   X X # X X     X @ @ @ X O X X X X X X X X X X X X X X X X X X @ @ X X X X @ @ X 4   0.MX:XG -.;.P &.P t &.V &.P P P P P P P P P P P P P P P P P P P P P P P P &.A :.F :.&.A ;.#.- `.NX0.  4 X > > > > > > > > > > > > > > > > > > > > > > > > X > < < > X X = > X X , 1 , > > > > > > > > > > > > > > > > > > > > > > > > > > X n   0.MX:X4 &.,.P P K K P K &.P P P P P P P P P P P P P P P P P P P P P P P P &.P P V V P A #.#.4 XXNX_   3 X X X X X @ @ X X X X X X X X X X X X X X X X X X   X = X X X     # X X X @ @ X   X X X X X X X X X X X X X X X X X X X X X X X X X : . 0.NXXXs *.%.A P P V &.r %.P P P P P P P P P P P P P P P P P P P P P P P P :.V &.V K K %.#.p G 2XNX0.. o                                                       o           ",
"# 8                                                             X O O + Q sX6X, 2.%.P H T P P A P P P P P P P P P P P P P P P P P P P P P P P P K P :.H T K #.4., _.kX' O 7 @ o X X X X X X X X X X X X X X X X X X X X X X X X # @ o         - @ X X X @ @ 7 @ X X X X X X X X X X X X X X X X @ @ X X X X X @ o @ 7   ' kX_.F *.#.A T H &.V K P P P P P P P P P P P P P P P P P P P P P P P P K K I V T V o.2.s _.kXd.@ y y , > > > > > > > > > > > > > > > > > > > > > > > > > < > > X < t < < B < X > > < > > > > > > > > > > > > > > > > > > > > > > > > > = w w O g.kX'.s *.o.A H H P P K P P P P P P P P P P P P P P P P P P P P P P P P V P P I H P ;.2.F _.lXg.O 7 w # X X X X X X X X X X X X X X X X X X X X X X X X # # @       X X   X , # X O 7 8 X X X X X X X X X X X X X X X X X X X X X X X X o @ 7 O ' kX`.t *.#.K T F :.P P P P P P P P P P P P P P P P P P P P P P P P P P K K I H T V -.2., 6XsXW + O @ X                                                 .           # # ",
"      O #                                                         O @     _ fX4X: F &.%.V I V &.P P P P P P P P P P P P P P P P P P P P P P P P P V H F r y.$.; XXbXg.# X   7 # X X X X X X X X X X X X X X X X X X X X X X X X X X o # # @ @ > = X X           X X X X X X X X X X X X X X X X @ @ @ X X X X X O 7 < > . ' bX*X: I ,.t :.H < ;.P P P P P P P P P P P P P P P P P P P P P P P P &.F H F r y.$.< XXbX' # > = y X > > > > > > > > > > > > > > > > > > > > > > > > > > < > > > >   X > > > > > > > > > > > > > > > > > > > > > > > > > > > > > > > @ y = > # ' bXXX; :.w.p K I V #.P P P P P P P P P P P P P P P P P P P P P P P P &.< H P p ;.&.= oXbX' . = < 7   X X X X X X X X X X X X X X X X X X X X X X X X   X X @ > > > X ; X     X X X   X X X X X X X X X X X X X X X X X X X X X X X X   7 X = + ' bXXX; I w.w F H K -.P P P P P P P P P P P P P P P P P P P P P P P P %.K F P A ;.t : 4XfX_     X 6 O                                                       # O       ",
",       @ #                                                     O       o + z kX2X- =. .%.V P *.P P P P P P P P P P P P P P P P P P P P P P P P &.H F K t.=.- `.lXz.O   ,   X @ X X X X X X X X X X   X X X X X X X X X X X X X - X   X @ X O O   X @ > X X X = X X X X X X X X X X X X X X X @ X X X X X X X X w   o @   8 0.fX:X: | 4.%.H K ;.P P P P P P P P P P P P P P P P P P P P P P P P #.K H #.3.=.- :XfXz.u X , X = w > > > > > > > > > > > > > > > > > > > > > > > > ; X > r r > > 1 1 > > < r > X > > > > > > > > > > > > > > > > > > > > > > > > > w = X , > u z.fX:X: | 3.p I P -.P P P P P P P P P P P P P P P P P P P P P P P P ,.B P A 3.p : :XfX0.8   , -   7 @ X X X X @ @ @ X X X X X X X X X X X X X X X X = X   @ @ X   O X X X X X X = = X X X X X X X X X X X X X X X X X X X X X X X X 7     X X 8 z.fX:X; | 3.#.H P $.P P P P P P P P P P P P P P P P P P P P P P P P -.K H P 4.| : 6XkXz 0 o X     O                                                       @       , ",
"    o       #                                                     X O     O . ~ sX4Xd | #.w.V #.P P P P P P P P P P P P P P P P P P P P P P P P A &.P -.=.a  XkXB.  O     a   = X X X X X X X X X X   X X X X X X X X X X X X X X X X @ w w , # 8 @ @ # w w @ X X X X X X X X X X X X X X X X @ X X X X X X X X ;   8   X y   g.sXXXL $.A P ,.p P P P P P P P P P P P P P P P P P P P P P P P P A &.K #.;.s OXjXN.  7 > X g > ; > > > > > > > > > > > > > > > > > > > > > > > > ; < > X > 1 = X = = 1 > X > < > > > > > > > > > > > > > > > > > > > > > > > > > ; X e X = 7   g.jX(.L =.%.A &.#.P P P P P P P P P P P P P P P P P P P P P P P P o.:.A #.=./ OXkXh.  y >   a   ; @ X X X X @ @ @ X X X X X X X X X X X X X X X X X X X , u 8 # , 7 8 u w @ X X @ X X X X X X X X X X X X X X X X X X X X X X X X =   #     7 . h.kX Xs 9.&.P w.#.P P P P P P P P P P P P P P P P P P P P P P P P #.V &.;.f / 4XsX~ . O       X                                                     #       o     ",
"% .   #     #                                                     O X X 7 8 2   ~ xXoX: P -.K :.P P P P P P P P P P P P P P P P P P P P P P P P F p -.F :  XvXH.  o @ u X   9 X X X X X X X X X X X X X X X X X X X X X X X X X X , ,         . % .       # 8 9 X X X X X X X X X X X X X X X @ X X @ @ X X X X = 7   = u @ -   d.NX>XN V #.#.K P P P P P P P P P P P P P P P P P P P P P P P P :.A #.F b oXNXf.  - X y = > 7 = > > > > > > > > > > > > > > > > > > > > > > > > X t > > t =   2 2   = < > w t   > > > > > > > > > > > > > > > > > > > > > > > > = 7 , ; u @ :   d.xX>Xb K %.A P P P P P P P P P P P P P P P P P P P P P P P P P H %.#.V 3 oXxXg.  - @ u =   7 X @ @ X X X X @ @ X X X X X X X X X X X X X X X X X > ,     . . . 2 .       , @ @ X X X X X X X X X X X X X X X X X X X X X X X X   7 X X u X o   f.vXOX3 t #.A P P P P P P P P P P P P P P P P P P P P P P P P P :.p ;.K 3 oXvX~   2 # O   X O                                                           #   . % ",
"yX_ .       #                                                   0     9 O   @ , & ~ kX:X; 2.,.v P P P P P P P P P P P P P P P P P P P P P P P P H #.2.1 _.bXK.$ >   o   @ =   0 X X X X X X X X X X X X X X X X X X X X X X X X # #     2 Y.rXdXdXdXtX(.W     # X X X X X X X X X X X X X X X X X X @ @ @ X X X 0 X = w O o @ < & ' sX:Xc *.;.H P P P P P P P P P P P P P P P P P P P P P P P P M -.3.F _.jXH.& < @ , X w ; X ..> > > > > > > > > > > > > > > > > > > > > > > > > > X r t   ` yXyX`   1 r > > , > > > > > > > > > > > > > > > > > > > > > > > > [ X ; w X , > r & z.jX_.< y.#.M P P P P P P P P P P P P P P P P P P P P P P P P v #.6.< ;XjXg.& < @   O w = = [ @ @ X X X X X X X X X X X X X X X X X X X X X X X #     5 U.rXdXdXdXtX(.Q     , X X X X X X X X X X X X X X X X X X X X X X X X 0   = @ O #   > & z.jX_.1 3.;.M P P P P P P P P P P P P P P P P P P P P P P P P v ;.*.; :XkX~ & X X   O u     6                                                   #     . . _ yX",
"5XsXU.  . . #       O +     #                                               X X @   ~ gX4X, #.-.v :.A #.,.K P %.P P P P P P P P o.%.P &.K A :.M #.-., .XlXh.  p X X X X X X X X X X X X X X X X X X X X X X X X   >   @ >   X X ; O 8 a.aXgX>X{.m.{.OXpXgX.X  X 8 @ > > X X X X X X X X X X X X X @ @ @ X X X X X X X X X X > > r   g.fXXXt #.-.M H -.#.;.V &.#.P P P P P P P P o.%.K :.p K I M -.%., .XkXB.  B > > > > > > > > > > > > > > > > > > > > > > > > = r @ @ w > = = B 7 o :   P.bX2X3XbXJ.  4 o w < X = > < > @ < > > > > > > > > > > > > > > > > > > > > > > > > > B   N.kX.Xs &.#.v &.#.-.%.K ;.A P P P P P P P P #.P K %.-.#.F n #.A t XXfXg.  r @ X X X X X X @ X X X @ @ @ X X X X X X X X X X @ >   X > X X @ ; 6 6 B.aXaXoX{.m.{.oXaXgX).  7 + @ X   #   X X X X X X X X X X X X X X X X X X X X X X X X X X r   h.kX.X1 #.#.v P -.o.;.K P #.P P P P P P P P %.P K ,.#.p T v %.K s *XgXa.  @                                                                 O 8 . .   Y.vX5X",
"I U.sX&Xq 6     ,             8                                             X X     . ) sXXX4 #.-.A P V V P P &.P P P P P P P P ;.A K F P &.K #.-.: _.bX0.. -     X X X X X X X X X X X X X X X X X X X X X X X   @   X @ X > X   . L.bX X` b : P ; b 2 Y.xXtX% X > > X @ X X X X X X X X X X X X X @ @ X X X X X X @ @ X X > > @ :   0.bX`.4 #.-.A P K < &.V &.P P P P P P P P &.B P V T &.%.#.-.- `.bX_   3 X > > > > > > > > > > > > > > > > > > > > > > > > r   > > > > > V   ; > q &XkX~.d L (.fX&X0 @ ; X V > X > > >   r > > > > > > > > > > > > > > > > > > > > > > > >   :   / bX`.4 &.,.P P I F K K ;.P P P P P P P P &.V P t V &.A -.%.4 `.bX_   - X > X X X X X @ @ X X @ @ @ @ X X X X X X X X X X @ X X X X X @ @   # W.fXOX) b 1 V : b - U.xXrX%   , X   @   X X X X X X X X X X X X X X X X X X X X X X X X X X   :   _ bX`., -.-.P P K 1 &.t &.P P P P P P P P P K K V F P P ;.&.4 2XfX_ .   @                                                 #     #   O   ,     O q #XgX}.G ",
"S f x.dX9Xz O 2                                                             X X   @ 7 + ! sX2Xe 3.#.P T H P &.V P P P P P P P P P &.H I H K *.4.1 (.fX' + 9 @ o X X X X X X X X X X X X X X X X X X X X X X X X   X X X     > X + K.nXL.w 1.%.H p :.V 6.p Q dX=X-   X   > X > X X X X X X X X X X X @ @ @ @ @ @ X X @ @ X X > > o @ 7 @ _ fX`.s *.%.K I H :.K P P P P P P P P P F K H H I t #.2.s _.fX' X y y X > > > > > > > > > > > > > > > > > > > > > > > > X > <   > > X X : w G 5XaXP.p c D p x.dX8Xs 9 : X @ > >   < > X > > > > > > > > > > > > > > > > > > > > > > > > = r w   ' kX'.s *.#.V I I K K P P P P P P P P P K K I I P P #.*.t `.fX~ O y @ , @ X X X X X @ @ X X X X X X X X X X X X X X X X X X X X   X > X . W.bXN.p @.S I p :.C ,.t ) dX&Xo       X @ X X X X X X X X X X X X X X X X X X X X X X X X X X   8 7 O ' fX(.s *.#.K T H :.K P P P P P P P P P K :.P H T K o.2., 2XaX! # O X .               X                                           @     5 O 5 uXdXz.p Y ",
";.H { 9.9XaXW 6 # @     o   o                                                 X   O >   . _ sX*X- P ;.A P H V &.P P P P P P P P P V H F t -.;., (.bX' + X   9 O X X X X X X X X X X X X X X X X X X X X X X X X X X X X   X >   z aX(. .q.Z [.F P %.-.< y.=.W kXP.  X X @     X X X X X X X X X X X X @ @ @ @ X X X @ @ X X > >   { = X # ~ bXXX; &.w.r &.H 1 &.P P P P P P P P P F H H r w.;.1 .XbX~ O ; > u X > > > > > > > > > > > > > > > > > > > > > > > > @ r X > > X y p X W wXwX8.{ I <.:.K } 9.pXaXQ O u p X > < X r @ > > > > > > > > > > > > > > > > > > > > > > > > X y = =   _ bXXX= q.w.t P I t %.P P P P P P P P %.< P P p w.&.; XXsX_ + X = p   @ X X X X X @ @ X X X X X X X X X X X X X X X X X   @ @ X @ X   j sXU.f :.S 4.P &.O.-.< ,.$.' kXJ.      X ,   X X X X X X X X X X X X X X X X X X X X X X X X X   9 X X + _ bX.X; I y.t P H V P P P P P P P P P &.t P P A ;.I ; XXfX~ .   > 7                 X                                   #         O 8 O W aX7Xi.p H %.",
"L #.Y A 5 &XfXz.  # #   ,     +                                                 @       X 8 z fX:X3 | 4.P I t -.P P P P P P P P %.F F A [.| - _.fX0.+   #     O X X X X X X X X X X X X X X X X X X X X X X X X @ X X X   X     &XwXM } 1 ` | C %.#.P T P u s ~.uX5 X @ X X   X X X X X X X X X X X @ @ @ X X X X X X X X X @ @ w <   @ > @ 0.gX:X: | 4.#.H K -.P P P P P P P P %.H c #.t.*.- XXgXr.w = ,   X w > > > > > > > > > > > > > > > > > > > > > > > > w >   r   t ,   u.gX2Xs D T &.o.f P R A d 2XsXr.  , t   t   @ t > > > > > > > > > > > > > > > > > > > > > > > > w =   > X 8 r.gX:X3 | 2.A :.K =.P P P P P P P P -.V I A 3.| 3 :XgX0.8 > X   = @ > X X X X X X @ @ @ @ X X X @ @ X X X X X X X X >   @ X X >     =XqXv } < ` | S %.;.P H &.u : _.tX% , X X @   X X X X X X X X X X X X X X X X X X X X X X X X X 7     #   8 0.gX:X- | 3.P H I #.P P P P P P P P -.t H P 4.| b :XgXz 8 X     o @               X                                           #     0.fX2X- V :.%.L ",
"R =.p R v p OXfXz.. .         O                                                 X o #     6 . ~ sXXX/ | ;.P %.A P P P P P P P P P w.V ;.t.g (.sXh.. 7 X   a   X X X X X X X X X X X X X X X X X X X X X X X X X @ X X   X o   , uXY.v 7.y.z m H o.H b 8.$.P S 6.sX'   w X X   > X X X X X X X X X X @ @ X X X X @ X X X X X @ @ ;   e ; = 7   a.sXOXd =.#.&.w.K P P P P P P P P #.:.B %.t.,  XsXN.  y >   e X ; > > > > > > > > > > > > > > > > > > > > > > > > X > > > > ,   r.gX+Xo.; R o.o.J R { #.R ; P oXgXr.  - X > > > > > > > > > > > > > > > > > > > > > > > > > > > > ; X a X > y   g.sX(.d $.&.P ,.o.P P P P P P P P A w.P &.$.L  XsXa.  w X = a   ; > X X X X X X @ @ @ @ X X X @ @ X X X X X X X X >   @ X > >   , dXb.D >.y.d J C o.H : 8.;.K C m.vXQ o X X X   @ X X X X X X X X X X X X X X X X X X X X X X X X =   8     7 . h.sX X4 9.&.P q.#.P P P P P P P P #.&.&.;.| / OXsX~ . O X   .   X X             O                                     X     . . z.fXOXp C T p  .` ",
"%.R F { :.v 1  XxXH..   @                                                         O #   O 8 o   ~ cXXX3 K %.#.T P P P P P P P P H #.{ L :  XxXf.  o X u     6   X X X X X X X X X X X X X X X X X X X X X X X X X @ X   @     / aXu.v C |  .m S -.P I %.t R T y 9XU.  @ @ X > > X X X X X X X X X X X @ X X X X @ @ X X X X @ @ X O X < y X 4   g.xXOXN F #.K F P P P P P P P P P %.#.F 3  XvXN.  - @ y = X @ = > > > > > > > > > > > > > > > > > > > > > > > > X > > p ,   H.xX.Xp D ` =.*.H I <.J =.#.T V g .XxXH.  > p w > = > > > > > > > > > > > > > > > > > > > > > > > > X @ > = w @ ;   f.xXoXb P #.o.&.P P P P P P P P F P A F 3 XXxXg.  : X 7 < > O X > X X X @ @ X @ X X X X X X @ @ X X X X X X X X X X > X > X   ` aX` A C #.f J S ;.V I ;.e H w.w aXH.  @   X X @ X X X X X X X X X X X X X X X X X X X X X X X X   O   X 7 O o   g.xX XN F #.p P P P P P P P P P H A #.F 3 oXxX_   o e 7 o # O   X             O                                 o     O   . H.vX(.s C Y } ;.` #.",
"y.r H T  .9.I < /.xX'                                                       X   0 X   7 O   X > & ! dX:X: 2.#.M P P P P P P P P M -.4.1 _.dXf.$ >   o   7 =   0 X X X X X X X X X X X X X X X X X X X X X X X X   @ X   X     r.aX)  .#.P %.-.-.m $.2.S R F L d <XXX  7 ,   > X X X X X X X X @ X X X X X X X X @ @ X X X X > @ [ = = 7 # #   < & _ dX;XF =.-.H P P P P P P P P v -.4.1 _.dXf.& < X , X w ; X ..> > > > > > > > > > > > > > > > > > > > > > > > = < @ > X ' xX'.D 3 9. .S R F *.*.B R P 4.9.: Z /.xX'   w @ < = > > > > > > > > > > > > > > > > > > > > > > > > [ X ; w   , @ < & ' dX_.: 3.#.H P P P P P P P P R #.*.1 :XpX' & <   , @ @ ; = [ > X X X X @ X @ X X X X X X @ X X X X X X X X X   X > X > X   n.wXW 4.%.C <.A -.N -.1.r T K L d 3X.X  9   X   @ X X X X X X X X X X X X X X X X X X X X X X X X [   = 7   #   > & d.sX_.1 3.-.M P P P P P P P P H #.2.: :XdX! & > O .   @ X   0 X             O                                       e   x.xX/.B H 9. .T R > y.",
"&.P K P P P P P B }.fXh =   6                                                   X         X X X @   p.aXXXs %.%.U 3.G c H ( t.D o.;.s (.gXh.  r X X X X X X X X X X X X X X X X X X X X X X X X X X   X X X X X u   = X   + o ] dX) Z +.P G K %.%.K F J I #.%.Z <X XO e   # X   X X X X X X X @ @ @ X X X X @ @ @ X X X X @ > > @ @ @ @ @ @ X X <   g.aX.Xs %.-.S =.8.v v 8.=.S #.;.t (.gXN.  r > > > > > > > > > > > > > > > > > > > > > > > > > > > > > > > > = y >   Q gX}.B P P P P P P P P P P P P P P P P B +XgXQ X r y = > > > > > > > > > > > > > > > > > > > > > > > > > > > > > > > > <   N.gX.Xs %.%.D 9./ v v / 9.D #.#.t  XaXh.  < @ @ @ > > > @ @ > X X X X X X @ X @ X X X X X X X X X X X X X X X -   X @ 7   r.uX) O.Z F ( K %.o.%.t I &.#.;.r <X XO #   o o   X X X X X X X X X X X X X X X X X X X X X X X X X X X X X X X X >   h.fX(., -.#.C t.G M C ( t.C -.#.t XXaXa.  > X X X X         X             X                                   6   - ! fX}.B P P P P P P P &.",
"&.P K P P P P P Y u *XpX. 6   .                                                 X X         X X @   . z sX`.: -.F c *.<.%.| c P -.- _.vX_ . 2   X X X X X X X X X X X X X X X X X X X X X X X X X X   X X X X X   , X   @     ( dX] :.-.&.G I A #.&.I K F P K F 0X(.o X   6 } , X X X X X X X @ @ @ X X X X @ @ X X X X @ @ > > X X @ @ @ @ X X @ :   _ fX`.4 #.P f K >.>.P #.P -.- `.bX)   3   > > > > > > > > > > > > > > > > > > > > > > > > > > > > > > > > > X w : 9X-Xp J P P P P P P P P P P P P P P P P J p -X9X- y > > > > > > > > > > > > > > > > > > > > > > > > > > > > > > > > > > X -   _ vX`.4 %.L o.S ;.;.S A L %.4 _.sX/   : X @ @ @ > > > @ @ > @ X X X X X @ X @ X X X X X X X X X X X X X X 8 O u i       ] dXQ &.%.&.L K A P K P F P &.F 1 uXL.    > [ 0 # X X X X X X X X X X X X X X X X X X X X X X X X X X X X X X X X   :   ) bX`., -.P n *.<.<.*.n P #.- XXsX) .   X   X X X                       X                                 . -   . aXoX .R P P P P P P P &.",
"&.P P P P P P P F %.#.9X5X    .                                                                 o @ O 6 h aX2Xt P P 3.F F 2.P I t ^.gX' O 7 @ o X X X X X X X X X X X X X X X X X X X X X X X X X X X X X X X X u     - , ,   # 9X(.- %.p F q.K F V K A %.&.G ` gXW   > < X     X X X X X X X X @ @ X X X X @ @ X X X X X X > > X X > > > > > X , > y @ ~ gX_.s L :.2.K K 2.:.I s ^.sX' @ w w - > > > > > > > > > > > > > > > > > > > > > > > > > > > > > > > > X :   2XuX=.D G P P P P P P P P P P P P P P P P G B $.aX&X  F X > > > > > > > > > > > > > > > > > > > > > > > > > > > > > > > > , > w 8 _ sX_.t I P 4.V V 4.P &.s _.aX~ @ y @ , @ @ X X X X X @ @ X X X X X X @ X X X X X X X X X X X X X X X X 9 @   > > e @ @ 9XL.; #.p I P &.K t :.P %.w.n n.aXW # X > X     X X X X X X X X X X X X X X X X X X X X X X X X X X X X X X X X   # 7   ' fX^.s I %.6.F V 2.%.I , XXaX! 8 6 @ .     X X                       X                                 .   . 3X9X9.A n P P P P P P P &.",
"&.P P P P P P P =.C { _ gXI.O                                                                     @ X   . W sXXXp O.v g 9.R O.w (.sX~ + X   7 O X X X X X X X X X X X X X X X X X X X X X X X X X X X X X X X X O e X       o o #XtXm $.&.;.P V w.F &.%.%.F m  X9Xj + O   X : = X X X X X X X X X X X X X X @ X X X X X X X > > X > > > > > > X   u > X + ~ sXXXt Y A 9.9.V Y t .XsXW + 1 = w @ > > > > > > > > > > > > > > > > > > > > > > > > > > > > > > > > -   U.gX` { R #.P P P P P P P P P P P P P P P P #.N i r.gXI.  - = = > > > > > > > > > > > > > > > > > > > > > > > > > > > > > > X i = > # Q dX.Xr H F $.$.F H p .XdX! + > > u   @ @ X X X X X @ @ X X X X X X @ X X X X X X X @ X X X X X X X X X =     O     2 #X7Xb &.,.;.K K q.V :.A A 1 b  X9Xj + O   o - = X X X X X X X X X X X X X X X X X X X X X X X X X X X X X X X X   8 X X . ~ fX.Xe O.M 8.$.v O.p XXsXW .   X 6       X X                       X                                   + K.gX_ } R #.P P P P P P P &.",
"&.P K P P P P P 2.M I u L.aXq                                               X X         X X     @ X     , 8 z aXXX#.B m J S K (.gX0.O   #     @ X X X X X X X X X X X X X X X X X X X X X X X X X X X X X X X X =   8 6 * I.5XdXpXdX|., &.#.t :.F t P O.#.I n.yXpXpX7XQ.j . 8 9 X X X X X X X X X X X X X X X X X X X X X X @ @ @ @ @ > > > @ @ w =   @ > @ ) aX'.| H I L C { '.aX0.8 X ,   = w > > > > > > > > > > > > > > > > > > > > > > > > > > > > > > > > = d aX(.7 :.N +.P P P P P P P P P P P P P P P P @.m :.7 ).wXa = > > > > > > > > > > > > > > > > > > > > > > > > > > > > > > > > w =   X ; 8 / aX'.*.C / / C *.'.aX) @ > @   = 7 > > > X X X > > @ X X X X X X @ X X X X X X @ @ X X X X X X X X X   | O % U.5XwXuXxX{.t ,.r I I I F A %.-.&.Y.iXdXpX5XW.z . @ O X X X X X X X X X X X X X X X X X X X X X X X X X X X X X X X X @     X   6 0.aX).p A J J S #.).gXz +       o 7                               O                                   z wXR.9 &.R o.P P P K P P P &.",
"&.P K P P P P P Z w.b +.F 9X.X                                              X X         X X     = o .   @ O . ~ hX X*.U C }  XgXa.  7     a   = X X X X X X X X X X X X X X X X X X X X X X X X X X X X X X X X X @   ) 5XpX.XP.^ ' r.F &.#.P P ;.&.:.A A P ( Y.` ' (.uXdXR.  [ X X X X X X X X X X X X X X X X @ X X X X X @ @ @ @ > @ X > @ @ v   e = X y . p.gX X*.C C *.}.hXa.  y >   e > ; > > > > > > > > > > > > > > > > > > > > > > > > > > > > > > > >   &X5Xt ;.M %.P P P P P P P P P P P P P P P P P A >.N =.P 5X.X  > > > > > > > > > > > > > > > > > > > > > > > > > > > > > > > > ;   a = X y   ~ hX X{ C U {  XhX~   y X X u   ; > > > > X > > > > X X X X X @ @ @ X X X X X @ @ X X X X X X X X X e   _ pX7X.XP.^ ' r.F %.%.K P K &.K A #.F ` n.` ' ).uXuXK.  ..X X X X X X X X X X X X X X X X X X X X X X X X X X X X X X X X =   a     7 . a.hX X{ C U *.OXgXp.. O >   + # =                 X             O                                   .X9Xs O.J ;.A P P P K P P P &.",
"&.P K P P P P P q.w R P p Y.pX%                                             X X         X X X     O #   O 8 o   z aX_.| p (.aXj.  - @ 9     O   X X X X X X X X X X X X X X X X X X X X X X X X X X X X X X X X 0 # _ pX8XN L  .K K F q.A P %.P P K K F I ;.K 1 #.K F , W.pX(.. X X X X X X X X @ @ X X X X X X @ @ X X X X @ @ @ @ X X > X @ @ X O X = 7 @ 4   0.wX Xt t  XwX0.  - @ w = > 7 X > > > > > > > > > > > > > > > > > > > > > > > > > > > > > > > > Q 9XU.i &.H Z I P P P P P P P P P P P P P P P P I Z H I { U.9X3 > > > > > > > > > > > > > > > > > > > > > > > > > > > > > > > > = O > ; 7 @ :   0.hX.XZ Z .XhX0.  : @ 7 ; > O X @ @ @ @ X X @ @ > X X X X @ @ @ @ @ @ X X X X @ X X X X X X X X e   N.pX`.Q w.[ K 1 I &.p ;.A P A P I I &.&.K 1 w.w t 5 ^.wXR.. X X X X X X X X X X X X X X X X X X X X X X X X X X X X X X X X   O   X 7 O o   _ aX(.{ | _.gX_   o 8 O X # O   X X             X             O                                 x dXN.p :.H p I P P P K P P P &.",
"&.P K P P P P P d H -.V I K tXT.                                            X X         X X X X 0   = 7   . X >   j aX}..XgX! X >   .   7 =   0 X X X X X X X X X X X X X X X X X X X X X X X X X X X X X X X X + 2 pX.X# t.o.E 2.A q.1 P ,.p &.#.P H I K #.;.O.K R D 2.p J.dXB.X X X X X X X X @ X X X X X X @ @ @ X X X X > @ @ @ X > X > @ @ [ = ; O O ,   < X W wX(..XaX~ @ r @ , X w ; X [ > > > > > > > > > > > > > > > > > > > > > > > > > > > > > > > > T.qXF / K +.H L P P P P P P P P P P P P P P P P I n -.K d I iXA.> > > > > > > > > > > > > > > > > > > > > > > > > > > > > > > > [ = ; @ @ , X Z @ W aX).).aXW @ r   , X @ ; = [ @ @ @ @ @ X @ @ > @ X X X @ @ @ @ @ @ @ X X X X X X X X X X X X 6 Q pX(.g 4.Z E +.-.F F ;.A &.K %.A I F f #.%.%.K :.U +.t Y.dXh.X X X X X X X X X X X X X X X X X X X X X X X X X X X X X X X X [   = 7   +   > X h aX}..XgXh   > X     @ =   0 X X X           X             O                                 Q.6XF F P +.Y L P P P K P P P &.",
"&.P P P P P P P %.F ` K o.F  X3X              #                             X X X X X X         0   X 9   o   w   ! aX}.}.aX~ @ >   o   O =   0     X X X X X X X X X X X X X X X X X X X X X X X   X X   X o   . 2X4XX :.*.K L P P P P P P P P P P P P P P P P H %.O.S C G I.aX5 8 w   > @ X @ @ @ X X X X X X @ @ X X X X > > @ @ > > > > @ @ 0   ; w X #   r X ~ aX}.}.aX_ > w 7 #   w v X u > > > > > > > > > > > > > > > > > > > > > > > > > > > > > > > X &XoX= 7.O.g e.D P P P P P P P P P P P P P P P P P -.J v 6.w XX=X  , = = > > X > > > > > > > > > > > > > > > > > > > > > > > > > [ = ; > X , X w X _ aX}.}.aX~ X < X , X w ; X [ X > > > @ @ @ @ > @ @ @ X X X @ X X @ @ X X X X @ X X X X @ @   + <X:X, -.o.H #.P P P P P P P P P P P P P P P P I #.%.D <.V U.aX2 6 9   =   X X X X X X X X X X X X X X X X X X X X X X X X X X 0   = @   o   > X ~ aXW.}.aX!   >   o   7 =   0                               X                 X               3XOX= ,.#.$.K P P P P P P P P &.",
"&.P P P P P P P %.F L &.S K P.9X#             X                             X X X X X X       X   O     8 X o   j.aX(.p i (.aXc.    O u     O       X X X X X X X X X X X X X X X X X X X X X X X   X X   X o   _ 7Xn.G Y o.P L P P P P P P P P P P P P P P P P H %.#.P K K _ 5XU.O @ = > @   > @ @ X X X X X X @ @ X X X X > > @ @ > > > > @ @ X 7 X X u @ -   0.wX Xf f  XwX0.  X @ { X   7 X > > > > > > > > > > > > > > > > > > > > > > > > > > > > > > , , 9XI.A S %.9.s <.P P P P P P P P P P P P P P P P P &.4 T O.A U.9X, , > = > > > > > > > > > > > > > > > > > > > > > > > > > > > > = @ X = i @ -   z.wX Xf f  XwX0.  - w u X X 7 X X > > > @ X @ @ > @ @ X X X X @ X X @ @ X X X X @ X X X X > @   _ pX] $.%.r T K P P P P P P P P P P P P P P P P F P %.C P P ' 5XU.  7 X @   X X X X X X X X X X X X X X X X X X X X X X X X X X   8     { X   . j.wX(.{ o.(.wX_   o X 7     6                                 X                 X             , 9XJ.&.r &.;.1 &.P P P P P P P &.",
"&.P P P P P P P %.H f &.H #.9.wXd                                                           X X =   q     7 . j.aX}.%.U U o.}.aXB.  7 >   q # X X X X X X X X X X X X X X X X X X X X X X X X X X   X X   X X   L.tXo ;.M o.%.F P P P P P P P P P P P P P P P P H %.#.H A %.-  X5X. X = X #   @ X X X X X X X X @ X X X X X > > @ @ X X @ X X @ ;   g =   7 . g.hX}.*.C C *.}.hXa.  w > = u X < > > > > > > > > > > > > > > > > > > > > > > > > > > > > > X , F 0Xr.O.H &.K F -.P P P P P P P P P P P P P P P P P F P K H #.r.9XF , X > > > > > > > > > > > > > > > > > > > > > > > > > > > > > v   s -   7 . g.hX}.*.C C *.}.hXa.. 7   X g   ; @ @ X > X X > > > X X X X X @ @ X X @ @ X X X X @ X X X X @ @   (.5X, $.H %.K I P P P P P P P P P P P P P P P P K #.P H K -.,  X5X. # X X X   X X X X X X X X X X X X X X X X X X X X X X X X X =   #   X 9 . h.hX}.Z D C #.}.hXp.. 6     a   =                               X                     X         d 9Xe.*.C K &.F %.P P P P P P P &.",
"&.P P P P P P P %.I $.#.R %.9.9Xd     O                                                     X X @     @   O _ aX(.{ S M N P p ^.wXz.+   ,     7 X X X X X X X X X X X X X X X X X X X X X X X X X   X X   X X   #XXX} #.n #.%.H P P P P P P P P P P P P P P P P P #.$.J F ;.r m.9X2 o >   7 > X X X X X X X X X @ X X X X X > > X X X X @ X X X > X X , X @ _ aX^. .H G G H { ^.wXr.#   1 X   y > > > > > > > > > > > > > > > > > > > > > > > > > > > > > X , F 0Xu.o.J I A Y =.P P P P P P P P P P P P P P P P P K -.B T L 0.9XF > X > > > > > > > > > > > > > > > > > > > > > > > > > > > > > w = X > X 8 0.wX^.{ H H H H { ^.wX_ @ X ,     7 @ X X X X > > > > X X X X X X @ X X X X X X @ @ @ X X X X @ @   3X^. .p v ,.A I P P P P P P P P P P P P P P P P %.#.P H C ;.t P.9X% # X O @ =   X X X X X X X X X X X X X X X X X X X X X X X X @     #   8 0.wX^.p S M M %.{ ^.wX_ O   #     O                               X                               / 0X0.{ T V I I #.P P P P P P P &.",
"&.P P P P P P P %.P =.A Y t r.pXa     #                                                       X   u     q W pX(. .M B / / B M u W.sX~ +     9 O X X X X X X X X X X X X X X X X X X X X X X X X X   X X   X X   3XL.4.#.n &.%.F P P P P P P P P P P P P P P P P P #.L G H -.-.q.0XW   = @ @ = X X X X X X X @ @ X X X X X X @ @ > > > @ @ @ @ @   p X   a ~ pX(.p C c 9.9.c C u W.dX_ # X = p   > > > > > > > > > > > > > > > > > > > > > > > > , > > > > > > 1 9Xn.o.G G :.V =.P P P P P P P P P P P P P P P P P T A %.M s z.9Xt X > < > > > > > > > > > > > > > > > > > > > > > > > > > > > >   o.=   a _ pX(.p C c 8.8.c C p (.pX~ g   X {   @ @ X X X X > > > X X X X X X @ X X X X X @ @ @ @ X X X X > @   3XL.*.o.E p ,.H P P P P P P P P P P P P P P P P %.#.K J K *.#.e.0Xj o   O O =   X X X X X X X X X X X X X X X X X X X X X X X X   u     # _ dXW.{ M B ( ( V M { (.pX~ q     u                                 O                         #     a wXr.#.C H I F -.P P P P P P P &.",
"&.P P P P P P P %.F &.K %.: U.rXo     #                                                         + @ 9 O ! aX^.s K -.*.P P *.-.F s V.aXg.  7 u   X X X X X X X X X X X X X X X X X X X X X X X X X   X X   X X   3XL.{ -.M L I K P P P P P P P P P P P P P P P P K #.$.H P o.&.` 9X)   = y O X @ X X X X X X @ @ X X X X X X @ @ > > @ @ @ @ @ > , w y @ W aX^.t I :.2.F F 2.:.L p L.aX' @ w < - > > > > > > > > > > > > > > > > > > > > > > > > > > > > > > > = 5X X1 #.I P P #.P P P P P P P P P P P P P P P P #.H A -.K 2  X5X= X > > > > > > > > > > > > > > > > > > > > > > > > > > > > > > - > y 8 ~ aX^.s &.:.2.F F 2.:.I t ^.aX~ @ y w , @ @ > > X X > @ > X X X X X X @ X X @ X X X @ @ @ X X X X > @   3XU.[ -.E p ;.V P P P P P P P P P P P P P P P P S #.K J K *.&.` 9Xz     w O   X X X X X X X X X X X X X X X X X X X X X X X X X o @ 7 O ~ aXL.t I ,.*.K K *.;.I s ^.aXW O 9 O #                 X             O                               o 5X(.: %.&.F K %.P P P P P P P &.",
"&.P P P P P P P P P J P *.] 2XQ.    o                                       X X                 O   . _ pX(.G %.H =.F o.o.F =.H #.G L.pXz..   O X X X X X X X X X X X X X X X X X X X X X X X X X   X X   X o   &XXX1 #.H L K %.P P P P P P P P P P P P P P P P H &.#.H H #.s Y.7X5   = > X   @ @ @ @ X X X X @ X @ X X X X @ @ > > @ @ X X > > X -   _ pX^.G -.F #.#.O.O.#.$.F ;., ^.dX0.  :   > > > > > > > > > > > > > > > > > > > > > > > > > > > > = > > X I.8X] *.%.c w.A P P P P P P P P P P P P P P P P $.V R #.=.] 4XI.X > > > > > > > > > > > > > > > > > > > > > > > > > > > > > > > X =   0.dX^.4 &.F $.#.O.O.P $.F -.s !.pX0.  - X @ @ > > X @ @ @ @ X X X X X X @ X @ @ @ X X X X @ X X X X > @   #X`.p %.M =.K H P P P P P P P P P P P P P P P P K &.F I P #.s U.5X.   X @ X   @ X X X X X X X X X X X X X X X X X X X X X X X X   o   0.pXL.4 ;.F =.P *.#.F *.n -.d ^.pX_ .                     X             O                 X               I.7XN 4.&.F &.K P P P P P P P &.",
"&.P P P P P P P A ;.N K 1.Y.wXx     o     O                                 X X                 w   p.9X X| #.K S L 9.M M 9.L S #.-., W.wXg.  > X X X X X X X X X X X X X X X X X X X X X X X X X   X X   X X   K.7XR Z P &.F -.P P P P P P P P P P P P P P P P H &.#.A P &.- XX&X. @ =   @ X @ @ @ @ X X X @ @ @ @ X X X @ > @ > @ @ @ X X > > <   p.9X(.s #.#.C #.8.M M 8.$.U P &.: W.wXf.  i > > > > > > > > > > > > > > > > > > > > > > > > > > > > > > > X a 0X(.1.o.( =.C P P P P P P P P P P P P P P P P $.P v *...~.7X5   , > X > > X > > > > > > > > > > > > > > > > > > > > > > > > > ;   a.9X(.s #.#.C =.8.M M / $.C #.o., (.9Xj.  r @ @ > > @ @ @ @ @ X X X X X X @ X @ @ @ X X X X @ X X X X > @   T.7XV S H =.&.K P P P P P P P P P P P P P P P P F ;.A H S ;.- XXXX. e X   ,   @ X X X X X X X X X X X X X X X X X X X X X X X X <   g.wXU.t ;.o.S L 9.M n 9.L C #.#.s (.9Xp.. >                 X             O                 X   X     o     x 0X~.} #.I -.C P P P P P P P &.",
"y.) | P F w.M P E B 3.# U.pXd..                                           X X X 0   = @   .   w & _ qX_.- *.;.M P P P P P P P P P o.*.: !.qXf.$ r   . @ O   - 0 X X X X X X X X X X X X X X X X X X X X X X X X * yXI.n B O.%.$.=.2.Z $.J U @.] 8.E #.o.H ;.=.$.,.*.#.J L  ./ wXq.,   X > X X w @ @ X X X X @ @ @ @ X X X @ > > [   ; >   o X r & g.qX!.< 4.%.N P P P P P P P P L *.2.; !.9Xf.. i   - X y ; = 7 > > > > > > > > > > > > > > > > > > > > > > > > @ ) pX.X% 9.r Y S C 3.:.F s ' / 9.] =.-.n :.S S E S t.+ W.pX'   > > > > > > > > > > > > > > > > > > > > > > > > q X < y X - X i . g.wX^.< 2.*.G P P P P P P P P N %.4.- ^.qXg.& r   -   w ; X [ @ X X X X X X @ X X X X X X X X X X X X X X X X j yXY.n D O.-.8.L [.p &.I B +.` ;.] -.1.s w.%. .;.A K J L  ._ pX( ,     @ X   X X X X X X X X X X X X X X X X X +   > 7   o   y $ f.7X!.: ;.A H P P P P P P P P n ,.*.- ^.qX_ & >   .   @ =   [               X                                 . W pX).% 9.A U U #.<.U H z ^ 6.",
"B Y.Y.#.< 1 } O.u G ^ _.tXJ.. q                                           X X X   O     9 @ o   _ dX~.b ;.A P P P P P P P P P P P %.A I 3 U.dXf.  o @ 7   @ O - X X X X X X X X X X X X X X X X X X X X X X X X   K.uXW ;.5.Z m v E P &.I A ( Y.{ m.m.#.P M c ;.1 E E S *.G 4X#X,     X X @ @ > @ X X X X @ @ @ X @ X X X X > > = @   = u @ -   g.uX~.m &.o.&.V P P P P P P P P P &.A K n U.uXf.  b X y = @ O ; > > > > > > > > > > > > > > > > > > > > > > > > <   ' 5X5XV.m  .B 4., < w. X~.Z B |.Y.t r F *.+. .: ^ `.7XH.  { > > > > > > > > > > > > > > > > > > > > > > > > = 7 X = i > ;   f.uX~.b K p :.H P P P P P P P P F &.p K b U.uXf.  ; > r =   7 = > @ X X X X @ @ X X X X X X X X X X X X X X X X   K.uXW -.5.B m v R S &.&.A ` Y.#.n.b.P I E v R G R H 7.@.$.-X#Xo       @ X X @ X X X X X X X X X X X X X X X X - O O - @   :   g.dXU.3 I A &.&.P P P P P P P P P K #.&.N U.dX_   o X 9     6                 X                                 O   z.5X2XC.3 p p | u - e.(.{.A ",
"H ~ 9X4X XN.x.J.}.*X7X&X)   8                                               X X =   q     9 . p.7XU.a =.&.V w.p P P P P P P P P t T n ;.=.a U.7Xg.. y     + # = X X X X X X X X X X X X X X X X X X X X X X X X @ . $X9XQ V %.&.>.< t.p t ) 2XP.A ` `.r.u v ,.*.;.:.#.} G ;X2Xx   X X   X @ @ X @ @ X X X X @ @ X X X X X X > > ;   s -   y . p.7X~.s =.-.V w.A P P P P P P P P B q.m 8.2.p U.9Xa.  t X X u w ; > > > > > > > > > > > > > > > > > > > > > > > > ; F O Q (.5XtX+X^.I.^.*X4X9X' o.v ' 9X5X XN.c.c.}.*X7X2X_   p X > > > > > > > > > > > > > > > > > > > > > > > > v   f > X w o g.9X~.p *.;.4 q.D P P P P P P P P p :.V ;.=.a U.7Xa.  w   - g   ; > X X X X X @ @ X X @ @ X @ @ X X X X X X X X X w o #X9XQ V %.&.>.; t.p t ) 2XJ.t w.2X' r v y.o.&.P *.} m ;X3Xx     X X X X X @ X X X X X X X X X X X X X X X X = O q     @   a.7XU.a =.;.F :.p P P P P P P P P p :.K #.=., ~.7Xp.. 7     q   =               X                                   #   z (.7XuX+XW.V.(.*X-XqXw.#.",
"t...).0X=X8X<X1X#X(._ . + O   -                                                 @     #   + _ wX^.b =.3.t H &.-.P P P P P P P P P F R A 3.=.3 !.9Xz.  X       O X X X X X X X X X X X X X X X X X X X X X X X X 9   o &X9XR.) t } 9.* ] J.=X3X8.C 3 #X5XOX` = f > { i.P.3X7X3 6 X > > X   X @ X X @ X X X X @ X X X X X X X > > @ = X >   8 0.9X!.N =.4.A I K ;.P P P P P P P P P F J F 6.2.3 !.9Xr.X > @ ,   y > > > > > > > > > > > > > > > > > > > > > > > >   > >   o j d.).=X2XXXQ.1X$Xq T 4...).0X&X8X8X1X2X(.) O O , = ; > > > > > > > > > > > > > > > > > > > > > > > > @ = X , X 8 0.9X!.b *.2.F J F &.P P P P P P P P -.V I P 3.=.N !.9X0.8   > X = @ > X X X X @ @ @ X @ @ @ @ @ @ @ X X X X X X X X 7   o XX9XL.) t } / 5 ( J.5X2X/ P t &X5X|.I . #.< t 9.I.3X8X3 O X = = X   X X @ X X X X X X X X X X X X X X X X O     #   # _ 9X!.3 =.3.A H F #.P P P P P P P P #.&.H A 4.=.3 ^.9Xz O   #     X               X                                   X o   . 5 g./.3XXX#XQ.1X_.w y.",
"v +.e.0X~ 6 < . o . + +   o   6                                                   u     q ! uXW.: 8.;.p &.H 1 &.P P P P P P P P %.P P A P ;.K n W.9Xg.. o   9   X X X X X X X X X X X X X X X X X X X X X X X X X X X   I.4XuXXX^..X#X2XuX9XR.#.@.$.z.0X5XyX2X(._..X7X1X/.* 6 > X     X X X X > X X X X X X X X X X X X X X @ @   { X   a ~ pXW.1 I -.P P P F #.P P P P P P P P ;.K C V P 8.K c W.pX' + , X p   > > > > > > > > > > > > > > > > > > > > > > > > } X ; ; , e       C O ~ 0X` @.v c 7.` 0X~ 6 D # o   w > X : > O > > > > > > > > > > > > > > > > > > > > > > > >   { =   a ~ pXW.v I ;.F K H V =.P P P P P P P P %.A H K A &.I n (.pXW 8   X {   > X X X X X X @ X X @ X X @ @ X X X X X X X X X X > @   I.*XuXXX(.^.#X2XpX9XI.f 2.S g.0X4XiX#X(.OX.X5X0XE.$ 6 9   X X     X X X X X X X X X X X X X X X X X X X   u     q ~ pXU.F P ;.%.V H P &.P P P P P P P P %.1 H :.t ;.&.: W.uX! q     u                 O                                 0   - X   8 . . . g . l 0X8.#.L ",
"y.B p ).3X8   $ 9     -     O 8                                                 o @ 9 O h wX^., 2.o.t P T P K K P P P P P P P P #.&.P P R v V 3.t V.9X'   9 O # X X X X X X X X X X X X X X X X X X X X X X X X X     ,   - ~ E.'.oX).^ p.3X' c >.p 9.<X].x W..X).).C.3 o   8   @     X > X X X X X X X X X X X X X X X X X @ @ , @ 7 7 W wXL.s 4.p t H T P K F P P P P P P P P $.%.S H J 5 F 2.f L.9X'   w > - > > > > > > > > > > > > > > > > > > > > > > > > >   X r > X r t t X X 5X).} <.&.w.Z i ).5Xu = e u p = = 1     o.> > > > > > > > > > > > > > > > > > > > > > > > e @ w w ~ wXL.1 >.F 4 J Y S #. .P P P P P P P P K P P T H t o.3.s L.wXW 7 7 @ 4 > X X X X X X @ X X @ @ @ X X @ X X X X X X X X @ @   ,   - ~ E.'.XX)._ ^ 0Xr.v -.V / 2XD.k R.OX/.).a.5 o 6 [   X X X X X X X   X X X X X X X X X X X X X X X X o > X   _ pXV.f 3.p V T P K P H P P P P P P P P P A P I T 1 #.*., !.wXj O 9 @ o X             O                                 a       O O O   7   + 5X.Xg ;.( ",
"L ] q.3 7XQ.. . O X     7 O                                               X         . _ pXL.s -.%.%.:.K V P P &.P P P P P P P P &.A %.K n T %.{ o.I V.9Xx..     X X X X X X X X X X X X X X X X X X X X X X X X 9 e     = X   . .   O . -X.X1 C v Y %.' 7Xk .   . .   [ O 1   # > X X > > X X X X X X X X X X @ X @ X X X X @ @ @ o   0.pXL.4 ;.o.;.:.1 F I V w.P P P P P P P P ;.p %.P n ( ,.{ %.s L.tXr.    @ > > > > > > > > > > > > > > > > > > > > > > > > = < w 9 7 > <   ; % E.7Xd =.J | , ` e.m uXR.. , @ > ; < 7 7 r = > > > > > > > > > > > > > > > > > > > > > > > > 7 =   _ pXL.s &.Z &.:.F P &.p ;.P P P P P P P P ;.B I P F ,.;.A &.4 L.pX0.  o @ > X X X @ @ X @ X X X X X X X X X X X X X X X X 9 e     = X   . . O   . -X.X: S c P *.P.uXx . 8 . .   w   =   o X X X > @ X     X X X X X X X X X X X X X X X X @   . 0.9XL.F %.o.&.:.F K %.A &.P P P P P P P P :.P &.1 P :.%.#.&.4 L.uX/ . o   X             O                                     O 6 O O ,     o ^.7XF &.K &.",
"1.p B @.J 0XI.X +         O                                               X X X =   p.9X(.s #.%.M P A -.&.K &.A P P P P P P P P V :.A P &.A K &.-.#.s L.0Xh.  > X X X X X X X X X X X X X X X X X X X X X X X X o   y 7   o X y + = 7 ' 0X] o.2.&.*.O.| 4X/.O < y X =   @ X > X X X X     X > > @ X X X X X X @ @ @ X X X @ > @ >   j.0XW.f %.#.H F K ;.K F ;.o.P P P P P P P P D &.f $.P D P &.P #.e W.0Xa.@ w > > > > > > > > > > > > > > > > > > > > > > > = > > , X ; ; X y } c.0X` X.V f Z 1.t < @.] 0XI.X y = ; = @ u > = > > > > > > > > > > > > > > > > > > > > > > > > r X a.0XW.f *.K I P X.-.F s &.Z P P P P P P P P o.&.V K ;.K F H A %.s U.0Xj.O < > X X X X X X @ X X X X @ X X X X X X X X X X X o   w @ o o @ y . > 7 a.9XQ P 4.J =.+.B 3X/.O = [   - O 6   > X X     X X     X X X X X X X X X X X X X X X X X 9 + a.0XW.t #.H T F V &.#.#.,.A P P P P P P P P A &.V ;.#.#.H H %.P t (.9Xp.  > X             O                                 7             @ 6 x.1X) } A ; 7.",
"L.U.I.K.B.&XyX%                                                 0   X 7   .   < & _ 7X!.: 2.-.M P P P P P P P P P P P P P P P P P P P P P P P P H #.;.: !.7Xg.$ [ O   # @   : O X X X X X X X X X X X X X X X X X X X X X X X X X + x 9X!.7 2.N &.#.;.F r.yXg.$ X X X X X X X X X X X X X X X @ @ @ X X X @ @ @ [   - >   , X r & _ 7X!.; 2.-.H P P P P P P P P P P P P P P P P P P P P P P P P K *.3.1 !.7Xg.$ u X ; > w > < 9 > > > > > > > > > > > > > > > > > > > > > > > > 5 yX&XB.I.I.U.L.L.I.I.I.B.*XyX2 > > > > > > > > > > > > > > > > > > > > > > > > 9 = < 7 > < X i & ^ 7X!.1 3.%.v P P P P P P P P P P P P P P P P P P P P P P P P J 2.2.< ^.0Xa.. < # #   > =   [ X X X X X X @ @ X X X X X X X X X X X X X X X @ O % x uXU.A -.J P #.$.L r.uX~ $ X X X X X X X X X X X X X X X X X X X X X X X X O :   @ o   O y $ p.8X!.1 4.*.H P P P P P P P P P P P P P P P P P P P P P P P P n %.*.; !.7X_ & >   o   O =   [                                                 2 yXXXN.Y.Y.U.L.",
"#X&X=X5X#X'.T..                                                   O     7 e     ' tXU.m &.A &.F P P P P P P P P P P P P P P P P P P P P P P P P P &.A K 4 U.uXg.  o   w   8 O = X X X X X X X X X X X X X X X X X X X X X X X X @ X XX.X3 *.2.p C P C c : U.yXQ X X X X X X X X X X X X X X X @ X X X X @ @ @ @ o @ > X f   -   g.tXU.N I p &.F P P P P P P P P P P P P P P P P P P P P P P P P P &.B P 4 U.uXg.  - o , = p O : > > > > > > > > > > > > > > > > > > > > > > > > % R.'.$X3X=X&X#X#X&X=X=X$X$XR.$ > > > > > > > > > > > > > > > > > > > > > > > > - O > < w X 3   d.tXU.b P o.&.H P P P P P P P P P P P P P P P P P P P P P P P P C &.| &.m U.tXg.  - @ u X   7 X X X X X X X @ @ X X X X X X X X X X X X X X X @ > o 4X.X- -.O.{ H P %.H ; Y.yX5 X X X X X X X X X X X X X X X X X X X X X X X X = O 8   8   - O g.uXL.3 P p &.H P P P P P P P P P P P P P P P P P P P P P P P P F &.A I N U.rX_       9     6                                                   $ T.$X#X3X=X&X$X",
"# O O O . . 6 0                                                 =   +     6 # ! 7XU.5 =.;.V ,.o.P P P P P P P P P P P P P P P P P P P P P P P P p :.c &.=.a U.8Xa.. @     6 u X X X X X X X X X X X X X X X X X X X X X X X X X @ ~.7X~ d ( N y.L q.I G e.5  X-X@ X X X X X X X X X X X X X X X X X X X X X @ X - X < ,   y   a.7XU.a =.;.V q.K P P P P P P P P P P P P P P P P P P P P P P P P V :.v ;.4.a U.7Xg.  u X > y > = > > > > > > > > > > > > > > > > > > > > > > > > } i > > 7 7 w < r w 7 7 > < i [ > > > > > > > > > > > > > > > > > > > > > > > > ; > p X > w   ' 7XU., =.;.A :.A P P P P P P P P P P P P P P P P P P P P P P P P D ( 4 9.*.t U.7Xp.  w   o t   ; X X X X X X @ @ X X X X X X X X X X X X X X X X X  X2X! / I e.8.G &.I L ` Q oX-XX X X X X X X X X X X X X X X X X X X X X X X X X u 0 X   @   g.7XU.e =.;.V q.V P P P P P P P P P P P P P P P P P P P P P P P P A :.V ;.=.4 U.7Xp.. 6     q   =                                                 6 6     O O O @ ",
"X   @         O                                                 7     #   O z 9X!.N =.=.A H K ;.P P P P P P P P P P P P P P P P P P P P P P P P %.F H A 3.=.: L.0Xr.  = X     7 X X X X X X X X X X X X X X X X X X X X X X X X . E.0X=X9X<X1X=X0X$X0X3X3X=X=X1X> X X X X X X X X X X X X X X X X X X X X X X X >   o . , @ 9.0X!.b =.4.A H F ;.P P P P P P P P P P P P P P P P P P P P P P P P %.H H A t.=.3 !.0Xr.  < ,   X r > > > > > > > > > > > > > > > > > > > > > > > > >   ; ; > r = = = = r < ; ; X > > > > > > > > > > > > > > > > > > > > > > > > > r     e = w 0.0XL.3 =.3.P I V &.P P P P P P P P P P P P P P P P P P P P P P P P <.F J F 2.*.b L.0X/ 7 o #   X @ X X X X X X X X X X X X X X X X X X X X X X X X . ).0X=X3X3X3X#X0X3X0X=X0X1X$X$XX X X X X X X X X X X X X X X X X X X X X X X X 7     @ ,   r.0X!.: =.t.A R H P P P P P P P P P P P P P P P P P P P P P P P P P -.V H A 4.=.N !.0Xz 6         @                                                           #     ",
".   #     # + +                                                   7     q h 7X(.: I ;.P P H V %.P P P P P P P P P P P P P P P P P P P P P P P P P H H A P ;.P s U.7X' . X   w   X X X X X X X X X X X X X X X X X X X X X X X X [ X I 8.( ( ` ` ` ( ( e.m ` r.  > X X X X X X X X X X X X X X X X X X X X X X X   |   X @ ~ 7XU.1 I ;.#.P H F P P P P P P P P P P P P P P P P P P P P P P P P P %.K H V P ;.K n R.7X' @ ,   u > > > > > > > > > > > > > > > > > > > > > > > > > p , ,   X e   , ,   e X   4 , g > > > > > > > > > > > > > > > > > > > > > > > > @ p   o e Q pXL.1 &.-.A F H A %.P P P P P P P P P P P P P P P P P P P P P P P P $.V H H P 8.I ; U.9Xh e     p   X X X X X X X X X X X X X X X X X X X X X X X X 7 u &.` G 8.` ] ( ) ) ` ) e.' - X X X X X X X X X X X X X X X X X X X X X X X X X 8   X + ' 7XU.n K &.P A H K %.P P P P P P P P P P P P P P P P P P P P P P P P %.A P P P -.P : U.9Xh q     u                                                   + . * . . & . * ",
"          X                                                       8 O + h 0X^.e 2.#.t H I P K K P P P P P P P P P P P P P P P P P P P P P P P P F P P H J c o.4.s V.9X_   t   o X X X X X X X X X X X X X X X X X X X X X X X X X @       +       #         # a X X X X X X X X X X X X X X X X X X X X X X X X , O } @ W 0XD.B 3.#.V H I P P K P P P P P P P P P P P P P P P P P P P P P P P P K %.#.H H v F 3.c C.9X' O } w q > > > > > > > > > > > > > > > > > > > > > > > > = > > > < <   < r   < < = < > = > > > > > > > > > > > > > > > > > > > > > > > > # r i @ ~ 9XC.V 3.#.V H I P K K P P P P P P P P P P P P P P P P P P P P P P P P $.%.S Y J 4 F -.t V.0XQ w u # ; X X X X X X X X X X X X X X X X X X X X X X X X X ,     , O O   #       O   O # X X X X X X X X X X X X X X X X X X X X X X X X o   t   _ 9XV.g 3.A c H I P %.#.P P P P P P P P P P P P P P P P P P P P P P P P K K P I H t o.2.s V.0Xj 6 9   o                                                         X     @ ",
"w X X   O O   @                                                 O   . z 7X^.- ;.#.,.:.t F P V :.P P P P P P P P P P P P P P P P P P P P P P P P &.t &.P c :.:.{ %.L V.7Xz..     X X X X X X X X X X X X X X X X X X X X X X X X   ,   > @ 9 } @ =   1 X = 1     X X X X X X X X X X X X X X X X X X X X @ @ X @   o   0.9XD., >.A ,.:.t F &.A ,.P P P P P P P P P P P P P P P P P P P P P P P P :.p ;.I n ` ,.{ S G B.7Xu.  ; @ > > > > > > > > > > > > > > > > > > > > > > > > > @ w w > > @ r w > > > w w @ > > > > > > > > > > > > > > > > > > > > > > > > > 7 X X 0.7XV.d %.p ;.q.F P &.A ;.P P P P P P P P P P P P P P P P P P P P P P P P ,.A &.A 1 :.,.o.,., V.tX0.. o   X X X X @ @ X @ X X X X X X X X X X X X X X X X X   t X @ O 7 w >   : X @ e ,   X X X X X X X X X X X X X X X X X X X X X X X X X   . z.5XV.L %.p ,.:.V P &.p ;.P P P P P P P P P P P P P P P P P P P P P P P P &.B P F t ,.w.#.,.4 V.9Xz .                                                     @   O O     O e ",
". . .   o . . .                                                 @   ! 3XW.s ,.%.M H #.-.P K :.p P P P P P P P P P P P P P P P P P P P P P P P P #.;.#.#.P F I H H A L U.3Xa.  y X X X X X X X X X X X X X X X X X X X X X X X X   # X X X     X X X   #   @ X , X X X X X X X X X X X X X X X X @ X X X X @ @ @ >   p.0XW.A >.f M H K -.P K ;.p P P P P P P P P P P P P P P P P P P P P P P P P K &.P #.P F P K L o.o.U.3Xa.o r > > > > > > > > > > > > > > > > > > > > > > > > = = < > = ; 1 X X < ; = > < = ; > > > > > > > > > > > > > > > > > > > > > > > > r @ p.<XU.o.-.$.H H K &.F K ,.o.P P P P P P P P P P P P P P P P P P P P P P P P Z :.G L -.o.P J f >.A W.3X~   > X X X X @ @ @ @ X X X X X X X X X X X X X X X X + X   @ 8 o   o O # o   7 9 O = X X X X X X X X X X X X X X X X X X X X X X X X y   a.<XK.| #.P H %.o.#.K F &.A P P P P P P P P P P P P P P P P P P P P P P P P A :.K #.;.#.F M A ;.f U.3X~   >                                                             o   ",
"                                                0 X = O   .   X + ~ 3XL.; 2.%.m P P P P P P P P P P P P P P P P P P P P P P P P P P P P P P P P P P P P P P P P P o.*.: L.8X~ $ [ X   O X   =   X X X X X X X X X X X X X X X X X X X X X X X X X X X X X X X X X X X X X X X X X X X X X X X X 6 - X w X %   w + ~ 3X!.; 2.-.G P P P P P P P P P P P P P P P P P P P P P P P P P P P P P P P P P P P P P P P P L *.+.= !.3X~ $ } w o = r   : 7 > > > > > > > > > > > > > > > > > > > > > > > > > > > > > > > > > > > > > > > > > > > > > > > > 9 - , w > :   r & ~ 8X!., 3.%.M P P P P P P P P P P P P P P P P P P P P P P P P P P P P P P P P P P P P P P P P L *.2.; !.3X~ . > X ,   @ ; X [ X X X X X X X X X X X X X X X X X X X X X X X X X X X X X X X X X X X X X X X X X X X X X X X X O ; X 7     @ y . ~ 3XL.< 2.*.G P P P P P P P P P P P P P P P P P P P P P P P P P P P P P P P P P P P P P P P P M %.2.: !.8X~ & X X o   O = o [                                                 ",
"                                                X O     8 @   . ! rXL.N &.#.;.C P P P P P P P P P P P P P P P P P P P P P P P P P P P P P P P P P P P P P P P P K :.P I : J.tXg.  -   X X u   ; X X X X X X X X X X X X X X X X X X X X X X X X X X X X X X X X X X X X X X X X X X X X X X X X = O X = ,   m   _ rXY.b &.f &.A P P P P P P P P P P P P P P P P P P P P P P P P P P P P P P P P P P P P P P P P V &.P I 3 J.rXg.  : X , = Z O 3 > > > > > > > > > > > > > > > > > > > > > > > > > > > > > > > > > > > > > > > > > > > > > > > > - O r = w X N   ^ rXL.b &.{ %.V P P P P P P P P P P P P P P P P P P P P P P P P P P P P P P P P P P P P P P P P A &.F I n U.rX~   : X u     O X X X X X X X X X X X X X X X X X X X X X X X X X X X X X X X X X X X X X X X X X X X X X X X X X ; O u X @   -   g.tXY.: L p &.H P P P P P P P P P P P P P P P P P P P P P P P P P P P P P P P P P P P P P P P P A %.p I b Y.rX~ .   @ 8     6                                                   ",
"                                                =   +     6 + ! 3XL.t -.w.s q.Z P P P P P P P P P P P P P P P P P P P P P P P P P P P P P P P P P P P P P P P P K :.: &.=.f I.2Xa.. w X @ 6 X X X X X X X X X X X X X X X X X X X X X X X X X X X X X X X X X X X X X X X X X X X X X X X X X X = > w o   w   j.3XY.< *.w.s q.Z P P P P P P P P P P P P P P P P P P P P P P P P P P P P P P P P P P P P P P P P S T 3 $.2.p U.2Xa.  p   = y r   > > > > > > > > > > > > > > > > > > > > > > > > > > > > > > > > > > > > > > > > > > > > > > > > - < r X   i   g.2XL., =.-.V q.F P P P P P P P P P P P P P P P P P P P P P P P P P P P P P P P P P P P P P P P P D q.4 8.*.i U.3X^   y   - a   ; X X X X X X X X X X X X X X X X X X X X X X X X X X X X X X X X X X X X X X X X X X X X X X X X X @ O X X w . a.3XY.t *.9.4 q.B P P P P P P P P P P P P P P P P P P P P P P P P P P P P P P P P P P P P P P P P o.,.V ;.=.4 Y.2X! + O     +   =                                                 ",
"                                                O         8 z 3XL.N ;.2.p G F -.P P P P P P P P P P P P P P P P P P P P P P P P P P P P P P P P P P P P P P P P K H R A 3.=.: V.3X_   w X     > X X X X X X X X X X X X X X X X X X X X X X X X X X X X X X X X X X X X X X X X X X X X X X X X @   = # o   0.3XL.b ;.4.f I F >.P P P P P P P P P P P P P P P P P P P P P P P P P P P P P P P P P P P P P P P P %.F ) F 4.2.b L.3Xr.X , #   = w > > > > > > > > > > > > > > > > > > > > > > > > > > > > > > > > > > > > > > > > > > > > > > > > r   - # < @ 9.3XV.b ;.4.A H F ;.P P P P P P P P P P P P P P P P P P P P P P P P P P P P P P P P P P P P P P P P %.F J s 2.2.b L.3X/ O , X -   @ X X X X X X X X X X X X X X X X X X X X X X X X X X X X X X X X X X X X X X X X X X X X X X X X w     @ ,   0.3XV.: 2.3.f J H P P P P P P P P P P P P P P P P P P P P P P P P P P P P P P P P P P P P P P P P P ;.K I A 3.;.b V.3Xz q         O                                                 ",
"                                                  9     q j 5XL.; I w.L C H K ;.P P P P P P P P P P P P P P P P P P P P P P P P P P P P P P P P P P P P P P P P K P I A K ;.I n I.3X_ 6 X   u   X X   X X X X X X X X X X X X X X X X X X X X X X X X X X X X X X X X X X X X X X X X X X X X X   f   = O ~ 5XK.; &.w.L K H V K P P P P P P P P P P P P P P P P P P P P P P P P P P P P P P P P P P P P P P P P L A Y K F 8.I < L.5X_ @ ; o e = > > > > > > > > > > > > > > > > > > > > > > > > > > > > > > > > > > > > > > > > > > > > > > > > X |   , @ W 7XJ.1 &.;.K H H F K P P P P P P P P P P P P P P P P P P P P P P P P P P P P P P P P P P P P P P P P L V H C L 8.&.; L.7X~ + >   {   X X X X X X X X X X X X X X X X X X X X X X X X X X X X X X X X X X X X X X X X X X X X X X X X o e X X O _ 5XK.; L 8.F V H P $.P P P P P P P P P P P P P P P P P P P P P P P P P P P P P P P P P P P P P P P P #.F H K P w.&.: U.5Xj q     7                                                   ",
"                                                  8 6 6 j <XL.g 1.#.s J Y Y P L P P P P P P P P P P P P P P P P P P P P P P P P P P P P P P P P P P P P P P P P #.%.P P J M K 2.f J.9X~ O y     X X   X X X X X X X X X X X X X X X X X X X X X X X X X X X X X X X X X X X X X X X X X X X X @ > # u   W 0XB.F 2.| a G Y U K G P P P P P P P P P P P P P P P P P P P P P P P P P P P P P P P P P P P P P P P P $.%.Z H J m L +.O.B.0X_ X p X - > > > > > > > > > > > > > > > > > > > > > > > > > > > > > > > > > > > > > > > > > > > > > > > > , e i   _ 0XB.B 4.o.t H I P P K P P P P P P P P P P P P P P P P P P P P P P P P P P P P P P P P P P P P P P P P L #.O.Y m 4 L 2.e V.3Xh O } X , X X X X X X X X X X X X X X X X X X X X X X X X X X X X X X X X X X X X X X X X X X X X X X X X     y   _ 7XN.| 6.F 4 J Y 7.%. .P P P P P P P P P P P P P P P P P P P P P P P P P P P P P P P P P P P P P P P P K P P I H V #.3.s L.<Xj 6 6 #                                                   ",
"                                                    + x 5XL.- ;.o.,.q.V K P B &.P P P P P P P P P P P P P P P P P P P P P P P P P P P P P P P P P P P P P P P P P p ,.&.: H &.o.K f N.5X0.. - 7 X X X X X X X X X X X X X X X X X X X X X X X X X X X X X X X X X X X X X X X X X X X X X X X X @   . _ 4XL.s :.A &.&.t K P V ,.P P P P P P P P P P P P P P P P P P P P P P P P P P P P P P P P P P P P P P P P &.A ,.P : J ;.*.S s N.5Xr.  : # > > > > > > > > > > > > > > > > > > > > > > > > > > > > > > > > > > > > > > > > > > > > > > > > 9 X   e.5XV.d <.o.;.&.1 F &.A ,.P P P P P P P P P P P P P P P P P P P P P P P P P P P P P P P P P P P P P P P P ,.A %.K 1 T :.o.;.- V.5X/   : X X X X X X X X X X X X X X X X X X X X X X X X X X X X X X X X X X X X X X X X X X X X X X X X X @ o . 0.5XN.s P A ,.q.F H :.p ;.P P P P P P P P P P P P P P P P P P P P P P P P P P P P P P P P P P P P P P P P ,.V P F t :.,.o.;.- L.3Xz +                                                     ",
"                                                >   k 3XU.t ;.A m C X.-.L s &.Z P P P P P P P P P P P P P P P P P P P P P P P P P P P P P P P P P P P P P P P P K P p %.&.K P P P V =.I.#Xa.6 w X X X X X X X X X X X X X X X X X X X X X X X X X X X X X X X X X X X X X X X X X X X X X X X X w   ^ #XU.o.o.G N V Z 6.;.d &.Z P P P P P P P P P P P P P P P P P P P P P P P P P P P P P P P P P P P P P P P P D &.g $.,.S K L ) S O.J.$Xg.  y > > > > > > > > > > > > > > > > > > > > > > > > > > > > > > > > > > > > > > > > > > > > > > > > w @ ^ $XU.i %./ M F K ,.P V ;.{ P P P P P P P P P P P P P P P P P P P P P P P P P P P P P P P P P P P P P P P P D &.f $.,.S A L #.;.s L.3X~   > X X X X X X X X X X X X X X X X X X X X X X X X X X X X X X X X X X X X X X X X X X X X X X X X y   j.#XK.| A I G P X.*.I G &.O.P P P P P P P P P P P P P P P P P P P P P P P P P P P P P P P P P P P P P P P P A &.V #.;.#.H M A ;.s U.3Xk   >                                                 ",
"                                0     @   . X @ + l 3XV.; 2.%.N P P P P P P P P P P P P P P P P P P P P P P P P P P P P P P P P P P P P P P P P P P P P P P P P P P P P P P P P L *.+.; L.3X~ . y X   o 7   ; O X X X X X X X X X X X X X X X X X X X X X X X X X X X X X X X X 6 5   w =   , w + ! 2XV.; 1.#.J P P P P P P P P P P P P P P P P P P P P P P P P P P P P P P P P P P P P P P P P P P P P P P P P P P P P P P P P L *.1.= L.3X~ $ Z @   = r = : @ > > > > > > > > > > > > > > > > > > > > > > > > > > > > > > > > @ 3 X w = X w y & ~ <XV.= 2.2.L P P P P P P P P P P P P P P P P P P P P P P P P P P P P P P P P P P P P P P P P P P P P P P P P P P P P P P P P L 2.2.= V.<X! . > @   X @ X - 0 X X X X X X X X X X X X X X X X X X X X X X X X X X X X X X X X O -   7     X y $ ! 2XL.; 2.*.P P P P P P P P P P P P P P P P P P P P P P P P P P P P P P P P P P P P P P P P P P P P P P P P P P P P P P P P P M -.3.: V.2X! & @   .   O   o 0                                 ",
"                                o 6     7       k 4XY.N &.f &.K P P P P P P P P P P P P P P P P P P P P P P P P P P P P P P P P P P P P P P P P P P P P P P P P P P P P P P P P B &.P I : J.eXg.  :   X   u O - X X X X X X X X X X X X X X X X X X X X X X X X X X X X X X X X 3 O r = # X X   ~ 4XJ.b 8.#.&.C P P P P P P P P P P P P P P P P P P P P P P P P P P P P P P P P P P P P P P P P P P P P P P P P P P P P P P P P r &.L 8.3 J.eXp.  : = > = t O : > > > > > > > > > > > > > > > > > > > > > > > > > > > > > > > > b O B = w , - O _ eXJ.b 8.#.&.V P P P P P P P P P P P P P P P P P P P P P P P P P P P P P P P P P P P P P P P P P P P P P P P P P P P P P P P P V &.#.8.b J.eX~   : X w = X O : X X X X X X X X X X X X X X X X X X X X X X X X X X X X X X X X - O w   X   :   ~ 4XJ.3 q.%.&.t P P P P P P P P P P P P P P P P P P P P P P P P P P P P P P P P P P P P P P P P P P P P P P P P P P P P P P P P F %.p &.N L.eX!       O o   6 -                                 ",
"                                    .     O q k #XY.1 -.9.s ;.X.P P P P P P P P P P P P P P P P P P P P P P P P P P P P P P P P P P P P P P P P P P P P P P P P P P P P P P P P S T 3 8.4.p J.#Xp.. y     8 8 X X X X X X X X X X X X X X X X X X X X X X X X X X X X X X X X X   r X o   w # ~ #XY.V ;.9., ;.O.P P P P P P P P P P P P P P P P P P P P P P P P P P P P P P P P P P P P P P P P P P P P P P P P P P P P P P P P S T 3 8.2.p J.#Xa.  Z X o w r = > > > > > > > > > > > > > > > > > > > > > > > > > > > > > > > >   Z @ = X r > ^ &XJ.p 3.=.2 I S P P P P P P P P P P P P P P P P P P P P P P P P P P P P P P P P P P P P P P P P P P P P P P P P P P P P P P P P S T - ;.3.A P.&Xp.. p     # > X X X X X X X X X X X X X X X X X X X X X X X X X X X X X X X X X X 8 +     p . p.`.Y.g =.;.v T K P P P P P P P P P P P P P P P P P P P P P P P P P P P P P P P P P P P P P P P P P P P P P P P P P P P P P P P P #.;.t ;.=.4 Y.<X! + 6     . #                                   ",
"                                O   o     8 z #XL.b *.2.K I F -.P P P P P P P P P P P P P P P P P P P P P P P P P P P P P P P P P P P P P P P P P P P P P P P P P P P P P P P P %.F J P 4.2.3 V.#X_   > #     @ X X X X X X X X X X X X X X X X X X X X X X X X X X X X X X X X X X o . X O 9.$X!.b #.2.L ( K #.P P P P P P P P P P P P P P P P P P P P P P P P P P P P P P P P P P P P P P P P P P P P P P P P P P P P P P P P <.F J F 4.*.3 L.#X0.  : , = = w > > > > > > > > > > > > > > > > > > > > > > > > > > > > > > > > w = , # ; @ 0.$XL.: *.2.F ) F &.P P P P P P P P P P P P P P P P P P P P P P P P P P P P P P P P P P P P P P P P P P P P P P P P P P P P P P P P %.F ( F 2.*.4 L.#X0.O X X o - X X X X X X X X X X X X X X X X X X X X X X X X X X X X X X X X X 7     # ,   0.#XV.4 =.4.A R H &.P P P P P P P P P P P P P P P P P P P P P P P P P P P P P P P P P P P P P P P P P P P P P P P P P P P P P P P P ;.K H A 4.=.b V.#Xz 6     o   O                                 ",
"                                  7     q j 2XK.v I ;.f H Y F $.P P P P P P P P P P P P P P P P P P P P P P P P P P P P P P P P P P P P P P P P P P P P P P P P P P P P P P P P $.K H V s 8.I c H.2XW O X X w   X X X X X X X X X X X X X X X X X X X X X X X X X X X X X X X X > @   =   W &XK.v L =.f P T K L P P P P P P P P P P P P P P P P P P P P P P P P P P P P P P P P P P P P P P P P P P P P P P P P P P P P P P P P $.A H S F 8.I < J.2X_ O < = t > > > > > > > > > > > > > > > > > > > > > > > > > > > > > > > > > ; > X 1 7 _ &XI.v I ;.F K Y K #.P P P P P P P P P P P P P P P P P P P P P P P P P P P P P P P P P P P P P P P P P P P P P P P P P P P P P P P P #.A Y H f ;.I v K.&Xh O ,   7 X X X X X X X X X X X X X X X X X X X X X X X X X X X X X X X X X   e X = + _ &XH.1 I ;.K K P V #.P P P P P P P P P P P P P P P P P P P P P P P P P P P P P P P P P P P P P P P P P P P P P P P P P P P P P P P P P A I P A ;.&.1 K.2Xj &     O                                   ",
"                                    O 6 j 3XV.f 1.#.s I Y U K L P P P P P P P P P P P P P P P P P P P P P P P P P P P P P P P P P P P P P P P P P P P P P P P P P P P P P P P P $.#.Z H J m L +.#.N.5X_   y     X X X X X X X X X X X X X X X X X X X X X X X X X X X X X X X X o # 7   W =XB.C +.#.L ( H D K 8.P P P P P P P P P P P P P P P P P P P P P P P P P P P P P P P P P P P P P P P P P P P P P P P P P P P P P P P P $.%.Z H J m L +.%.N.3XW   p X = > > > > > > > > > > > > > > > > > > > > > > > > > > > > > > > > = = > X _ =XK.o.O.K G ( C D P 9.P P P P P P P P P P P P P P P P P P P P P P P P P P P P P P P P P P P P P P P P P P P P P P P P P P P P P P P P 9.P D H ( G L O.L C.3XW O }     X X X X X X X X X X X X X X X X X X X X X X X X X X X X X X X X     y   W 5XN. .*.K M R P A #.%.P P P P P P P P P P P P P P P P P P P P P P P P P P P P P P P P P P P P P P P P P P P P P P P P P P P P P P P P K K K I I V o.*.L C.3Xh O O #                                   ",
"                                X   + x 2XV.X ;.o.;.w.F K K t :.P P P P P P P P P P P P P P P P P P P P P P P P P P P P P P P P P P P P P P P P P P P P P P P P P P P P P P P P P A ,.:.c J &.*.%.s N.2X0.. - @ X X X X X X X X X X X X X X X X X X X X X X X X X X X X X X X X 8 X   ) &XV.4 S #.;.&.t P &.B &.P P P P P P P P P P P P P P P P P P P P P P P P P P P P P P P P P P P P P P P P P P P P P P P P P P P P P P P P &.A ,.P 1 J &.*.&.s C.2X0.  ; > > > > > > > > > > > > > > > > > > > > > > > > > > > > > > > > > e ; X ( &XK.5 S %.&.I 1 P &.A ;.P P P P P P P P P P P P P P P P P P P P P P P P P P P P P P P P P P P P P P P P P P P P P P P P P P P P P P P P &.A :.P t I &.%.#.G C.&X0.  : @ X X X X X X X X X X X X X X X X X X X X X X X X X X X X X X X X @ o   0.2XN.s %.*.&.H 1 P ,.A &.P P P P P P P P P P P P P P P P P P P P P P P P P P P P P P P P P P P P P P P P P P P P P P P P P P P P P P P P w.B P K V :.&.p %.- V.&Xz q   #                                 ",
"                                X   k #XK.s ;.A J V Z -.$.L :.Z P P P P P P P P P P P P P P P P P P P P P P P P P P P P P P P P P P P P P P P P P P P P P P P P P P P P P P P P S &.f $.<.D K &.I K | H.$Xa.  7 X X X X X X X X X X X X X X X X X X X X X X X X X X X X X X X X w   ~ $XK.o.O./ J V Z ,.$.d &.Z P P P P P P P P P P P P P P P P P P P P P P P P P P P P P P P P P P P P P P P P P P P P P P P P P P P P P P P P D &.g $.,.S S L J S #.H.$X^   y > > > > > > > > > > > > > > > > > > > > > > > > > > > > > > > > y   ^ $XK.Z S ) J A Z -.$.G I D P P P P P P P P P P P P P P P P P P P P P P P P P P P P P P P P P P P P P P P P P P P P P P P P P P P P P P P P D I G $.6.Z A ) ,.#.F J.$X~   > X X X X X X X X X X X X X X X X X X X X X X X X X X X X X X X X 7   a.$XJ.$.K H P K K ,.#.p &.K P P P P P P P P P P P P P P P P P P P P P P P P P P P P P P P P P P P P P P P P P P P P P P P P P P P P P P P P A &.K %.;.p F R #.&.f K.#Xk   X                                 ",
"                6 o             . h #XL.; +.#.G P P P P P P P P P P P P P P P P P P P P P P P P %.%.P P %.%.I I P P P P P P P P P P P P K K I I P P P P P P P P P P P P P P P P P P P P P P P P L 3.+.; L.#X! $ 7 8 o   @ X : O X X X X X X X X X X X X X X X X O :   7   o 8 w & k #XV.< 2.#.m P P P P P P P P P P P P P P P P P P P P P P P P A %.%.K K K K K I @.H Q ( *.#.G &.A &.P V I P %.P P P P P P P P P P P P P P P P P P P P P P P P F 3.+.; V.#X~ $ y u = = w X b 7 > > > > > > > > > > > > > > > > 9 4 > w ; X e w o k #XL.; 5.*./ P P P P P P P P P P P P P P P P P P P P P P P P %.P P P P P I I P P P P P P P P %.%.#.P P P &.&.P P P P P P P P P P P P P P P P P P P P P P P P L 2.+.v L.`.! $ 7 w X X 7   : O X X X X X X X X X X X X X X X X O : X X   o w 9 . ! `.V.; +.3.L P P P P P P P P P P P P P P P P P P P P P P P P H P P K #.$.P H &.%.M N q.#.A / %.P &.K L I t %.P P P P P P P P P P P P P P P P P P P P P P P P M #.*.: V.`.j & O o     O   2 6                 ",
"                o O X X + . o   k *XJ.b 8.K &.A P P P P P P P P P P P P P P P P P P P P P P P P P P %.%.I P F s P P P P P P P P K P P P P K K F P P P P P P P P P P P P P P P P P P P P P P P P V %.L &.3 J.*X~   -   @ X u O : X X X X X X X X X X X X X X X X : O u - @   o   ! *XN.b q.#.&.V P P P P P P P P P P P P P P P P P P P P P P P P P K K K &.&.P K p I X.&.$XB.Z &.P P %.%.&.P K %.P P P P P P P P P P P P P P P P P P P P P P P P B %.P 8.3 J.*X~ X = > w = Z O 4 > > > > > > > > > > > > > > > > : O r < X , - O ! *XJ.3 &.P &.K P P P P P P P P P P P P P P P P P P P P P P P P K P P P I K F F P P P P P P P P K P P P P K F F P P P P P P P P P P P P P P P P P P P P P P P P A &.P q.3 J.*X!       @ = p O 3 X X X X X X X X X X X X X X X X : O e X @   -   ~ *XJ.3 I F %.V P P P P P P P P P P P P P P P P P P P P P P P P P K K P &.&.P K F F @.q.$XK.*.C A P %.P F &.&.A P P P P P P P P P P P P P P P P P P P P P P P P F &.#.&.3 N.*Xh   . . O   y O 2                 ",
"                  ,       0 . ! '.J.F 2.$.- :.+.P P P P P P P P P P P P P P P P P P P P P P P P K K K P P I &.&.P P P P P P P P %.P P P P %.%.%.P P P P P P P P P P P P P P P P P P P P P P P P %.H 3 $.4.#.J.#Xp.. y     8 8   X X X X X X X X X X X X X X X X X w 6 X X y   ~ '.Y.F ;.=.4 :.O.P P P P P P P P P P P P P P P P P P P P P P P P &.K K P %.P P A &.O.P OXA.$XN.Z P &.P P &.%.K K P P P P P P P P P P P P P P P P P P P P P P P P <.J 3 $.3.#.J.`.^ = w X = @ Z   > > > > > > > > > > > > > > > > X < r   = y @ _ '.J.Z 4.$.2 ( S P P P P P P P P P P P P P P P P P P P P P P P P K K L K I I &.&.P P P P P P P P P P P P P P I P P P P P P P P P P P P P P P P P P P P P P P P P O.I 4 L *.#.J.`.~ . @ X = O u   X X X X X X X X X X X X X X X X   8 8     y . p.`.J.#.2.$.3 H <.P P P P P P P P P P P P P P P P P P P P P P P P &.F K P P P P #.L 5.$.).D.$Xg.D &.%.A P P I &.A P P P P P P P P P P P P P P P P P P P P P P P P #.:.< #.9.d Y.'.~ . O       ,                   ",
"                @   %     O z $XV.3 *.2.F ( F *.P P P P P P P P P P P P P P P P P P P P P P P P P P P K F A P %.P P P P P P P P P A A K K P %.%.P P P P P P P P P P P P P P P P P P P P P P P P %.c ` F 2.*.: L.$X_   , X   X 7 X X X X X X X X X X X X X X X X 7 =   @ ,   _ /.V.3 *.2.L ( K *.P P P P P P P P P P P P P P P P P P P P P P P P I K P %.A A %.%.%.Z E.E.X ' $X` F K &.P #.&.K P P P P P P P P P P P P P P P P P P P P P P P P P <.n ` F 2.2.- V.$X( @ 1 # X = i > > > > > > > > > > > > > > > > r ;   , < X 9.%XL.4 +.2.d ) F S P P P P P P P P P P P P P P P P P P P P P P P P P P P K K K P %.P P P P P P P P P K K K K P P P P P P P P P P P P P P P P P P P P P P P P P P P %.c ` s 2.2.: L.$X)   > o o   w X X X X X X X X X X X X X X X X 7 X   X ,   _ $XV.- *.4.F ` c %.P P P P P P P P P P P P P P P P P P P P P P P P %.P P P A V %.-.-.t E.E.O g.$Xe.F I P A &.$.t :.P P P P P P P P P P P P P P P P P P P P P P P P %.F T A 4.=.b V.%Xz   X . .   @                 ",
"                  @   #   5 &XK.v L $.F P Y F L P P P P P P P P P P P P P P P P P P P P P P P P O.%.%.&.%.%.O.O.P P P P P P P P P P P &.I %.A Z P P P P P P P P P P P P P P P P P P P P P P P P f P Y P F $.&.v H.XXh + ,   @ > X X X X X X X X X X X X X X X X >   = = O _ ).Y.v K $.K P Y F $.P P P P P P P P P P P P P P P P P P P P P P P P F P %.%.P &.&.P B A.%X- >   I.$X( : &.&.A %.F &.P P P P P P P P P P P P P P P P P P P P P P P P L P H K F $.8.v K.XXW @ 1 X @ < > > > > > > > > > > > > > > > > r X o 1 O ' ).K.4 P P A I ( K P P P P P P P P P P P P P P P P P P P P P P P P P O.%.%.&.%.%.O.O.P P P P P P P P %.%.&.&.&.%.#.o.P P P P P P P P P P P P P P P P P P P P P P P P L P Y <.F L I v K.`.Q O ,   @ > X X X X X X X X X X X X X X X X , @   , + h XXH.< I $.F P Y K f P P P P P P P P P P P P P P P P P P P P P P P P P P P K K %.&.#.X.A.%Xo O   Y.$X) G :.A P ;.t P P P P P P P P P P P P P P P P P P P P P P P P P P F T P A #.P 4 K.`.j   o   O X                 ",
"                . X 7 O h $XC.P 1.f d ( Y D A ( P P P P P P P P P P P P P P P P P P P P P P P P O.S A V F P %.%.P P P P P P P P P P K F F K %.%.P P P P P P P P P P P P P P P P P P P P P P P P $.-.Z P ` 4 &.+.#.^ &Xh   e     X X X X X X X X X X X X X X X X   , @   W #XK.#.+.| d ( H B A 8.P P P P P P P P P P P P P P P P P P P P P P P P K P P A &.P F F n.%XW 7 4 =   E. X` n K %.,.K I P P P P P P P P P P P P P P P P P P P P P P P P $.%.B H ) m ;.+.o.N.$XW @ r , X > > > > > > > > > > > > > > > > X e y   ' $XB.V *.A n R P A #.;.P P P P P P P P P P P P P P P P P P P P P P P P O.o.A A K P %.%.P P P P P P P P #.P P L K #.-.-.P P P P P P P P P P P P P P P P P P P P P P P P 8.%.B <.` 4 $.+.#.N.#Xl   w > . X X X X X X X X X X X X X X X X     y   h 2Xg.$.+.&.m ( Y B %.L P P P P P P P P P P P P P P P P P P P P P P P P %.%.A A &.I F s N.$Xj O 3 # O E.}.Q n P P ;.P F P P P P P P P P P P P P P P P P P P P P P P P P P F V I I V o.2.P C.#Xh   7 X .                 ",
"                .   # z ).B.o >.*.:.I 1 %.;.B P P P P P P P P P P P P P P P P P P P P P P P P P %.P F n m G F G P P P P P P P P K K G F G F P %.P P P P P P P P P P P P P P P P P P P P P P P P &.A ;.P 1 I ,.*.P s N.&X) . -   X X X X X X X X X X X X X X X X @ X * z `.K., %.#.;.;.t K &.B &.P P P P P P P P P P P P P P P P P P P P P P P P P &.A A &.F n e./.' O 7 , >   , Q.U.) 1 %.%.&.K P P P P P P P P P P P P P P P P P P P P P P P P &.A ;.P 1 J ,.*.O., N.XX/ , - 8 > > > > > > > > > > > > > > > > w ; = ( ).K.o %.+.,.I 1 K -.A &.P P P P P P P P P P P P P P P P P P P P P P P P %.P F G G G F F P P P P P P P P F F G G G F P %.P P P P P P P P P P P P P P P P P P P P P P P P I A -.%.c I ,.-.O.s B.`.z   X O X X X X X X X X X X X X X X X X   : . ) XXN.d P *.:.I 1 P ;.A &.P P P P P P P P P P P P P P P P P P P P P P P P P &.A A &.F m r.%X) O # X X . o ).J.m F &.P &.K P P P P P P P P P P P P P P P P P P P P P P P P P V &.P t &.;.-.O.4 B.`.z     O                 ",
"                > . l %XY.A ,.$.G C S %.$.$.,.D P P P P P P P P P P P P P P P P P P P P P P P P V F ` n.P.Y.J.r.P P P P P P P P I e.m.m.r.q.P A P P P P P P P P P P P P P P P P P P P P P P P P S &.L f %.O.V &.H P  .H./.~   y X X X X X X X X X X X X X X X X y   ! /.K.=.&.H N H O.-.L L ,.Z P P P P P P P P P P P P P P P P P P P P P P P P F &.P P :.G ` OXs.7 6 *   > t X j .XJ.G %.A &.K P P P P P P P P P P P P P P P P P P P P P P P P D P $.L %.S B I / O.X.H.%X~   i > > > > > > > > > > > > > > > > i   ! %XK.o.-./ A K K &.K A :.V P P P P P P P P P P P P P P P P P P P P P P P P V K e.n.Y.Y.J.r.P P P P P P P P I e.n.n.e.( K B P P P P P P P P P P P P P P P P P P P P P P P P B &.$.| %.O.A L G %.#.J./.p.  i X X X X X X X X X X X X X X X X y   ~ /.H.| P H I B S %.L L P D P P P P P P P P P P P P P P P P P P P P P P P P F &.#.#.;.s _ OXj.X O o   X < 6 x XXn.1 &.p %.K P P P P P P P P P P P P P P P P P P P P P P P P A ,.K P -.#.K M L -.*.J.%Xl . @                 ",
"0 .   @   . + X & j '.V.: *.#.M P P P P P P P P P P P P P P P P P P P P P P P P J f #.w.r 4.#.b a.R.).W.B.B.R.^.&Xa.)  .;.Z 5 F./.).W.R.R.).E.s.Q v +.#.n -.1.m P P P P P P P P P P P P P P P P P P P P P P P P I -.@.; L./.k $ 9 w     w   o 7 6 o   y >   , @ & k ).L.; O.#.G P P P P P P P P P P P P P P P P P P P P P P P P P P P P P P P P #.F #.F H ) /.K.> > @ @ X X > >   k /.m.X.m e.O.F I P K P $.K F P P P P P P P P P P P P P P P P P P P P P P P P F +.@.1 K.%X! , y y = ; i X : w w : = i > X r y > Q %XD.: +.+.F P P P P P P P P P P P P P P P P P P P P P P P P M P $.&.O.@.;.n s.D.).W.K.B.R./.#Xg./ 2.1.8.j I./.).R.R.W.).F.s.G 1 5.+.G O.@.Q P P P P P P P P P P P P P P P P P P P P P P P P L *.O.; L.'.h & @ 9   X e X ; 6 O -   u     u y $ k /.L.; +.*.L P P P P P P P P P P P P P P P P P P P P P P P P P P P P P P P P $.Y #.F B ` /.B.                  ! /.u.@.H I #.V P P F K I P P P P P P P P P P P P P P P P P P P P P P P P P P H %.#.: V.(.h $ X # .   w   % 0 ",
"o O     O X   . j oXb.3 q.#.&.F P P P P P P P P P P P P P P P P P P P P P P P P C &.%.t P 8.m U.).N.j . . . . . ! ).N.m P ] `.K.W % . . % 5 d.}.}.b.; w.F o.6.n P P P P P P P P P P P P P P P P P P P P P P P P A &.P &.3 J.*X!   .   w   w O % - O > = @ o   O k oXn.: ( P &.A P P P P P P P P P P P P P P P P P P P P P P P P P P P P P P P P K 6.: %.%.R.T.: > > > @ @ X > > o X ' ).~ -.; ;.P P P P &.P K K P P P P P P P P P P P P P P P P P P P P P P P P K &.P &.: J.*X! @ = = t = r O : 3 @ > ; r 1   @ ! oXz.3 &.%.&.F P P P P P P P P P P P P P P P P P P P P P P P P H &.&.r &.&.( U..Xc.j o o o o % ^ `.H.A A ^ ).Y.W 5 % o o j z.}. X' < %.4 ;.1.m P P P P P P P P P P P P P P P P P P P P P P P P A &.L ( : n.oXh     O u X > O 2 : O u   w       k oX' : 8.#.&.A P P P P P P P P P P P P P P P P P P P P P P P P P P P P P P P P S t.; O.=.T.R.o                 o . 0.`.] 3.; ,.%.%.P P I P K K P P P P P P P P P P P P P P P P P P P P P P P P A &.P :.3 z.oXh .   X 7   # O o ",
"    # .   7   l ^.J.s =.%.< :.#.P P P P P P P P P P P P P P P P P P P P P P P P O.<.B P H Q L.R.#     O +   O e   * /.J.5 W.V.% .   O 8 @     o f.Q.' L P P *.Z P P P P P P P P P P P P P P P P P P P P P P P P S I 4 $.2.#.J./.~ . u   X 9 8     = w     w # ~ /.b.P *.L 4 &.+.P P P P P P P P P P P P P P P P P P P P P P P P P P P P P P P P S L %.X.B./.4 X > > @ @ @ @ > > @ ; @ h.%Xd +.I %.P K P P P P $.P P P P P P P P P P P P P P P P P P P P P P P P P J 4 #.1.+.J.%X~   p   > w i X = r i   - i > ~ %XJ.O.+.P 4 ( &.P P P P P P P P P P P P P P P P P P P P P P P P -.P A %.F Q W.T., X   @ 7 @ @ e   j ).n.b Q.B.- @ X @ y w     , K.R.' G G 8.o.A P P P P P P P P P P P P P P P P P P P P P P P P O.I 4 L 2.#.n./.! . u     @ e   X u 6     y . ! /.n.#.*.$.4 I O.P P P P P P P P P P P P P P P P P P P P P P P P P P P P P P P P P G <.o.T.E.#                   6   O s.%Xd 2.Y %.#.P %.P P K P P P P P P P P P P P P P P P P P P P P P P P P P *.&.c P =.L N.^.l O 9   .   ,   ",
"+     q . O 0.F.C.b =.4.A I K #.P P P P P P P P P P P P P P P P P P P P P P P P *.C B ,.4 ^ ).j   X @ @ X X X   9 . p.R.f.Q.% O   X     X e ,   . h.)./ P I F +.P P P P P P P P P P P P P P P P P P P P P P P P %.n ` f 2.4.- N.%X0.  X ,   . w > =   a X   9.E.V.: 3.*.s ` F o.P P P P P P P P P P P P P P P P P P P P P P P P P P P P P P P P A H @.J.%X/ w % @ > X X X X > > > = X & B.R.t.v %.#.P K F K &.&.P P P P P P P P P P P P P P P P P P P P P P P P S n ) s 1.5.3 B.F.r.X < a X = r r -   t , X q.F.B.3 5.1.B ` G %.P P P P P P P P P P P P P P P P P P P P P P P P 2.V C w.4 N.(.j = ; < > < < >   9 . g.R.f.Q.% O > > X X > < , X o B.Q.m K I K O.P P P P P P P P P P P P P P P P P P P P P P P P O.F ` s 2.4.: V.F.0.  > # . X w 7     , =   0.].V.: 4.2.s ` F %.P P P P P P P P P P P P P P P P P P P P P P P P P P P P P P P P L U @.z.%Xz O o                 6 >   . A.^.=.V #.P %.%.P P I I P P P P P P P P P P P P P P P P P P P P P P P P #.V T V *.t.3 C.F.z O   +     7 ",
"# O   X O l R.K.: I &.A K T K P P P P P P P P P P P P P P P P P P P P P P P P P $.n T A ( (.~ . X X       @ @   6 u . E.F.z.O 8     X X         @ $ W.P.A L J O.P P P P P P P P P P P P P P P P P P P P P P P P f K H P K =.8.< H.).3 8 #   w X @ O   , O W R.K.< &.$.F H H K F P P P P P P P P P P P P P P P P P P P P P P P P P P P P P P P P ) X.0.%X' 9 - o @ X X X @ @ @ @ = 6 - r 6 E.D.t &.%.&.P A P &.#.P P P P P P P P P P P P P P P P P P P P P P P P D P I I L %.&.1 K.^.W w > - @ < = > o , w _ E.Y.: I P A I &.&.o.P P P P P P P P P P P P P P P P P P P P P P P P $.V :.p (  XQ . ; = X   X , , = 9 w 2 E.E.z.# e X , < > X > >   X % R.n.t G ( O.P P P P P P P P P P P P P P P P P P P P P P P P f P P P L $.&.; I.^.Q + X X   > > X = X 0 W R.H.; &.$.F P Y P #.P P P P P P P P P P P P P P P P P P P P P P P P P P P P P P P P J @.0.%X~ 9 = .                   0 =   q E.C.s P P &.%.A P &.F P P P P P P P P P P P P P P P P P P P P P P P P K P I P A %.&.: J./.j O X   6   ",
"  # 6 O W F.B.#.*.#.K I P V K &.P P P P P P P P P P P P P P P P P P P P P P P P L I P s r.}.% .   X # # X     X     o E.%X' O             O @ e 9   ~ U.L &.J P P P P P P P P P P P P P P P P P P P P P P P P P 8.%.r Y ` 4 &.@.#.^ #Xh   i   .   8 w   W E.M.S 1.=.4 ( Y B P ( P P P P P P P P P P P P P P P P P P P P P P P P P P P P P P P P H &./.h.@ > o @ @ X @ @ @ @ X @ o , 7 < 7 % /.I.G F K P A %.&.F P P P P P P P P P P P P P P P P P P P P P P P P %.%.r 8.) 4 %.1.S N.$XW @ > s X = 1 r   _ %XB.o.1.P 3 ( I p -.%.P P P P P P P P P P P P P P P P P P P P P P P P L &.&.1 n. X  > @ @ , e , X X e - X 3 E.%X' >   @ @ @ X X @ e a y   g.U.V ;.G %.P P P P P P P P P P P P P P P P P P P P P P P P $.%.B %.( 4 &.+.#.N./.l O 7 1 .   1 X   W /.N.| +.&.4 ` Y B -.9.P P P P P P P P P P P P P P P P P P P P P P P P P P P P P P P P H 8./.s.O > .                   o . O ; O * /.J.G G P %.P %.&.V P P P P P P P P P P P P P P P P P P P P P P P P I &.t I T c %.2.%.a.%Xj O 0 +   ",
"e   . z R.C., -.-.;.&.t P &.B &.P P P P P P P P P P P P P P P P P P P P P P P P H %.o.G z.I.o X 0 6 O O @         t   ^ W.j   X X X #   X @       8 j R.0.#.S L P P P P P P P P P P P P P P P P P P P P P P P P ;.A ;.P 1 H &.o.K P a.).(   % @ 8     ) R.B., S *.,.I 1 P %.V I P P P P P P P P P P P P P P P P P P P P P P P P P P P P P P P P H R.B.w ,   } X > @ @ @ @ @ @ @ 8 = w X = > W ).r.m 1 %.#.%.&.K P P P P P P P P P P P P P P P P P P P P P P P P &.A %.P 4 I ,.+.O.5 N.^.) , X p r o - ( E.B.< %.+.:.I 4 I -.A &.P P P P P P P P P P P P P P P P P P P P P P P P H %.#.m K.H.- > e @ X , w @ @ @ = B X p.W.n X - w @ @ w w X     X w ~ R.I >.t P P P P P P P P P P P P P P P P P P P P P P P P P I A -.%.1 I ;.*.+.4 M.^./ e   , w   % z ^.N.s %.*.:.I c P -.A &.P P P P P P P P P P P P P P P P P P P P P P P P P P P P P P P P J R.M.# @   q                   #   8     0 z /.r.G F P %.%.&.K P P P P P P P P P P P P P P P P P P P P P P P P I V &.%.1 H ,.*.#.s C.^.z . . # ",
"X   h F.K.P -.$.M F #.;.#.K :.A P P P P P P P P P P P P P P P P P P P P P P P P H @.2.3 B.I.. X               X = 6 O X   . o 9 X             > -   j F._ X.<.L P P P P P P P P P P P P P P P P P P P P P P P P B P $.L %.S B &.J F o.b.F.p.O y >   ! F.K.O.>./ J c S %.#.$.%.D P P P P P P P P P P P P P P P P P P P P P P P P P P P P P P P P K.R.%   X u = w > @ @ @ @ @ @ @ w @ - o < ;   ~  X' F -.%.o.P H P P P P P P P P P P P P P P P P P P P P P P P P L &.S o.<.&.F L ) %.Z H.F.! @ y y @ ~ F.J.X.%.G P t %.%.A P P F P P P P P P P P P P P P P P P P P P P P P P P P R i y.5 K.f.o = = > = = = > > > @ X X , o , @ > = = = = = > > > # X j F.( X.,.K P P P P P P P P P P P P P P P P P P P P P P P P B P $.$.-.O.t L I &.A N.E.l O @ 7 + ! ].H.f %.H L B O.%.$.$.%.D P P P P P P P P P P P P P P P P P P P P P P P P P P P P P P P P K.D..   o O X X                   @ X . a >   p. X` G &.%.P %.P P P P P P P P P P P P P P P P P P P P P P P P P V %.#.#.&.P c H $.O.#.f.F.h   X ",
"6 x E.B.A ;.m U P P P P P P P P P P P P P P P P P P P P P P P P P P P P P P P P D ) O.X.f.A.. @     @         O                           X X X *   / R.Q *.K %.P P P P P P P P P P P P P P P P P P P P P P P P P P P P P P P P O.I v o.h.%X_   @ h E.K.P I Q D P P P P P P P P P P P P P P P P P P P P P P P P P P P P P P P P #.K F P >.P Q B.}.3   u   w @ o > > @ @ @ @ > > , X w > > , -   a.W.' t %.#.P F P P P P P P P P P P P P P P P P P P P P P P P P P P P P P P P P O.I N S f.%X( X > Q F.H.#.b ) S P P P P P P P P P P P P P P P P P P P P P P P P P P P P P P P P K I @.i B.T.  > > > > > X X > X @ @ > > > > X X > X X X > @ @ , # = / R.Q $.&.P P P P P P P P P P P P P P P P P P P P P P P P P P P P P P P P P C ) #.P M.F.j + X _ %Xh.O.v I S P P P P P P P P P P P P P P P P P P P P P P P P P P P P P P P P %.K F P >.P Q B.{.:   0   > @                   X   X @ O + o   s.W.) n &.{ ;.H P P P P P P P P P P P P P P P P P P P P P P P P P P P P P P P P U F &.Z B.F.x O ",
"! E.J.{ o.H A $.P P P P P P P P P P P P P P P P P P P P P P P P P P P P P P P P %.J O.+.' T.% 7 X   X X   X   X                       X X X @ X o   ~ E.G P I S P P P P P P P P P P P P P P P P P P P P P P P P P P P P P P P P &.A =.F S n./.! j E.Y.A #.#.*./ P P P P P P P P P P P P P P P P P P P P P P P P P P P P P P P P O.P J K o.o.` W.p.  p   # X X > > > @ @ @ @ > > X >   - < X > < % W.P.t %.%.P I P P P P P P P P P P P P P P P P P P P P P P P P P P P P P P P P 8.K +.K K n.E.Q ! /.H.A A 2.O.P P P P P P P P P P P P P P P P P P P P P P P P P P P P P P P P P I F O.A g.T.2 w > > = > = X X > @ @ @ @ > > X X X > > > > X @ @ o @ ^ R.d %.G P P P P P P P P P P P P P P P P P P P P P P P P P P P P P P P P P =.L I Z +.N.E.Q k /.n.S F 4.A &.P P P P P P P P P P P P P P P P P P P P P P P P P P P P P P P P %.I J A o.S ` Q.!   7 X   #   @                   X   o #   O 8 x W.n.F ;.F H &.P P P P P P P P P P P P P P P P P P P P P P P P P P P P P P P P =.C &.P o.K.F.h ",
"D.d.o.X.J *.4.d P P P P P P P P P P P P P P P P P P P P P P P P P P P P P P P P =.C H -.L R.k O X   O   X     X                       X       X   O M.B.} K I P P P P P P P P P P P P P P P P P P P P P P P P P P P P P P P P P s -.*.L 7.r a.E.R.g.V O.L o.2.d P P P P P P P P P P P P P P P P P P P P P P P P P P P P P P P P A I I K o.o.( K.M.* @ <   o - > > X X X X X > > w X o o X w > X ~ U.r.F %.P K I P P P P P P P P P P P P P P P P P P P P P P P P P P P P P P P P d -.@.I -.r a.^.E.a.1 O.P 2.7.1 P P P P P P P P P P P P P P P P P P P P P P P P P P P P P P P P %.V P P ) R.! X > > > > , X X > @ @ @ @ @ @ X X X = > @ X X X @ X 6 B.B.*.P G %.P P P P P P P P P P P P P P P P P P P P P P P P P P P P P P P P z 5.+.m %.i N.F.Q.a.< 7.L 4.-.G P P P P P P P P P P P P P P P P P P P P P P P P P P P P P P P P A I I K o.A ( Y.Z.$ O = o . o @                 6         @ O   p.K.` F -.K F :.P P P P P P P P P P P P P P P P P P P P P P P P P P P P P P P P d 2.2.J S *.g.D.",
"c.O.C Q L #.F <.P P P P P P P P P P P P P P P P P P P P P P P P P P P P P P P P 9.S M #.{ L.s..   O @         #                 X             X X $ E.] @.%.G P P P P P P P P P P P P P P P P P P P P P P P P P P P P P P P P P P P C F / ,.} g.h.o.O.m J P c Y P P P P P P P P P P P P P P P P P P P P P P P P P P P P P P P P K P I P O.#.t G W.B.. w = % 8 X @ X X X X X @ > i   2   > r   W }.' 4 K %.A &.K P P P P P P P P P P P P P P P P P P P P P P P P P P P P P P P P K S n F G w.@.h.f.@.Y m ( F f H P P P P P P P P P P P P P P P P P P P P P P P P P P P P P P P P %.o.J F K T.s.  , > > > > X X , @ @ @ @ @ @ @ X X X @ X X @ > > X x F.] 1.S F P P P P P P P P P P P P P P P P P P P P P P P P P P P P P P P P P U n K I m Y o.c.d.} :.m F C %.P P P P P P P P P P P P P P P P P P P P P P P P P P P P P P P P P P P I P O.#.F ) Q.B.. w   % + X                 9   o   X 7   h (.` s F P #.#.H P P P P P P P P P P P P P P P P P P P P P P P P P P P P P P P P Y A A L ) M *.c.",
"c.O.C Q L #.F <.P P P P P P P P P P P P P P P P P P P P P P P P P P P P P P P P $.S M $.o.' D.z     @   X X   o                 X       X @ X X 7 p.R.G S 3.K G P P P P P P P P P P P P P P P P P P P P P P P P P P P P P P P P P %.C H / ,.} g.h.o.o.m J &.V Y P P P P P P P P P P P P P P P P P P P P P P P P P P P P P P P P &.K K A O.-.P K / D.g.  w X X > @ @ X X X @ @ @ @ > > w i X j E.r.) G I A P :.V P P P P P P P P P P P P P P P P P P P P P P P P P P P P P P P P H S N F ) w.@.h.g.@.7.m ( n F I P P P P P P P P P P P P P P P P P P P P P P P P P P P P P P P P %.O.G G o.' T.3 X > > > @ @ > > > @ @ @ @ > > > > > > X @ > > > 7 a.T.G O.*.P H P P P P P P P P P P P P P P P P P P P P P P P P P P P P P P P P U c K &.m Y o.c.f.} :.Q K C %.P P P P P P P P P P P P P P P P P P P P P P P P P P P P P P P P P &.P P A %.<.K F / D.a.  @     X                   X X @ 9   j R.J.G K H V -.-.V P P P P P P P P P P P P P P P P P P P P P P P P P P P P P P P P Y V A $.) C *.c.",
"F.d.o.O.J *.4.d P P P P P P P P P P P P P P P P P P P P P P P P P P P P P P P P $.S V 8.#.1 K.K.o   O X   X                     X     X @       d D.0.%.M *.-.G P P P P P P P P P P P P P P P P P P P P P P P P P P P P P P P P F -.4.I 7.r a.E.T.g.V O.&.o.2.m P P P P P P P P P P P P P P P P P P P P P P P P P P P P P P P P P K &.P P %.P %.i ' R._ 7 = X 8 @ @ @ X @ @ @ @ X > X i X 2 R.B.: I I P %.P K I P P P P P P P P P P P P P P P P P P P P P P P P P P P P P P P P d -.@.L >.r a.R.R.a.t <.K 2.7.G P P P P P P P P P P P P P P P P P P P P P P P P P P P P P P P P P O.K I %.1 K.N.o   > > @ , , X > @ @ @ @ @ > > > X X > > X X   / A.r.#.v 2.o.J P P P P P P P P P P P P P P P P P P P P P P P P P P P P P P P P z 5.+.m %.i N.S.Q.a.r 7.L 4.-.G P P P P P P P P P P P P P P P P P P P P P P P P P P P P P P P P P K %.P P &.P %.r ' /.! 7     O                   > O 9 . * R.M.s J T #.-.I F -.P P P P P P P P P P P P P P P P P P P P P P P P P P P P P P P P d 2.*.J S } g.D.",
"j F.H.{ #.T A 9.P P P P P P P P P P P P P P P P P P P P P P P P P P P P P P P P %.P P &.L r e.A._ .   #     X                   X X   o X     o h.B.K O.) K +.G P P P P P P P P P P P P P P P P P P P P P P P P P P P P P P P P ;.A =.K S n.F.h 5 E.H.A #.#.*.( P P P P P P P P P P P P P P P P P P P P P P P P P P P P P P P P K A %.%.K K K P >.F d.R.j , X # @ @ X X > > @ @ - > @ > % g.W.3 K P P P &.P V &.P P P P P P P P P P P P P P P P P P P P P P P P P P P P P P P P 8.K +.K K n.F.N h F.J.A A 2.O.I P P P P P P P P P P P P P P P P P P P P P P P P P P P P P P P P P %.O.J ( i e.A.) o X < @ @ < X > > @ @ X X > > > X X > @   X , h.N.P O.m #.1.F P P P P P P P P P P P P P P P P P P P P P P P P P P P P P P P P =.P I X.+.f.F.3 h F.n.S P 4.A &.P P P P P P P P P P P P P P P P P P P P P P P P P P P P P P P P K A &.&.K I K P ,.L ^ E.% ,   O                   X X X % g.W.b #.P C #.;.F F ;.P P P P P P P P P P P P P P P P P P P P P P P P P P P P P P P P =.C &.A { K.F.j ",
"O % F.N.A ;.m U P P P P P P P P P P P P P P P P P P P P P P P P P P P P P P P P S I #.L / 1.X.s.I.% . #     X @                 X X X X     , L F._ U r _ F 1.I P P P P P P P P P P P P P P P P P P P P P P P P P P P P P P P P O.I v O.f.F.z     j F.B.P I ) X.P P P P P P P P P P P P P P P P P P P P P P P P P P P P P P P P &.A %.K F I P &.B >.t h.F.2 } = @ @ X > > > > > X > @   s.R.m 5.&.A &.&.V P &.V P P P P P P P P P P P P P P P P P P P P P P P P P P P P P P P P Z I N O.d.F./   > d D.f.#.n ( A P P P P P P P P P P P P P P P P P P P P P P P P P P P P P P P P F %.+.s ) 5.+.k.I.2   1 X X < > > > @ @ X X X > > @ @ , X   , 8.F.) D D / 4 [.G P P P P P P P P P P P P P P P P P P P P P P P P P P P P P P P P B J #.P M.F.j O   z S.f.O.M I S P P P P P P P P P P P P P P P P P P P P P P P P P P P P P P P P &.A %.P F I P %.A %.t h.F.. [                   . X @   h.R.j +.P *.O.P F =.w.V P P P P P P P P P P P P P P P P P P P P P P P P P P P P P P P P U F &.p N.S.%   ",
">   h Z.H.%.Z 9.J F #.#.P P &.#.P P P P P P P P P P P P P P P P P P P P P P P P P P P P P P P P G.J., . a 8   p       # X           @ O #   2 %X&.%.P P P P P P P P P P P P P P P P P P P P P P P P P P P P P P H F ;.%.D O.&.d / S S N.S.k   w >   h Z.H.%.Z 9.M K %.%.P K P #.P P P P P P P P P P P P P P P P P P P P P P P P P P P P P P P P L H -.d B.A.o w w - - 7 9 > = o X w   ~ S.e.@.G P P P P P P P P P P P P P P P P P P P P P P P P P P P P P P P P I K #.-.A P I n ) S O.z.S.!   } X.  ! G.z.#.S / v K #.#.&.P F $.P P P P P P P P P P P P P P P P P P P P P P P P P P P P P P P P G.r.1   , w   { = X X > > > X o X ; > X @ @ 3 %XP P P P P P P P P P P P P P P P P P P P P P P P P P P P P P P P P A %.-.#.P I F 9.O.S N.S.h   r i   k G.H.*.O./ 4 ;.*.O.O.H F L P P P P P P P P P P P P P P P P P P P P P P P P P P P P P P P P K P O./ B.h.# @ O o o @ 7 X   . X O   a.F./ 1.H P P P P P P P P P P P P P P P P P P P P P P P P P P P P P P P P #.P K %.-.%.F M 9.A A f.S.k   7 ",
"#     z B.M./ Z >.A L 8.P V S &.P P P P P P P P P P P P P P P P P P P P P P P P P P P P P P P P m D.' @ . . w   X X X     X o     X   # O j S.' P P P P P P P P P P P P P P P P P P P P P P P P P P P P P P P P H &.o.P T F t 6.o.d M.B.z # :   X X X / B.M./ o.>.A F 8.I A S P P P P P P P P P P P P P P P P P P P P P P P P P P P P P P P P P m o.X.H W f.K.. y   X w   > >   t   ~ T.e.K G %.P P P P P P P P P P P P P P P P P P P P P P P P P P P P P P P P H &.Z K ( G t 6.S d h.B./ = : @ > : = Q V.N.d S >.t F 8.F V &.P P P P P P P P P P P P P P P P P P P P P P P P P P P P P P P P P m R.^ X - o w   > > > X X > , > = @   , @ h S.' P P P P P P P P P P P P P P P P P P P P P P P P P P P P P P P P H &.Z P 8.G p 6.O.d a.B.z X -   O -   z V.N.d S >.t L 8.A A %.%.P P P P P P P P P P P P P P P P P P P P P P P P P P P P P P P P J *.o.c ) K.g.. 7     X     >   >   p.R.( 8.4 O.P P P P P P P P P P P P P P P P P P P P P P P P P P P P P P P P &.P A I 8.d K >.A d M.V.d   o O ",
". O 6 O j Z.M.S X.;./ d I P V P P P P P P P P P P P P P P P P P P P P P P P P P P P P P P P P P o.W T.g.    . @ X         X X   X   ,   % T.H.F P P P P P P P P P P P P P P P P P P P P P P P P P P P P P P P P %.O.O.K Q Q %.@.O.g.Z.W   @ ,     @ 7 O W Z.M.A X.;.L d I P V K P P P P P P P P P P P P P P P P P P P P P P P P P P P P P P P P F *.X.>.o.) T.p.X w @ o - o X w X j Z.H.@.K m -.P P P P P P P P P P P P P P P P P P P P P P P P P P P P P P P P H P P F m L -.@.O.h.Z.W X > 4 X X 1 > X W A.h.o.@.-.L G F P P P P P P P P P P P P P P P P P P P P P P P P P P P P P P P P P P P A ] T.'   X   w X > > > X > > @ w   ,   j T.z.K P P P P P P P P P P P P P P P P P P P P P P P P P P P P P P P P H P %.K G L -.1.S a.Z.W O 7 e     e @   W Z.M.S X.%.L G L %.O.#.P P P P P P P P P P P P P P P P P P P P P P P P P P P P P P P P J #.Z <.A ` V.p.  @     o     w   j E.' @.P m *.P P P P P P P P P P P P P P P P P P P P P P P P P P P P P P P P &.A P I d L ,.X.S a.Z.W O 6 8 . ",
"  6 .     h M.H.G I %.A K I P A P P P P P P P P P P P P P P P P P P P P P P P P P P P P P P P P &.X._ A.'   . # O     X X     X   ,   5 Z.H.%.n K K P P P P P P P P P P P P P P P P P P P P P P P P P P P P P P %.A P &.d $.&.v d.V.W     -   > X 7 o     ~ B.d.G &.-.A F I P P P P P P P P P P P P P P P P P P P P P P P P P P P P P P P P P P O.I %.o.<.K W S.! i @ o < # . > = A.h.A A J &.O.P P P P P P P P P P P P P P P P P P P P P P P P P P P P P P P P P F I I A %.:.4 d.B.W   = : @ < = @ : =   _ V.f.4 8.%.A I I A O.P P P P P P P P P P P P P P P P P P P P P P P P P P P P P P P P I i ' R.'   o , > X X , , X X w @ t   j A.z.#.G P P P P P P P P P P P P P P P P P P P P P P P P P P P P P P P P P F I I A %.;.4 d.V.W     # O > > O o     W V.g.c I %.L &.I A +.P P P P P P P P P P P P P P P P P P P P P P P P P P P P P P P P #.J K 3.O.t ' D.h 9 O o >   . @ % A.a.A o.Y V 9.P P P P P P P P P P P P P P P P P P P P P P P P P P P P P P P P A I I K #.;.&.4 f.B.h     # O X ",
"@     .   O a Z.M.N X.5.A G 8.o.P P P P P P P P P P P P P P P P P P P P P P P P P P P P P P P P o.:.r ] S.g.O . @ # X X       @   O % Z.J.I G &.P P P P P P P P P P P P P P P P P P P P P P P P P P P P P P P P &.F n %.6.*.m N.Z.z O   # o X w > =   . X O d Z.M.b X.5.A d 8.#.P P P P P P P P P P P P P P P P P P P P P P P P P P P P P P P P 2.n ) s A ,.L ' Z.W @ > > 7 , - H.h.( +.G G >.Z P P P P P P P P P P P P P P P P P P P P P P P P P P P P P P P P #.L G %.5.@.m s.Z./ @ = e > = w w = = e = @ / Z.s.Q O.5.%.G I #.P P P P P P P P P P P P P P P P P P P P P P P P P P P P P P P P %.I t ' A.' >   > > X X X X > w X 7 j l.K.L G &.P P P P P P P P P P P P P P P P P P P P P P P P P P P P P P P P *.L d #.5.@.m s.Z.z O   #   X w w X   #   X z Z.a.m X.6.$.d L O.P P P P P P P P P P P P P P P P P P P P P P P P P P P P P P P P @.( / a P -.K ' Z.j O @ X O     h.B.V -.I v O.=.P P P P P P P P P P P P P P P P P P P P P P P P P P P P P P P P o.8.d A [.+.3 s.Z.z O   + .   @ ",
"o     . # 6 O x k.d.<.@.-.L f -.P P P P P P P P P P P P P P P P P P P P P P P P P P P P P P P P O.K :.V ~ T._ ,                 X j A.z.F I G %.P P P P P P P P P P P P P P P P P P P P P P P P P P P P P P P P %.J G P @.-.' A.!   O , o @ >   o X @ o o O # h Z.' O.X.;./ L #.P P P P P P P P P P P P P P P P P P P P P P P P P P P P P P P P O.#.) N #.-.P A N.k.d 7 o X y a.A.K +.I F I F +.P P P P P P P P P P P P P P P P P P P P P P P P P P P P P P P P *.L L P @.O.' Z.! X > 1 > w r X X r w = : > X ! A.' O.X.#.L $.#.P P P P P P P P P P P P P P P P P P P P P P P P P P P P P P P P S I &.r ' T.~ 1   o = X X , > X @ j T.H.F I G O.P P P P P P P P P P P P P P P P P P P P P P P P P P P P P P P P *.L G P @.O.' Z.!   O , o X =     > @   , O   k A.' O.@.#.L I P P P P P P P P P P P P P P P P P P P P P P P P P P P P P P P P P +.#.) 3 #.6.A o.N.k.d 6     7 a.A.P @.K &.1 I o.P P P P P P P P P P P P P P P P P P P P P P P P P P P P P P P P %.f L -.X.%.d.Z.h   6 # .   X . ",
". O     O 8 o   j H.d.m &.;.p I P P P P P P P P P P P P P P P P P P P P P P P P P P P P P P P P K O.F &.i W D.r.o     X X X   o 3 A.z.-.4 s 6.B P P P P P P P P P P P P P P P P P P P P P P P P P P P P P P P P P P ;.K n r.H.l   o # O X > 9   o O > = O 8 :   h K.' b ;.,.A K P P P P P P P P P P P P P P P P P P P P P P P P P P P P P P P P A ;.F J ;.A H -.s B.g.5 2 - Q T.~ O.+.s P ;.G %.P P P P P P P P P P P P P P P P P P P P P P P P P P P P P P P P P #.&.L d ' H.W   ; : @ = r y = = y r = > 1 ; O ~ H.' m P ;.#.P P P P P P P P P P P P P P P P P P P P P P P P P P P P P P P P P F >.F I X.Q A.r.2 o X > w > X o 3 A.d.-.4 G ,.1 P P P P P P P P P P P P P P P P P P P P P P P P P P P P P P P P P P &.P m ' H.!   - 8 O = > 7   . 9 > X O # -   l H.' N P ,.%.F P P P P P P P P P P P P P P P P P P P P P P P P P P P P P P P P &.o.I T #.#.H #.G B.g.* . o m A.Q -.o.P t w.G O.P P P P P P P P P P P P P P P P P P P P P P P P P P P P P P P P H A ;.&.3 ' H.h     0 O     6 . ",
"0 . . O X     w O j k.s.4 @.6.M P P P P P P P P P P P P P P P P P P P P P P P P P P P P P P P P P K O.o.&.o.m G.J.5   # 8   o ) G.' P G &.%.V <.K K P P P P P P P P P P P P P P P P P P P P P P P P P P P P P P K -.o.n C.B.W . w 6   @ @     9 [ o   @ > o   < 6 j Z.M.4 X.>.M P P P P P P P P P P P P P P P P P P P P P P P P P P P P P P P P &.V O.@.V I ;.F @.P Z.k.O m Z.j.D I A #.I A -.m P P P P P P P P P P P P P P P P P P P P P P P P P P P P P P P P H 7.Z m s.l.W O i w - > w o = i i - - w > - w i O W Z.s.G X.+.m P P P P P P P P P P P P P P P P P P P P P P P P P P P P P P P P %.F %.&.L A ) Z.z.3   w w   - ) G._ V F %.%.F :.P P P P P P P P P P P P P P P P P P P P P P P P P P P P P P P P H O.Z m h.A.W   > #   > w     [ 9 .   7 X   o w   ! Z.a.F @.2.F P P P P P P P P P P P P P P P P P P P P P P P P P P P P P P P P K Y o.+.H F 8.J o.Y Z.k.  m Z.p.D m &.O.I d -.M P P P P P P P P P P P P P P P P P P P P P P P P P P P P P P P P n >.X.G M.Z.j 6 @ O     7 . . [ ",
"                X   x k.f.%.o.9.M H #.#.%.P I L P P P P P P P P P P P P P P P P P P P P P P P P P P P P P P P P k.f.Q . . % ~ S.P P P P P P P P P P P P P P P P P P P P P P P P P P P P P P P P G F &.O.Z %.&.s 9.O.S ' Z.k   > X X X X X X X X X X X X X X X X >   h s.d.%.o.9.N F %.-.%.P %.#.P P P P P P P P P P P P P P P P P P P P P P P P P P P P P P P P P I ) f.Z.Z.' P P P P P P P P P P P P P P P P P P P P P P P P P P P P P P P P P J V P %.o.%.&.F $.o.%.f.k.k X < > > > > > > > > > > > > > > > > < X k k.d.%.o.$.M I #.o.%.P P -.P P P P P P P P P P P P P P P P P P P P P P P P P P P P P P P P k.d.)     2 g.G.P P P P P P P P P P P P P P P P P P P P P P P P P P P P P P P P #.A P %.#.#.I M 9.O.%.d.s.h   > X X X X X X X X X X X X X X X X w   k Z.g.S %./ c I #.#.&.P A &.P P P P P P P P P P P P P P P P P P P P P P P P P P P P P P P P P I m B.s.A._ %.P P P P P P P P P P P P P P P P P P P P P P P P P P P P P P P P #.P P %.-.%.F n 9.o.%.d.s.x   @                 ",
"                .     d a.a.L O.>.A L 8.P V P ;.P P P P P P P P P P P P P P P P P P P P P P P P P P P P P P P P Z a.A._ j s.B.#.P P P P P P P P P P P P P P P P P P P P P P P P P P P P P P P P F &.Z P ( G t 6.O.d a.B.d   -   X X X X X X X X X X X X X X X X # - X z M.a.d Z >.A F I P A S &.P P P P P P P P P P P P P P P P P P P P P P P P P P P P P P P P %.A I _ g.a.) o.P P P P P P P P P P P P P P P P P P P P P P P P P P P P P P P P P &.Z P ( G t 6.o.G a.M./ # = > > > > > > > > > > > > > > > > > > - @ G s.a.F #.6.p L q.K V P P P P P P P P P P P P P P P P P P P P P P P P P P P P P P P P P P A N.B.` W s.h.%.P P P P P P P P P P P P P P P P P P P P P P P P P P P P P P P P P &.V K 8.F p 6.o.G a.M.z # o @ X X X X X X X X X X X X X X X X   - O d B.a.d O.>.t F 8.F V &.P P P P P P P P P P P P P P P P P P P P P P P P P P P P P P P P P P A I ' g.g.) o.P P P P P P P P P P P P P P P P P P P P P P P P P P P P P P P P &.P A P &.L A >.o.L a.M.z                       ",
"                . O O O j s.C.O.X.,./ 4 I K A &.P P P P P P P P P P P P P P P P P P P P P P P P P P P P P P P P A O.` l.A.r.-.&.P P P P P P P P P P P P P P P P P P P P P P P P P P P P P P P P P O.%.L m G %.@.S a.k.W O O 8   X X X X X X X X X X X X X X X X X @ 7 @ Q s.a.S X.;.L 4 I P A &.P P P P P P P P P P P P P P P P P P P P P P P P P P P P P P P P %.o.#.L ` ) &.O.P P P P P P P P P P P P P P P P P P P P P P P P P P P P P P P P P %.#.K m G %.@.S a.s.Q w 7 8 o > > > > > > > > > > > > > > > > - w 7 w Q s.s.%.@.-./ G P P S A P P P P P P P P P P P P P P P P P P P P P P P P P P P P P P P P K A ` Z.Z.r.%.L P P P P P P P P P P P P P P P P P P P P P P P P P P P P P P P P K P P F G L -.@.S a.s.Q @ 7 @ o X X X X X X X X X X X X X X X X   # @ O W s.a.-.@.-.L G F P P P P P P P P P P P P P P P P P P P P P P P P P P P P P P P P P P P &.Z #.G ' ) &.O.P P P P P P P P P P P P P P P P P P P P P P P P P P P P P P P P P V P I d / ,.@.Z a.k.j O 6 O                   ",
"                  O .     h M.d.G I %.#.K I I A P P P P P P P P P P P P P P P P P P P P P P P P P P P P P P P P P P F ) r.I t &.P P P P P P P P P P P P P P P P P P P P P P P P P P P P P P P P O.A I &.F %.&.c d.B.W   X o   > X X X X X X X X X X X X X X X X > O o     W M.f.4 I %.P K I P A P P P P P P P P P P P P P P P P P P P P P P P P P P P P P P P P P S O.#.I F #.+.P P P P P P P P P P P P P P P P P P P P P P P P P P P P P P P P %.F I I A %.&.: f.M.W @ = , 7 > > > > > > > > > > > > > > > > > > w , > @ Q s.d.4 ;.%.p P I A %.P P P P P P P P P P P P P P P P P P P P P P P P P P P P P P P P &.t s ` ' L V I P P P P P P P P P P P P P P P P P P P P P P P P P P P P P P P P P F I I Z -.;.4 d.M.W     o @ > X X X X X X X X X X X X X X X X >   o X   j B.d.4 ;.%.A P I K %.P P P P P P P P P P P P P P P P P P P P P P P P P P P P P P P P &.Z %.A ;.F %.o.P P P P P P P P P P P P P P P P P P P P P P P P P P P P P P P P A P I F #.-.&.s d.M.h     . O                   ",
"                X     . X O * Z.s.4 @.5.A G 8.o.P P P P P P P P P P P P P P P P P P P P P P P P P P P P P P P P %.m J @.X.J ) Z P P P P P P P P P P P P P P P P P P P P P P P P P P P P P P P P O.G 5 $.6.@.m h.Z.z O   * o   w X X X X X X X X X X X X X X X X > =   o > O 5 Z.s.4 X.5.A d 8.#.P P P P P P P P P P P P P P P P P P P P P P P P P P P P P P P P G P P %.P P P %.P P P P P P P P P P P P P P P P P P P P P P P P P P P P P P P P %.G m P 5.@.m s.Z.d @ < , = ; w > > > > > > > > > > > > > > > > w - = > , 7 s G.s.m X.5.#.d L *.P P P P P P P P P P P P P P P P P P P P P P P P P P P P P P P P %.Q G @.@.G ) #.P P P P P P P P P P P P P P P P P P P P P P P P P P P P P P P P #.L d #.5.X.m s.Z.a @ > o   = > X X X X X X X X X X X X X X X X w     #   O z Z.s.m X.5.%.d L *.P P P P P P P P P P P P P P P P P P P P P P P P P P P P P P P P I K %.P %.K P %.P P P P P P P P P P P P P P P P P P P P P P P P P P P P P P P P o.8.4 A 5.@.3 s.Z.5 O o .     X                 ",
"                .     . . 6   j k.d.<.@.-.L F -.P P P P P P P P P P P P P P P P P P P P P P P P P P P P P P P P K O.O.I J O.+.I P P P P P P P P P P P P P P P P P P P P P P P P P P P P P P P P %.G G P @.+.' A.k   6 #   X >   X X X X X X X X X X X X X X X X   X > o X 7 # j Z.d.S X.-./ L -.P P P P P P P P P P P P P P P P P P P P P P P P P P P P P P P P F I F &.K %.F I P P P P P P P P P P P P P P P P P P P P P P P P P P P P P P P P %.I G P @.+.' A.h e 7 > = > > - > > > > > > > > > > > > > > > > - = > = > 7 w h Z.' S @.%./ $.#.P P P P P P P P P P P P P P P P P P P P P P P P P P P P P P P P L O.#.I I O.O.I P P P P P P P P P P P P P P P P P P P P P P P P P P P P P P P P %.I L #.@.S ' Z.j @ 7 o o > =   X X X X X X X X X X X X X X X X   w X   , @   k Z.' S @.#.L $.#.P P P P P P P P P P P P P P P P P P P P P P P P P P P P P P P P F I K %.P P K I P P P P P P P P P P P P P P P P P P P P P P P P P P P P P P P P -.F L -.X.O.d.Z.h O O . .                       ",
"                . O X   O + o   j H.d.b &.-.A T P P P P P P P P P P P P P P P P P P P P P P P P P P P P P P P P A ,.P 1 I &.A #.P P P P P P P P P P P P P P P P P P P P P P P P P P P P P P P P P P &.K m r.H.!   - e O X > 7   X X X X X X X X X X X X X X X X   O > = O 8 :   h K.' 3 &.;.A I P P P P P P P P P P P P P P P P P P P P P P P P P P P P P P P P P K F I P P P P P P P P P P P P P P P P P P P P P P P P P P P P P P P P P P P P P P &.L d ' H.W   : e O = < w ; > > > > > > > > > > > > > > > > - w < - X e 5   W N.' N I ;.#.K P P P P P P P P P P P P P P P P P P P P P P P P P P P P P P P P Z %.&.F G I %.o.P P P P P P P P P P P P P P P P P P P P P P P P P P P P P P P P H %.;.P m ' H.W   : 8   = > O   X X X X X X X X X X X X X X X X   9 > X O 8 -   W H.' m I ;.#.K P P P P P P P P P P P P P P P P P P P P P P P P P P P P P P P P P P L I K %.K K P P P P P P P P P P P P P P P P P P P P P P P P P P P P P P P P H A ,.&.N ' H.j   o + O   X O .                 ",
"                6 .     X .   @ 6 j k.M.G @.>.v P P P P P P P P P P P P P P P P P P P P P P P P P P P P P P P P 8.s K ,.%.F K I P P P P P P P P P P P P P P P P P P P P P P P P P P P P P P P P F +.X.F h.Z.W   > #   X @     [ X X X X X X X X X X X X X X X X [ o   @ >     r 6 j Z.M.G @.>.M P P P P P P P P P P P P P P P P P P P P P P P P P P P P P P P P -.P I F &.P %.K P P P P P P P P P P P P P P P P P P P P P P P P P P P P P P P P P +.X.G s.Z.W   < X X r w - ; [ > > > > > > > > > > > > > > > > [ - X > r o X r O W Z.a.G @.>.J P P P P P P P P P P P P P P P P P P P P P P P P P P P P P P P P I G P %.%.F F I P P P P P P P P P P P P P P P P P P P P P P P P P P P P P P P P M O.X.G s.Z.W O r     > @   o [ X X X X X X X X X X X X X X X X 9     > @   @ w O W Z.s.G @.+.M P P P P P P P P P P P P P P P P P P P P P P P P P P P P P P P P +.%.I L P %.P K P P P P P P P P P P P P P P P P P P P P P P P P P P P P P P P P v >.X.n M.Z.j 6 @   . X     . 6                 ",
"                                @   x k.f.%.Z 9.M H %.%.A A P #.P P P P P P P P P P P P P P P P P P P P P P P P P P P P P P P P P P P P P P P P P P P P P P P P P P P P P P P P H H &.%.K &.&.V 9.o.A d.G.k   r X X X X X X X X X X X X X X X X X X X X X X X X X X X X X X X X y   h Z.z.%.A / n F #.-.P P P #.P P P P P P P P P P P P P P P P P P P P P P P P P P P P P P P P P P P P P P P P P P P P P P P P P P P P P P P P G F &.%.A %.:.A J S &.f.M.Q @ y > > > > > > > > > > > > > > > > > > > > > > > > > > > > > > > > r X ! k.f.*.O./ N I #.o.<.P K &.P P P P P P P P P P P P P P P P P P P P P P P P P P P P P P P P P P P P P P P P P P P P P P P P P P P P P P P P #.P K %.-.#.A v 9.o.O.N.Z.h   > X X X X X X X X X X X X X X X X X X X X X X X X X X X X X X X X y   h Z.d.O.S / c &.-.o.&.H F K P P P P P P P P P P P P P P P P P P P P P P P P P P P P P P P P P P P P P P P P P P P P P P P P P P P P P P P P $.I K A -.%.H n 9.Z %.f.k.j   7                                 ",
"                                      z M.a.G o.>.A F &.P V S &.P P P P P P P P P P P P P P P P P P P P P P P P P P P P P P P P P P P P P P P P P P P P P P P P P P P P P P P P G &.Z A I G t 6.O.4 a.B.z # -   X X X X X X X X X X X X X X X X X X X X X X X X X X X X X X X X @ - X Q M.g.L A >.A s &.I A K I P P P P P P P P P P P P P P P P P P P P P P P P P P P P P P P P P P P P P P P P P P P P P P P P P P P P P P P P H &.A P ( G B 6.D d a.M./ > = # > > > > > > > > > > > > > > > > > > > > > > > > > > > > > > > > @ ; X / M.g.L S 6.t F 8.H V &.&.P P P P P P P P P P P P P P P P P P P P P P P P P P P P P P P P P P P P P P P P P P P P P P P P P P P P P P P P %.A V I I F A >.o.G a.C.z X - X X X X X X X X X X X X X X X X X X X X X X X X X X X X X X X X X O -   d B.g.d S 6.t F 8.F A &.P P P P P P P P P P P P P P P P P P P P P P P P P P P P P P P P P P P P P P P P P P P P P P P P P P P P P P P P P &.P A I &.F A >.Z G a.M.z O   O                                 ",
"                                  O 6 O j k.M.O.X.;.L d I P V P P P P P P P P P P P P P P P P P P P P P P P P P P P P P P P P P P P P P P P P P P P P P P P P P P P P P P P P P L %.O.S n G %.o.A a.Z.W O 9 e   X X X X X X X X X X X X X X X X X X X X X X X X X X X X X X X X   X @ X j l.N.o.@.>.L 4 I I V I P P P P P P P P P P P P P P P P P P P P P P P P P P P P P P P P P P P P P P P P P P P P P P P P P P P P P P P P S O.#.K m G %.@.O.h.k.W > > = o > > > > > > > > > > > > > > > > > > > > > > > > > > > > > > > > X , w w Q s.a.P @.-.L d H P P P P P P P P P P P P P P P P P P P P P P P P P P P P P P P P P P P P P P P P P P P P P P P P P P P P P P P P P P P P V P I 4 L ;.X.D M.Z.j X 7 @   X X X X X X X X X X X X X X X X X X X X X X X X X X X X X X X X   , X   W Z.g.O.@.%.G G P %.%.#.P P P P P P P P P P P P P P P P P P P P P P P P P P P P P P P P P P P P P P P P P P P P P P P P P P P P P P P P P V P I 4 L ;.X.S M.k.j O 6 O                                   ",
"                                X O .   O h M.f.4 I %.P K I P A P P P P P P P P P P P P P P P P P P P P P P P P P P P P P P P P P P P P P P P P P P P P P P P P P P P P P P P P #.A I &.A %.&.4 g.B.W     , O @ X X X X X X X X X X X X X X X X X X X X X X X X X X X X X X X X > @ -     W M.f.n I %.P K I I A P P P P P P P P P P P P P P P P P P P P P P P P P P P P P P P P P P P P P P P P P P P P P P P P P P P P P P P P #.A I &.A %.I 5 z.M.W @ = < > > > > > > > > > > > > > > > > > > > > > > > > > > > > > > > > > > > 8 - = X W M.N.4 &.%.A I I K %.P P P P P P P P P P P P P P P P P P P P P P P P P P P P P P P P P P P P P P P P P P P P P P P P P P P P P P P P Z P I F #.;.&.4 d.C.W     o @ > X X X X X X X X X X X X X X X X X X X X X X X X X X X X X X X X >   o     W B.d.3 I %.A &.I A #.P P P P P P P P P P P P P P P P P P P P P P P P P P P P P P P P P P P P P P P P P P P P P P P P P P P P P P P P A I I K #.%.&.4 N.M.h     . O X                                 ",
"                                @     . o O 5 Z.M.b @.5.A d 8.o.P P P P P P P P P P P P P P P P P P P P P P P P P P P P P P P P P P P P P P P P P P P P P P P P P P P P P P P P 7.F 5 $.6.@.n C.Z.z O   #   X @ X X X X X X X X X X X X X X X X X X X X X X X X X X X X X X X X w =   # > X 5 Z.s.3 +.5.A G &.O.P P P P P P P P P P P P P P P P P P P P P P P P P P P P P P P P P P P P P P P P P P P P P P P P P P P P P P P P #.G 4 %.5.@.m s.G.d > < , X ; w > > > > > > > > > > > > > > > > > > > > > > > > > > > > > > > > > ; = > < > d A.s.m X.5.#.d L *.P P P P P P P P P P P P P P P P P P P P P P P P P P P P P P P P P P P P P P P P P P P P P P P P P P P P P P P P o.8.4 A 5.@.3 s.Z.5 O > #   = > X X X X X X X X X X X X X X X X X X X X X X X X X X X X X X X X 7     #     z Z.h.m X.5.%.d G %.P P P P P P P P P P P P P P P P P P P P P P P P P P P P P P P P P P P P P P P P P P P P P P P P P P P P P P P P o.8.d A 5.@.4 h.Z.5 O o . .   7                                 ",
"                                o     o . 6 O h Z.d.S X.%.L f -.P P P P P P P P P P P P P P P P P P P P P P P P P P P P P P P P P P P P P P P P P P P P P P P P P P P P P P P P O.H Q L *.-.' B.k   O ,     >   X X X X X X X X X X X X X X X X X X X X X X X X X X X X X X X X o X @ # - X o h Z.d.P X.-.I F +.P P P P P P P P P P P P P P P P P P P P P P P P P P P P P P P P P P P P P P P P P P P P P P P P P P P P P P P P %.J G P 1.-.' A.k = > ; , w > = > > > > > > > > > > > > > > > > > > > > > > > > > > > > > > > > - = > , ; w w h Z.' S @.#./ $.#.P P P P P P P P P P P P P P P P P P P P P P P P P P P P P P P P P P P P P P P P P P P P P P P P P P P P P P P P -.F L -.X.%.d.Z.k X O o - > X   X X X X X X X X X X X X X X X X X X X X X X X X X X X X X X X X   > @   -     k A.' O.@.#.L L P P P P P P P P P P P P P P P P P P P P P P P P P P P P P P P P P P P P P P P P P P P P P P P P P P P P P P P P P -.F L %.X.O.d.A.h   6 . .                                       ",
"                                . O X X O + o   j K.' b &.;.o.&.P P P P P P P P P P P P P P P P P P P P P P P P P P P P P P P P P P P P P P P P P P P P P P P P P P P P P P P P K P &.K m z.H.W   o 8 O X > 7   X X X X X X X X X X X X X X X X X X X X X X X X X X X X X X X X   6 w =   , :   h K.' 4 &.;.A P P P P P P P P P P P P P P P P P P P P P P P P P P P P P P P P P P P P P P P P P P P P P P P P P P P P P P P P P P P &.K m r.J.W   c < X = w 7 = > > > > > > > > > > > > > > > > > > > > > > > > > > > > > > > > = 7 r =   , c O ~ H.d.m L ;.#.K P P P P P P P P P P P P P P P P P P P P P P P P P P P P P P P P P P P P P P P P P P P P P P P P P P P P P P P P I p ;.&.N ' K.h   : 8   = > O   X X X X X X X X X X X X X X X X X X X X X X X X X X X X X X X X   9 > X O # o   W H.' m P ;.%.K P P P P P P P P P P P P P P P P P P P P P P P P P P P P P P P P P P P P P P P P P P P P P P P P P P P P P P P P P A ;.&.N d.K.j   o + O   X O .                                 ",
"                                6 . .   @ .   w O j Z.B.G X.6.M P P P P P P P P P P P P P P P P P P P P P P P P P P P P P P P P P P P P P P P P P P P P P P P P P P P P P P P P d *.X.v N.Z.~ . > #   X @     [ X X X X X X X X X X X X X X X X X X X X X X X X X X X X X X X X 7 - o @ >   X y O j Z.M.4 } ,.m P P P P P P P P P P P P P P P P P P P P P P P P P P P P P P P P P P P P P P P P P P P P P P P P P P P P P P P P L -.X.n s.A.~   } @ = < @ o - r > > > > > > > > > > > > > > > > > > > > > > > > > > > > > > > > y ; X 7 < - X Z 6 ~ Z.s.G @.7.M P P P P P P P P P P P P P P P P P P P P P P P P P P P P P P P P P P P P P P P P P P P P P P P P P P P P P P P P N >.X.G B.Z.h 6 < X o > X   - 9 X X X X X X X X X X X X X X X X X X X X X X X X X X X X X X X X 9 o   7 X   @ y   ! Z.s.F @.1.F P P P P P P P P P P P P P P P P P P P P P P P P P P P P P P P P P P P P P P P P P P P P P P P P P P P P P P P P n >.X.G B.Z.j 6 @   . X   . . 6                                 ",
"                                                >   j k.H.%.o.9.M P -.#.A P %.#.P P P P P P P P P P P P P P P P P P P P P P P P P P P P P P P P P P P P P P P P G I P Z O.%.I F / S S f.A.k   w X X X X X X X X X X X X X X X X X X X X X X X X X X X X X X X X X X X X X X X X X X X X X X X X >   h k.N.%.#.9.b H &.%.A P %.#.P P P P P P P P P P P P P P P P P P P P P P P P P P P P P P P P P P P P P P P P #.K I &.o.O.I N L S A f.S.k O Z > > > > > > > > > > > > > > > > > > > > > > > > > > > > > > > > > > > > > > > > > > > > > > > > r   Q Z.f.P O.$.M P %.O.S P &.L P P P P P P P P P P P P P P P P P P P P P P P P P P P P P P P P P P P P P P P P #.%.S Z #.-.P N 9.p S N.Z.h   > X X X X X X X X X X X X X X X X X X X X X X X X X X X X X X X X X X X X X X X X X X X X X X X X >   k Z.f.S O.9.G $.*.O.D H I L P P P P P P P P P P P P P P P P P P P P P P P P P P P P P P P P P P P P P P P P #.I K A -.;.P n 9.Z S H.Z.j O w                                                 ",
"                                                      z M.a./ o.>.A F I P A S &.P P P P P P P P P P P P P P P P P P P P P P P P P P P P P P P P P P P P P P P P I P Z %.I G P 6.O.d a.B.z   -   X X X X X X X X X X X X X X X X X X X X X X X X X X X X X X X X X X X X X X X X X X X X X X X X @ o X L M.a.P #.>.A F I P S P %.P P P P P P P P P P P P P P P P P P P P P P P P P P P P P P P P P P P P P P P P K &.F K :.K t ,.O.s a.B.z # : X > > > > > > > > > > > > > > > > > > > > > > > > > > > > > > > > > > > > > > > > > > > > > > > > X ; @ d B.s.d X.>.P F I P S P &.P P P P P P P P P P P P P P P P P P P P P P P P P P P P P P P P P P P P P P P P &.P A P &.F P >.o.F a.M.L X o > X X X X X X X X X X X X X X X X X X X X X X X X X X X X X X X X X X X X X X X X X X X X X X X X   -   z B.M.d O.>.P F I K S P &.P P P P P P P P P P P P P P P P P P P P P P P P P P P P P P P P P P P P P P P P &.P A P &.F A >.O.G a.M.z O   +                                                 ",
"                                                  O 6 O j k.M.#.X.;.L d I P V P P P P P P P P P P P P P P P P P P P P P P P P P P P P P P P P P P P P P P P P P %.Z %.8.5 G :.X.O.h.Z.W   @ ,   X X X X X X X X X X X X X X X X X X X X X X X X X X X X X X X X X X X X X X X X X X X X X X X X   # 7 @ Q Z.M.S X.;.G 4 I Y A &.P P P P P P P P P P P P P P P P P P P P P P P P P P P P P P P P P P P P P P P P K K P J G K %.+.O.h.Z.W X w t X > > > > > > > > > > > > > > > > > > > > > > > > > > > > > > > > > > > > > > > > > > > > > > > >   p w X W Z.a.S @.;.L 4 I P V P P P P P P P P P P P P P P P P P P P P P P P P P P P P P P P P P P P P P P P P P P V P T 4 L ;.X.S M.Z.Q @ 7 w   X X X X X X X X X X X X X X X X X X X X X X X X X X X X X X X X X X X X X X X X X X X X X X X X   e 6 O W Z.a.S Z :.G d I %.o.*.P P P P P P P P P P P P P P P P P P P P P P P P P P P P P P P P P P P P P P P P &.V P I 4 L ;.X.S M.Z.h O 6 +                                                   ",
"                                                X O o     h M.K.G I %.#.P J P P P P P P P P P P P P P P P P P P P P P P P P P P P P P P P P P P P P P P P P P P Z P L L L %.P n d.V.W     o   > X X X X X X X X X X X X X X X X X X X X X X X X X X X X X X X X X X X X X X X X X X X X X X X X @ w ,     W M.N.G P %.#.P I P P P P P P P P P P P P P P P P P P P P P P P P P P P P P P P P P P P P P P P P P P %.F J I A O.&.4 f.V.W O > 1 @ > > > > > > > > > > > > > > > > > > > > > > > > > > > > > > > > > > > > > > > > > > > > > > > > > > @ 1 >   _ V.f.G L %.#.K H P S P P P P P P P P P P P P P P P P P P P P P P P P P P P P P P P P P P P P P P P P A P I P %.%.P G N.B.W     , w @ X X X X X X X X X X X X X X X X X X X X X X X X X X X X X X X X X X X X X X X X X X X X X X X X > O ,     W V.d.M P %.L L I %.O.P P P P P P P P P P P P P P P P P P P P P P P P P P P P P P P P P P P P P P P P P P I K #.#.P G f.M.W     o 6 X                                                 ",
"                                                @     + @ O a A.M.4 X.5.A 4 8.#.P P P P P P P P P P P P P P P P P P P P P P P P P P P P P P P P P P P P P P P P O.I 5 F [.@.4 B.Z./ X   # o X w X X X X X X X X X X X X X X X X X X X X X X X X X X X X X X X X X X X X X X X X X X X X X X X X w -   @ # O 4 Z.M.3 X.[.#.d &.o.P P P P P P P P P P P P P P P P P P P P P P P P P P P P P P P P P P P P P P P P -.L 4 %.5.X.m s.G./ @ = e = = y > > > > > > > > > > > > > > > > > > > > > > > > > > > > > > > > > > > > > > > > > > > > > > > > w = - , > @ / Z.M.3 O.[.A 4 &.O.P P P P P P P P P P P P P P P P P P P P P P P P P P P P P P P P P P P P P P P P #.( d P 6.X.4 M.G.s @ # @ o - > X X X X X X X X X X X X X X X X X X X X X X X X X X X X X X X X X X X X X X X X X X X X X X X X w X   #   O / Z.B.b X.6.L d ( O.P P P P P P P P P P P P P P P P P P P P P P P P P P P P P P P P P P P P P P P P #.8.4 A 5.X.4 B.Z.a O X .   X @                                                 ",
"                                                      o # 6 O h Z.d.S X.%.L f -.P P P P P P P P P P P P P P P P P P P P P P P P P P P P P P P P P P P P P P P P %.G G %.@.+.z.A.!   O , o @ >   X X X X X X X X X X X X X X X X X X X X X X X X X X X X X X X X X X X X X X X X X X X X X X X X - X X - # O @ h Z.d.O.X.;.L F -.P P P P P P P P P P P P P P P P P P P P P P P P P P P P P P P P P P P P P P P P &.I L %.+.%.' A.!   @ : = > w   > > > > > > > > > > > > > > > > > > > > > > > > > > > > > > > > > > > > > > > > > > > > > > > > X < > - 1 7 X ! Z.d.S @.-.L F -.P P P P P P P P P P P P P P P P P P P P P P P P P P P P P P P P P P P P P P P P ;.F L %.X.S N.Z.h @ O o - > X o X X X X X X X X X X X X X X X X X X X X X X X X X X X X X X X X X X X X X X X X X X X X X X X X   = X   , O   ! A.J.O.X.%.L G &.P P P P P P P P P P P P P P P P P P P P P P P P P P P P P P P P P P P P P P P P ;.F L %.X.O.d.Z.h O 6 . o                                                       ",
"                                                  O X X O # -   j K.d.b &.;.A I P P P P P P P P P P P P P P P P P P P P P P P P P P P P P P P P P P P P P P P P &.A &.P 4 r.I.k   o # O X > 9   X X X X X X X X X X X X X X X X X X X X X X X X X X X X X X X X X X X X X X X X X X X X X X X @ o 7 > - O e 2   h I.d.b &.;.A I P P P P P P P P P P P P P P P P P P P P P P P P P P P P P P P P P P P P P P P P G P >.K Q f.K.W   ; e 7 = < y X > > > > > > > > > > > > > > > > > > > > > > > > > > > > > > > > > > > > > > > > > > > > > > > > X w > = @ y ;   W K.d.3 &.3.A P P P P P P P P P P P P P P P P P P P P P P P P P P P P P P P P P P P P P P P P P H V ;.&.3 d.K.W   2 8 O - > @ . X X X X X X X X X X X X X X X X X X X X X X X X X X X X X X X X X X X X X X X X X X X X X X X X   7 > X O 8 o   h I.' 3 %.,.K I P P P P P P P P P P P P P P P P P P P P P P P P P P P P P P P P P P P P P P P P H A ;.&.b d.K.j   o + O X X O .                                                 ",
"                                                0 o     @     > O j A.B.4 @.6.M P P P P P P P P P P P P P P P P P P P P P P P P P P P P P P P P P P P P P P P P F 6.X.c B.A.!   7 +   @ @     9 X X X X X X X X X X X X X X X X X X X X X X X X X X X X X X X X X X X X X X X X X X X X X X X @ 9 % - > > o @ r 6 h A.M.4 @.6.M P P P P P P P P P P P P P P P P P P P P P P P P P P P P P P P P P P P P P P P P M 7.X.G s.G._ 6 r w @ > w o X } > > > > > > > > > > > > > > > > > > > > > > > > > > > > > > > > > > > > > > > > > > > > > > > > } o o w > X > r 6 W Z.B.4 @.6.M P P P P P P P P P P P P P P P P P P P P P P P P P P P P P P P P P P P P P P P P b >.X.4 B.A.h 6 r X   > >   % [ X X X X X X X X X X X X X X X X X X X X X X X X X X X X X X X X X X X X X X X X X X X X X X X X [     @ X   # >   h Z.M.1 @.6.G P P P P P P P P P P P P P P P P P P P P P P P P P P P P P P P P P P P P P P P P v >.X.4 B.A.j 6 >   . @ O . . 0                                                 ",
"o                                                               >   h Z.H.O.Z 9.M P ;.#.A P &.#.P P P P P P P P P P P P P P P P P P P P P P P P P &.#.o.7.Y H Q 9.o.D d.S.k   > X X X X X X X X X X X X X X X X X X X X X X X X X X X @ @ @ @ X @ @ @ X > X X   X X X X X X X X X X X X X X X @ @ @ @ @ X X X @ >   h Z.H.S p 9.n P -.#.A P %.#.P P P P P P P P P P P P P P P P P P P P P P P P F H P A %.&.P F I P S N.S.k O i > > > > > > > > > > > > > > > > > > > > > > > > X > , 1 , = = > , = X ; < , > > > > > > > > > > > > > > > > > > > > > > > > > > }   ! G.z.#.S ) F %.*.+.A H I L P P P P P P P P P P P P P P P P P P P P P P P P $.P K A -.-.K M $.#.S N.S.k   r X X @ @ @ @ X X X X X X X X X X X X X X X X X X X X X @ @ @ @ @ @ @ @ X X X X   X X X X X X X X X X X X X X X X X X X X X X X X w   k A.f.A Z 9.N I -.O.D P &.$.P P P P P P P P P P P P P P P P P P P P P P P P #.P P P #.%.H n 9.Z A H.Z.k   @                                                               o ",
"#                                                               O     z B.a./ o.>.#.L L P A S P P P P P P P P P P P P P P P P P P P P P P P P P A &.#.A F I &.-.o.d M.V.d   -   X X X X X X X X X X X X X X X X X X X X X X X X @ @ X               X X X X @ > X X X X X X X X X X X X X X X @ @ @ @ X X X X @ @ o X L B.a.F o.>.K F I P S P &.P P P P P P P P P P P P P P P P P P P P P P P P P P o.%.I G A 2.#.V M.A.L @ 2 > > > > > > > > > > > > > > > > > > > > > > > > > < > X > > > > < < < > > > X > r > > > > > > > > > > > > > > > > > > > > > > > > @ : o / V.N.d S >.P F I P A K $.P P P P P P P P P P P P P P P P P P P P P P P P P &.P K L $.%.+.#.V M.A.F X 2 X X X @ @ X X X X X X X X X X X X X X X X X X X X > @ X       X X       X   X X X X X X X X X X X X X X X X X X X X X X X X X X X o -   d V.M.d o.>.P L I P S P P P P P P P P P P P P P P P P P P P P P P P P P P A &.P F L L %.7.X.L M.B.z     O                                                 X             # ",
"                                                                . O 6 O j Z.M.%.X.,.L d I P V P P P P P P P P P P P P P P P P P P P P P P P P P T B S q.z d -.1.S M.Z.W O O 8   X X X X X X X X X X X X X X X X X X X X X X X X X X @ X X o o o o o o X X X @ @ X X X X X X X X X X X X X X X X X X X X X X @ @   # 9 @ Q Z.B.S X.;.L 4 T P V P P P P P P P P P P P P P P P P P P P P P P P P P %.Z %.I 5 G &.X.O.h.A.W X w t   > > > > > > > > > > > > > > > > > > > > > > > > > > > > > > > > > > > > > > > > > > > > > > > > > > > > > > > > > > > > > > > >   t > X W A.h.O.X.&.G 4 I &.Z #.P P P P P P P P P P P P P P P P P P P P P P P P :.B S q.G s -.@.S M.Z.W O 9 e   X X X X X X X X X X X X X X X X X X X X X X X X X X @ X o o o o o o o X X X @ @ X X X X X X X X X X X X X X X X X X X X X X X X   , O O _ A.N.o.X.,.L d I P V P P P P P P P P P P P P P P P P P P P P P P P P P :.B K q.G d -.+.Z M.Z.h O 6 +                                                             O     ",
"X     O   # o                                                     6 #     h M.K.n P %.P P I P %.P P P P P P P P P P P P P P P P P P P P P P P P A P Y K f 9.I v N.V.W   X # O X X X X X X X X X X X X X X X X X X X X X X X X X X X @ @ @ X             X X @ @ X X X X X X X X X X X X X X X X X X X X X X @ @ @ w #     _ B.N.G P %.#.P I P A P P P P P P P P P P P P P P P P P P P P P P P P A P I K P %.I n d.A.] X X , @ > > > > > > > > > > > > > > > > > > > > > > > > > X > < > > > > > > > > > > < > X > > > > > > > > > > > > > > > > > > > > > > > > > @ 1 >   W V.f.4 F #.P P I %.o.P P P P P P P P P P P P P P P P P P P P P P P P A P I K #.-.I 4 N.A.W     , @ > X X X X X X X X X X X X X X X X X X X X X X X X X X @ @ X X         X X X @ @ @ X X X X X X X X X X X X X X X X X X X X X X X X =   , X   W K.z.c K #.L L I P S P P P P P P P P P P P P P P P P P P P P P P P P A I I K A -.&.4 H.M.W     # 6                                                     o X   O O     ",
"# o         o                                                   O X   .   O a S.M.4 X.5.A d 8.*.P P P P P P P P P P P P P P P P P P P P P P P P #.&.n A 6.*.5 C.G.z O   # o X @ X X X X X X X X X X X X X X X X X X X X X X X X o X X X @ @ w w w @ @ > , @ o   X X X X X X X X X X X X X X X X X X X X X X X X > -   X o @ s S.M.4 X.5.A d 8.o.P P P P P P P P P P P P P P P P P P P P P P P P #.( 4 A 5.@.m B.G.G @ > r = o y > > > > > > > > > > > > > > > > > > > > > > > > > > > > > > < < < < > > > > > > > > > > > > > > > > > > > > > > > > > > > > > > y = = e > @ / G.B.5 X.5.A 4 ( O.P P P P P P P P P P P P P P P P P P P P P P P P o.8.4 A 5.@.m B.G.L X   , o o r @ @ X X X X X X X X X X X X X X X X X X X X X X X X @ X @ @ w w w @ @ @ @ @ o   X X X X X X X X X X X X X X X X X X X X X X X X 7     #   O z G.M.4 X.6.L d 8.O.P P P P P P P P P P P P P P P P P P P P P P P P o.8.d A 5.@.m M.S.5 O   + . X O                                                   o           # ",
"      X                                                               o # 6 O x Z.N.O.X.%.L F -.P P P P P P P P P P P P P P P P P P P P P P P P 3.t G &.+.#.d.S.k   O ,     >   X X X X X X X X X X X X X X X X X X X X X X X X     @ @ @ @ @ @ X X X X X X o   X X X X X X X X X X X X X X X X X X X X X X X X o X > - o O # k Z.N.S X.-.L F -.P P P P P P P P P P P P P P P P P P P P P P P P &.G G %.@.+.J.A.! X @ 1 = > w   > > > > > > > > > > > > > > > > > > > > > > > > , > > > > > =     X > < > > > , > > > > > > > > > > > > > > > > > > > > > > > > o w w = , @   ! A.J.O.X.%.G G &.P P P P P P P P P P P P P P P P P P P P P P P P ,.s s ,.@.S d.S.! X @ , o > >   @ @ X X X X X @ X X X X X X X X X X X X X X X X     @ @ @ @ @ @ X X   X     o   X X X X X X X X X X X X X X X X X X X X X X X X   @     , @   k Z.N.O.X.%.L f -.P P P P P P P P P P P P P P P P P P P P P P P P ,.s s ;.@.S d.S.h O O . o                                                               #     . ",
"% .   # X                                                       . O   X O 8 -   h K.N.b &.;.A P P P P P P P P P P P P P P P P P P P P P P P P P A P w.K : J.U.h   o 8 O X = 7   X X X X X X X X X X X X X X X X X X X X X X X X X @ @ @     o % % % % o     X , X X X X X X X X X X X X X X X X @ @ X X X X X X o @ > - X 8 2   W K.d.3 &.;.A P P P P P P P P P P P P P P P P P P P P P P P P P &.A &.I 4 z.I.!   - e @ o > y o > > > > > > > > > > > > > > > > > > > > > > > > = > > r < > - 2 2 - = < r > > > > > > > > > > > > > > > > > > > > > > > > > > > X y w = @ , ;   ~ I.N.3 &.;.A P P P P P P P P P P P P P P P P P P P P P P P P P F P ,.K 3 H.U.h   % w @ o = w . @ @ X X X X @ @ X X X X X X X X X X X X X X X X X X X X     . . % % % o     @ , X X X X X X X X X X X X X X X X X X X X X X X X   7 X X 6 8 o   l I.N.4 %.;.A I P P P P P P P P P P P P P P P P P P P P P P P P F S ,.K 3 H.U.j   - # O X X O o                                                       X #   . % ",
"c.z                                                             0 o   X @     r O h A.B.G @.6.M P P P P P P P P P P P P P P P P P P P P P P P P H ,.Z n B.V.h O >     X w     [ X X X X X X X X X X X X X X X X X X X X X X X X > @     2 ~ h.T.T.T.K.' 5 o X @ X X X X X X X X X X X X X X X X @ @ X X X X X X [ %   > > o X r O ! A.B.d @.6.v P P P P P P P P P P P P P P P P P P P P P P P P F 6.X.4 B.S.W   r w o @ w - o } > > > > > > > > > > > > > > > > > > > > > > > > > > > > X X ) P.J.) X X > > > > > > > > > > > > > > > > > > > > > > > > > > > > y X o w > o w y O ! G.B.s @.6.F P P P P P P P P P P P P P P P P P P P P P P P P n >.X.n B.Z.W 6 > >   @ >   . [ @ X X X X X @ @ X X X X X X X X X X X X X X X X , X     5 ~ h.T.A.T.N._ 5 X X @ X X X X X X X X X X X X X X X X X X X X X X X X 9     > @   + w O l Z.M.c @.6.N P P P P P P P P P P P P P P P P P P P P P P P P n >.X.G B.A.h 6 >     @ O   . [                                                           . z c.",
"B.S._     . O O   o                                                         X X @   k Z.N.%.o.9.M c &.%.P &.K -.P P P P P P P P $.I H S O.#.K n =.o.F f.S.!   w X X X X X X X X X X X X X X X X X X   X X X X X X X X X   X X X   }   l S.R.H./ 8.e.r.B.E.a.o 9 X ,   > @ @ @ > X X X X X X X X @ @ X X X @ @ @ X X X @ X @ > > r   ! S.N.A o.9.H V ;.*.A H F L P P P P P P P P K P F A *.*.P H ) S Z d.G.!   } > > > > > > > > > > > > > > > > > > > > > > > > > > > > = > > < > > < = @ _ A.N.B.V._   > r w = < > > ; > > > > > > > > > > > > > > > > > > > > > > > > > > > > }   ! S.H.O.S ) F P *.*.P H I F P P P P P P P P A &.I P O.>.K N 9.#.A N.S.!   r @ @ X @ @ @ @ @ @ X X X X X X @ X X X X X X X X > X X X X X X > , w   ! S.R.' _ T e.r.M.F.j.  w O e   > X O X > X X X X X X X X X X X X X X X X X X X X X X X X w   k S.N.S O.9.M V ;.#.A :.K #.P P P P P P P P $.K :.A o.-.V M 9.O.B f.S.j   >                                                 O           o             _ T.B.",
"/ ` D.s.6 6   o     o       #                                                 X #     / V.M.d O.O.:.L F A P ,.t P P P P P P P P K &.H A F &.%.O.#.d C.V.z . o X X X X X X X X X X X X X X X X X X X   X X X X X     X X X X @ X ,   d.R.g.G n q.I F F Q ' I.H.%   X   > X # @ X X X X X X X X X X X X X @ @ @ @ X X X @ @ @ > > @ - X z V.M.d O.S &.F L K A ,.A P P P P P P P P P &.P F G L %.O.S d N.V.d   : 7 > > > > > > > > > > > > > > > > > > > > > > > > > > > > > < w   = = w u s.D.n.d n z.T.a.a @ ; w   > < > > > > > > > > > > > > > > > > > > > > > > > > > > > > > @ -   d L.B.d A >.P L &.P A S %.P P P P P P P P P K F L &.P %.>.#.F M.A.F X 2 > @ @ X @ X X @ @ @ @ X X X X X X X X X X X X X X @ X X X X X X @ u   d.R.' L F ] &.H m m _ L.H.%   X   > X X @ X X X X X X X X X X X X X X X X X X X X X X X X X O o   z V.M.d o.O.,.L L F A :.V P P P P P P P P V :.C F L L ,.O.O.4 B.V.z O   +                                                   o       #     o   6 6 s.D.` / ",
"H #.( R.A.% O . @                                                           X X   8 9 O j S.B.Z X.,.s d ( A S P P P P P P P P P :.v A ( G L -.@.%.M.Z.W O 6 8   X X X X X X X X X X X X X X X X X X X X X X X X       X X X X X   ~ R.' t *.i H K t &.%.w ` K.s.2   > X @ @ @   X X X X X X X X X X X X X X X X X X X X @ X > >   e 7 O _ Z.M.S X.&., G q.A o.-.P P P P P P P P >.Z S q.G d P X.O.N.A.W X @ ,   > > > > > > > > > > > > > > > > > > > > > > > > < X > > X > r w - @ 5 M.R.e.e T ( r ` E.M.t w 2 w r > X w > X < > > > > > > > > > > > > > > > > > > > > > > > > X , X X _ S.N.O.Z &.L d &.%.Z -.P P P P P P P P P V P I 4 I ,.X.S M.G.W O 7 e   @ @ X X X X X X X X X X X X X X X X X X X X X X X X X X X @ X X   g.R.' p +.O.V f c :.*.w ` T.s.o   > X X # X   X X X X X X X X X X X X X X X X X X X X X X X X   8 O O ~ A.C.O.X.,.s G q.B V :.P P P P P P P P I V V q.G g ,.@.%.a.S.W O 6 +   X                                               O             # . O % A.D./ #.Y ",
",.4 o.*.M.G.j 6   #     #     o                                             X X X + o     h M.K.m F &.A F T F %.P P P P P P P P S P I G #.;.P 1 N.V.!   X , O X X X X X X X X X X X X X X X X X X X X X X X X X X   X X X X X X 5 D.^ , >.2.*.U <.P P -.@.p ~ D._   > X @ X @ X X X X X X X X X X X X X X X X X X X X @ @ @ > > > @ , >   W V.N.m F ;.A F :.P o.P P P P P P P P Z %.I F A &.I 4 H.V.W   > 4 X > > > > > > > > > > > > > > > > > > > > > > > > > > > X > w > > > 9 Q G.A.#.i ) %.*.J < P V.G.l w > > > w > > > > > > > > > > > > > > > > > > > > > > > > > > > > = X , >   W L.H.b F %.%.P I %.#.P P P P P P P P S P J K P %.I d N.D.W   X 4 @ @ > > X X X X X X X X X X X X X X X X X X X X X X X X @ @ @ > X   5 Q.~ r 6.P K 1.I #.#.<.@.p _ S.W   = X @ X X X X X X X X X X X X X X X X X X X X X X X X X X X X O ,   O W V.N.4 K ,.A V ( K %.P P P P P P P P P K ( F A ,.P G N.D.j   o o +                                                   #     o   O @   6 j G.M.-.o.4 ,.",
"g >.S S F s.E.G     # #     o                                                 X @ X   +   O a S.B.3 +.5.A G L -.P P P P P P P P o.8.d f 6.@.b M.A.z O   # X X @ X X X X X X X X X X X X X X X X X X X X X X X X X X   X X       c.B.N 1.6.d 9.D X.:.G s >.O.F ' K.2 X X > X X @ X X X X X X X X X X X X X X X X X @ X X X X @ @ w = - , X O z S.A.3 +.5.p G I o.P P P P P P P P Z ( d B 5.@.m h.G.) X X a , = w > > > > > > > > > > > > > > > > > > > > > > > > X t > @ p r     G E.A.1 P <.Z 9.J | >.O.- Z.E.$.    r p @ > t X > > > > > > > > > > > > > > > > > > > > > > > > w = = e X X / G.B.4 X.5.P d ( #.P P P P P P P P #.8.m A 5.@.3 B.S.L O   , = X w > > X X X X X X X X X X X X @ X X X X X X X X X   X @ @ @ X X   s.N.s 1.,.3 m +.S &.s V >.+.F N.K.%   X @   X X X X X X X X X X X X X X X X X X X X X X X X X X @ X o +   O z S.M.3 @.5.p / &.#.P P P P P P P P o.I G p 5.+.3 B.Z./ O   q . X X                                                         # #     / E.s.F S U >.d ",
"` } 2.J c ;.r.D._ .   #     #                                                     X X . . 6 8 x A.H.S @.;.g L -.P P P P P P P P -.t d ;.@.S d.F.l   7 , .   X X X X X X X X X X X X X X X X X X X X X X X X X X @ X   X       o T.' %.+.F W 8.B Z K J J K A O.,.R.j   @ >     # X X X X X X X X X X X X X X X X X @ @ X X X > @ o > X o , 7   ! S.J.Z 1.,.4 F :.P P P P P P P P :.4 G ,.@.O.d.F.! X > 4 X 7 w X > > > > > > > > > > > > > > > > > > > > > > > > = < > > r   o ' F.r.*.H m +.+.m Q 1.1.G G O.e.S.' o   < > > < X > > > > > > > > > > > > > > > > > > > > > > > > = w @ X 4 @ X ! F.J.O.X.%./ G P P P P P P P P P $.F I %.X.P N.A.k X 7 , X X > X @ @ X X X X X X @ X X X X X @ @ X X X X X X X X X X X @ @ X o - T.^ Y O.f ) ) A o.J J L A S P ;.R.j   X >     @ X X X X X X X X X X X X X X X X X X X X X X X X o X     , 6 O k F.N.D @.,.g f -.P P P P P P P P -.f s ,.@.D N.S.k   6 # . X                                                       #     #   . _ F.0.-.c J 2.X.` ",
">.` t { 8.B S f.W.h .                                                           % O   - O + o   j W.N.3 K ;.&.V P P P P P P P P F #.,.K 3 H.W.l   o w 7     6   X X X X X X X X X X X X X X X X X X X X X X X X @ X X X     X 4 E.) X.O.P I F ,.q.A A &.I I %.o.D.~   @ > X X @ X X X X X X X @ X @ X X X @ @ @ X X X X X X @ @ o 7 > = 7 e ;   j W.N.4 I ;.%.F P P P P P P P P F P ,.K 3 H.U.h   ; 1 @ = w 9 o > > > > > > > > > > > > > > > > > > > > > > > > > X > w   o ~ W.f.S C I *.K J O.+.J G #.7.O.8.d.R.~   X > > X > > > > > > > > > > > > > > > > > > > > > > > > > o 9 > = @ , -   ~ I.N.b &.;.A I P P P P P P P P L A >.&.3 N.L.W   o u 7 X > w o @ @ X X X X @ X @ @ X X X @ @ @ X X X X X X X X X   X > @   o 5 Q.Q C A L ;.F T w.V C %.L J I X.D.~   X X X   X X X X X X X X X X X X X X X X X X X X X X X X X   6     O 8 o   j W.N.3 P ;.-.V P P P P P P P P V %.;.P 3 N.W.j     a O   X O o                                                           . ! R.g.S B 8.{ t ` >.",
"-.P ) G 1.=.G Z a.R._     #                                                     6 o     @ . O 7 6 j A.B.G X.O.J P P P P P P P P m >.X.c B.A.l 6 >   . X w X   [ X X X X X X X X X X X X X X X X X X X X X X X X X X X X     # d A.L %.R A 7.Y L G %.+.X.F ) L #.M.g.  @ X X X X X X X X X X X @ @ @ X X X @ @ @ X X X X X X @ @ [   o w >   @ r @ j S.B.G @.+.F P P P P P P P P G 6.X.4 B.G.! X i #   > y - o 7 @ > > > > > > > > > > > > > > > > > > > > > > > > > r >   ' T.s.C m #.+.I ) %.O.S &.I I *.P n S s.T.'   > r > > > > > > > > > > > > > > > > > > > > > > > > > > w o = w > X 8 y   ! G.B.4 X.6.F P P P P P P P P m >.X.n A.S.W O < >   @ w - o [ @ @ X X X X @ @ @ @ X X X X @ @ X X X X X X X X X   X > >   - G D.) A :.K O.2.F m *.1.S J G L A Z.g.  X X X X O X X X X X X X X X X X X X X X X X X X X X X X X [     > X   O > O j F.B.4 @.+.M P P P P P P P P M +.@.4 B.F.j 6 @ #   @ w   o 9                                                 O   #     _ R.a.D G =.+.I ) #.>.",
"&.K P P P P P P D d.F.j     X .                                                                 @   x S.H.D >.g S &.N %.%.N &.O.$.O.A f.F.h   @           X X X X X X X X X X X X X X X X X X X X X X X X X X X     X   7 6   j W.m &.O.K J V O.%.P J G F #.#.S M.H.# O # o   = X X X X X X X X X X @ @ X X X X X X X X X X @ @ > > > @ > > > > >   h S.N.A -.9.P &.3 %.%.3 &.P / S S N.S.!   r > > > > > > > > > > > > > > > > > > > > > > > > > > > > > > > > = e X > ! F.r.Z P P P P P P P P P P P P P P P P Z x.S.h w X p = > > > > > > > > > > > > > > > > > > > > > > > @ > > > > > > > > r X ! F.H.S <.d S &.b $.&.b ;.S i.-.D N.S.h   > @ @ @ @ @ @ X X > > > > @ @ @ @ X @ @ @ X X X X X X X X X X X X . o >   > @ . W R.Q A O.F J P O.O.P I L K o.#.A B.0.@     . # = X X X X X X X X X X X X X X X X X X X X X X X X X X         X   9   j F.K.A O.G P &.N %.%.N &.S g >.D H.S.x   @                     X X X       X X                             +       5 E.f.Z P P P P P P P &.",
"%.K K P K K P K F :.a.D.5   . O                                                                 a   O z V.V.o >.m Z 5.G G 5.Z m #.s C.R.5 q   @ X X X X X X X X X X X X X X X X                 X X X X X X X X w     o o X X p A.] K -.P I &.%.#.K F P &.&.P F T.^   X 7 [ 7 @ X X X X X X X X X X @ @ X X X X X X > > > > @ @ > > > @ > > > > e X X / D.M., >.m A 5.G G 5.A m -.4 M.R./   ; , > > > > > > > > > > > > > > > > > > > > > > > > > > > > > > > > > X r : A.f.&.P K K K K K K K K K K K K K K K K I P N.A.1 p   w = = > > > > > > > > > > > > > > > > > > > > > > > > > > > > > > 1 X X / R.M., -.m Z 5.G F 5.Z m >., M.D./ X   e @ @ @ @ @ @ X > > > > @ @ @ @ > X @ @ @ X X X X X @ @ X X X X @ 9   X X # 8 X F D.] P %.P I I O.%.P G K &.%.P F R.! . - > [ [ . X X X X X X X X                 X X X X X X X X X X X X X X X X @   . z V.V.s P Q Z 5.G G 5.D Q >.o V.V.z @   a                     X X                                           o   o R.g.$.I K P K K P K K &.",
"&.P P &.P P %.P L B $.T.f.O                         X X X X                                       8 6 O h F.B.O.8.%.1.F F 1.%.8.%.a.F.Q O O #       X   X X     X   X X   X X X X X X X X X X X X X X X X X X X @ @ ,     @ # X Z.H.F -.A F P t P P A K %.K G ) T.j   w > =     X X X X X X X X X X X X X X X X X X X X X X @ @ X X X X X X X X   u y O W F.M.S &.&.1.K K 1.&.&.X.B.S.W X 7 4   > > > > X X X X @ @ @ @ > > > > > > > > > > > > > > > > > > > > @ ; # N.T.$.B L P P P P P P P P P P P P P P P P L B 8.D.N.u X > > > > > > > > > > > > > > > > > > > > > > > > > X X X > X X > > X , w X W E.N.O.&.<.1.K K 1.7.&.S M.F.W O y u   X X X X X > > > X X X X X X X X X X X X X X X X X X X X X X X X y > -     O ,   A.g.F Z P K I P P P K K %.K G ` E.j   >     X   X X X X X X X X X X X X X X X X X X X   X         X     X X X X     O   W D.g.%.I %.1.F F 1.%.I S M.F.h O 6 8                                   X X X   X                             N.T.L Z ) P %.P P &.P P :.",
"&.K P P K K P P -.v 6.( A._ O                                                                     8   @   5 R.N.t *.I L G I *.t N.R.h     X O X X X X X X X X X X X X X X X X X X X X X X X X X X X X X X X X X .   > > 7 # . % s.K.G S o.P w.&.F &.P S #.F ) J.D.j + O   - = < X X X X X X X X X @ @ @ X X X X X X X X > > @ @ @ @ @ @ @ @ @ @ > @ X >   Q D.H.V @.I G G I @.t J.V.W   ; ,   = > > > > X X X X > > > > > > > > > > > > > > > > > > > > > > > > - w ~ F.q.*.b +.P P K P P P P P P P P P P P P P +.m o.q.E.W w - > > > > > > > > > > > > > > > > > > > > > > > > X X X X > X X > = @ - ,   Q R.H.B o.I L L I o.V H.D.Q   , o 7 > > > > > > > > > X X X X X X X X X X X X @ X X X X X X X X X X X     X w @   2 % A.K.( Z O.A I I A &.P P O.V ) J.Z.* + u . % X ; X X X X X X X X X X X X X X X X X X X X X X X   X X X X X X X X   O X X   l R.H.t o.H F F I *.V N.R.j   X   8                                                                     O ^ F./ 3.n %.K P K K P K K &.",
"&.P P P P P P P +.J K *.p.E.q                                           X o X o o o o o o o X X @   o *   O z S.K.{ S ( ) S p B.A./ O   #   X X X X X X X X X X X X X X X X X X X X X X X X X X X X X X X X X X   e w   - ~ f.Q.T.U.m.P #.P K F F &.P O.%.L ` Y.V.R.R.~ x q O O X X X X @ X @ @ X X X X @ @ @ X @ > > > > > > > > > > > > > > @ w =   a > O / A.B.Z K ( ( K Z B.S./   > a o = w > > > > > > > > > > > > > > > > > > > > > > > > > > > > > > > > : @ E.p.@.:.z +.P P P P P P P P P P P P P P P P +.) S @.a.E.> - > > > > > > > > > > > > > > > > > > > > > > > > > > > > > > > > w =   a =   ) G.B.p S ( ( S p B.S./ O > a   = w > > > > > > > > @ @ @ @ > > X X X X X X X X X X X X X X X X X X   t 9   - ! K.W.B.U.e.&.-.P I I V &.P P %.P ` L.L.R.T.~ % # O O X X X X X X X X X X X X X X X X X X X X X X X X X X X X X X X X @ =   #     / Z.B.p S ) ) S p K.S.z O   + o   7 o o o o o o o o                                                   a E.^ *.-.N +.K P K K P P K &.",
"&.P P %.P P P P K *.: ;.F R.v.                                                                      >     9   h E.B.p @.O.f B.E.l   7   .   X                           X X X X X X X X X X X X           X X X =   O j R./.H.0.] ) q.t %.%.P I P P A A %.I J ` ( Q g.R.R.~ # } X X X X X X X X X X X X X X X X X X X X X X X X X X X X X X X X   = >   o y   h E.B.B O.O.V B.E.h X w -   > r   X X X X > @ > @ > > @ @ > > > > > > > > > > > > > > > > > > > >   z.R.t ;.n ;.A P P P P P P P P P P P P P P P P S *.M #.s R.j.X > > > > > > > > > > > > > > > > > > > > > @ > > X > X X > > > >   > >   o y   k E.B.f O.O.f B.E.k   y X   > =   X X X X X X X X X X X X X X X X X X X X X X X X X X X X X X X X > X . h T.^.H.( W ' ( P %.A K L P P F A &.P G ' ( Q C.).Q.~   [ X               X X X X X X X X X X X   X                           O . o @   l E.B.F O.O.F B.E.k   9     @ X .                                                                   j.T.n ,.t P P P P P P P P P &.",
"%.K K P K K P K J +.H I %.' R.%                                           X o o X X X X         o O   X 8 O     % F.f.O.O.f.F.2     # 7   , O o X X X X X X X X X X X X X X X X                 X X X X X X X X w   _ T.B.j ; #.K F I F P #.t F &.P F F P #.K V $.| u 3 a.V.H.. X X X X @ X @ @ X X @ @ @ @ @ @ @ @ @ @ @ @ @ @ > > > > > > > > 2 O > = 8 e     2 F.N.O.O.N.F.2 X X # u ; X 7 - > > > > > > > > > > > > > > > > > > > > > > > > > > > > > > > > 2 Q.` O.( V 2.G K K K K K K K K K K K K K K K K G 5.H J O.' Q.2 > > > > > > > > > > > > > > > > > > > > > > > > > > > > > > > > - O = = 8 e   X 2 F.h.O.O.h.F.2 X   e 8 = > O 2 > > > > > > > > > > @ @ @ X @ @ @ @ @ @ @ @ @ @ X X X @ X X X X 7   ~ L.H.Q > -.t F G F P %.P P %.P F K P %.K F 9.%.< 1 g.D.N.  X X X X X X X X         X X     X X X X X X X X X X X X X X X X o O #   O ,   . 2 F.h.O.O.h.F.%     O 8 X   6 . X X X X X X X X                                                 5 T.' %.H A 2.G K P K K P K K &.",
"w.:.:.,.:.:.:.:.( &.6.R ( ;.U.j.# # # # # # # # # # # # # # # # # # # # # # # , , , , , # # # # [ % % w @ o a r @ l E.H.H.E.~ > < # . @ p   2 .., , , , e e e e # , # # , , , , , , , , , , , , , , , , , , , , q j V.V./ t.y.E 6.,.I e.;.,.&.w.;.&.T ( &.,.,.>.q.:.6.6.;.u.W.a., , , , e e , , , , e e e e e e e e e e e e e t e e e e e e , t } 5 - p r o s r w Q E.H.H.E.Q w i u , < r 3 2 } 1 1 1 1 1 t t t r r r t t t t t t t t t t t t t 1 1 1 1 1 1 1 1 j.U.,.T J 6.S e.:.:.:.:.:.:.:.:.:.:.:.:.:.:.:.:.( <.6.J ( ;.U.j.1 1 1 1 1 t t t t t t t t t t t t t t t t t w w 1 1 1 1 1 1 1 1 [ 3 - p r # | i w _ E.H.H.E._ w r s o r p : 5 [ e e e e e e e e t t t e e e e e e e e e e e e e , , e e , , , , q W !.V.L t.6.Y 6.-.q.I ;.w.&.w.>.;.8.8.&.,.,.,.-.T :.6.-.n.R.p., , , , , , , , , , , , , , , , , , , , , , , , , , e e e , , e 8 2 X i > . a y @ l E.H.f.E.l @ > a o > w % % [ # , , , # # # , , # , , # # # # # # # # # # # # # # # # # # # # p.{.I ( Y 6.-.` :.:.:.:.,.:.:.w."
};
